assets/luts/nordic-winter.cube
# Nordic Winter — Aperture X
#
# Das klare, kalte Licht kurzer nordischer Wintertage: kuehle, leicht
# angehobene Schatten (Schnee im Schatten ist blau, nicht schwarz),
# fast neutrale Lichter (Schnee darf nicht blau ausbrennen), gedaempfte
# Rot- und Gelbtoene bei erhaltener Blau-Cyan-Saettigung.
#
# Original erstellt fuer Aperture X (Phase 28, siehe DECISIONS.md
# ADR-0058) — kein fremdes Werk enthalten, frei verwendbar. Erzeugt
# aus derselben Formel wie der eingebaute Filter gleichen Namens;
# `builtin_lut_matches_shipped_cube_files` in builtin_luts.rs prueft
# beide real gegeneinander.
TITLE "Nordic Winter"
LUT_3D_SIZE 33
DOMAIN_MIN 0.0 0.0 0.0
DOMAIN_MAX 1.0 1.0 1.0
0.000000 0.000000 0.085000
0.000000 0.000000 0.083573
0.000000 0.000000 0.082160
0.016012 0.000000 0.080761
0.044668 0.000000 0.079377
0.073317 0.000000 0.078007
0.101959 0.000000 0.076651
0.130594 0.000000 0.075310
0.159221 0.000000 0.073984
0.187842 0.000000 0.072671
0.216455 0.000000 0.071373
0.245060 0.000000 0.070090
0.273659 0.000000 0.068821
0.302250 0.000000 0.067567
0.330834 0.000000 0.066327
0.359410 0.000000 0.065102
0.387979 0.000000 0.063891
0.416541 0.000000 0.062696
0.445095 0.000000 0.061514
0.473642 0.000000 0.060348
0.502181 0.000000 0.059196
0.530713 0.000000 0.058059
0.559237 0.000000 0.056936
0.587754 0.000000 0.055829
0.616264 0.000000 0.054736
0.644765 0.000000 0.053658
0.673260 0.000000 0.052595
0.701746 0.000000 0.051546
0.730225 0.000000 0.050513
0.758696 0.000000 0.049495
0.787160 0.000000 0.048491
0.815616 0.000000 0.047503
0.844064 0.000000 0.046530
0.000000 0.011914 0.082207
0.000000 0.011549 0.080808
0.000000 0.010480 0.079423
0.020154 0.009412 0.078052
0.048796 0.008344 0.076696
0.077431 0.007275 0.075355
0.106059 0.006207 0.074028
0.134679 0.005139 0.072715
0.163293 0.004071 0.071416
0.191899 0.003003 0.070133
0.220497 0.001936 0.068863
0.249089 0.000868 0.067608
0.277673 0.000000 0.066368
0.306249 0.000000 0.065143
0.334819 0.000000 0.063932
0.363381 0.000000 0.062735
0.391935 0.000000 0.061553
0.420482 0.000000 0.060386
0.449022 0.000000 0.059234
0.477554 0.000000 0.058096
0.506078 0.000000 0.056973
0.534596 0.000000 0.055865
0.563105 0.000000 0.054772
0.591607 0.000000 0.053693
0.620101 0.000000 0.052630
0.648588 0.000000 0.051581
0.677067 0.000000 0.050547
0.705539 0.000000 0.049528
0.734003 0.000000 0.048525
0.762459 0.000000 0.047536
0.790907 0.000000 0.046562
0.819348 0.000000 0.045603
0.847781 0.000000 0.044659
0.000000 0.043828 0.079469
0.000000 0.044166 0.078098
0.000000 0.043098 0.076741
0.024268 0.042030 0.075399
0.052896 0.040962 0.074072
0.081517 0.039894 0.072758
0.110131 0.038826 0.071459
0.138737 0.037758 0.070175
0.167336 0.036690 0.068905
0.195927 0.035622 0.067650
0.224512 0.034554 0.066409
0.253089 0.033487 0.065183
0.281658 0.032419 0.063972
0.310220 0.031351 0.062775
0.338775 0.030283 0.061593
0.367322 0.029216 0.060425
0.395862 0.028148 0.059272
0.424394 0.027080 0.058134
0.452919 0.026013 0.057011
0.481437 0.024945 0.055902
0.509947 0.023877 0.054808
0.538449 0.022810 0.053729
0.566943 0.021742 0.052665
0.595431 0.020674 0.051616
0.623910 0.019606 0.050582
0.652382 0.018538 0.049562
0.680846 0.017470 0.048558
0.709302 0.016402 0.047568
0.737751 0.015334 0.046594
0.766192 0.014266 0.045635
0.794625 0.013198 0.044691
0.823050 0.012129 0.043762
0.851468 0.011061 0.042848
0.000000 0.075743 0.076786
0.000000 0.076081 0.075444
0.000000 0.075716 0.074116
0.028355 0.074648 0.072802
0.056969 0.073580 0.071503
0.085575 0.072512 0.070218
0.114174 0.071444 0.068947
0.142766 0.070376 0.067692
0.171351 0.069309 0.066450
0.199928 0.068241 0.065224
0.228498 0.067173 0.064012
0.257060 0.066105 0.062814
0.285615 0.065038 0.061632
0.314162 0.063970 0.060464
0.342703 0.062902 0.059310
0.371235 0.061835 0.058172
0.399760 0.060767 0.057048
0.428278 0.059699 0.055939
0.456788 0.058632 0.054844
0.485291 0.057564 0.053765
0.513785 0.056496 0.052700
0.542273 0.055428 0.051651
0.570752 0.054360 0.050616
0.599224 0.053293 0.049596
0.627689 0.052225 0.048591
0.656145 0.051157 0.047601
0.684594 0.050088 0.046626
0.713036 0.049020 0.045667
0.741469 0.047952 0.044722
0.769894 0.046884 0.043792
0.798312 0.045815 0.042878
0.826722 0.044747 0.041979
0.855124 0.043678 0.041095
0.000000 0.107658 0.074160
0.000000 0.107996 0.072845
0.003807 0.108334 0.071546
0.032413 0.107266 0.070260
0.061013 0.106199 0.068990
0.089605 0.105131 0.067733
0.118190 0.104063 0.066492
0.146767 0.102995 0.065265
0.175337 0.101927 0.064052
0.203900 0.100860 0.062854
0.232455 0.099792 0.061671
0.261003 0.098724 0.060502
0.289543 0.097657 0.059348
0.318076 0.096589 0.058209
0.346601 0.095521 0.057085
0.375119 0.094454 0.055975
0.403629 0.093386 0.054881
0.432132 0.092318 0.053801
0.460627 0.091250 0.052736
0.489115 0.090183 0.051685
0.517595 0.089115 0.050650
0.546067 0.088047 0.049630
0.574532 0.086979 0.048624
0.602989 0.085911 0.047634
0.631438 0.084843 0.046659
0.659879 0.083775 0.045698
0.688313 0.082706 0.044753
0.716739 0.081638 0.043823
0.745157 0.080569 0.042908
0.773567 0.079501 0.042008
0.801969 0.078432 0.041124
0.830363 0.077363 0.040255
0.858750 0.076294 0.039401
0.000000 0.139573 0.071589
0.000000 0.139911 0.070303
0.005976 0.140250 0.069032
0.036444 0.139885 0.067775
0.065029 0.138817 0.066533
0.093606 0.137750 0.065305
0.122176 0.136682 0.064092
0.150739 0.135614 0.062894
0.179295 0.134546 0.061710
0.207843 0.133479 0.060541
0.236383 0.132411 0.059387
0.264917 0.131343 0.058247
0.293442 0.130276 0.057122
0.321960 0.129208 0.056012
0.350471 0.128140 0.054917
0.378974 0.127073 0.053836
0.407469 0.126005 0.052771
0.435957 0.124937 0.051720
0.464437 0.123869 0.050684
0.492910 0.122801 0.049663
0.521375 0.121733 0.048658
0.549832 0.120665 0.047667
0.578281 0.119597 0.046691
0.606723 0.118529 0.045730
0.635157 0.117461 0.044784
0.663583 0.116392 0.043854
0.692001 0.115324 0.042938
0.720412 0.114255 0.042038
0.748814 0.113187 0.041153
0.777209 0.112118 0.040283
0.805595 0.111049 0.039429
0.833974 0.109980 0.038590
0.862345 0.108910 0.037766
0.000000 0.171488 0.069074
0.000000 0.171827 0.067817
0.008117 0.172165 0.066574
0.040445 0.172504 0.065346
0.069016 0.171436 0.064132
0.097579 0.170368 0.062934
0.126135 0.169301 0.061749
0.154683 0.168233 0.060580
0.183224 0.167165 0.059425
0.211757 0.166098 0.058285
0.240283 0.165030 0.057159
0.268802 0.163962 0.056049
0.297312 0.162895 0.054953
0.325816 0.161827 0.053872
0.354311 0.160759 0.052806
0.382799 0.159691 0.051755
0.411280 0.158624 0.050719
0.439753 0.157556 0.049697
0.468218 0.156488 0.048691
0.496675 0.155420 0.047699
0.525125 0.154352 0.046723
0.553567 0.153283 0.045762
0.582001 0.152215 0.044816
0.610427 0.151147 0.043885
0.638846 0.150078 0.042969
0.667256 0.149010 0.042068
0.695659 0.147941 0.041182
0.724054 0.146872 0.040312
0.752441 0.145803 0.039457
0.780820 0.144734 0.038618
0.809191 0.143665 0.037793
0.837554 0.142595 0.036985
0.865909 0.141526 0.036191
0.000000 0.203404 0.066615
0.000000 0.203743 0.065387
0.010230 0.204081 0.064173
0.042544 0.204420 0.062973
0.072975 0.204055 0.061789
0.101523 0.202987 0.060619
0.130064 0.201920 0.059463
0.158598 0.200852 0.058323
0.187124 0.199784 0.057197
0.215643 0.198717 0.056086
0.244154 0.197649 0.054989
0.272657 0.196581 0.053908
0.301153 0.195514 0.052841
0.329642 0.194446 0.051790
0.358122 0.193378 0.050753
0.386595 0.192310 0.049731
0.415061 0.191242 0.048724
0.443518 0.190174 0.047732
0.471968 0.189106 0.046755
0.500410 0.188038 0.045794
0.528845 0.186969 0.044847
0.557272 0.185901 0.043915
0.585690 0.184833 0.042999
0.614101 0.183764 0.042098
0.642504 0.182695 0.041212
0.670899 0.181627 0.040341
0.699287 0.180558 0.039486
0.727666 0.179488 0.038645
0.756037 0.178419 0.037821
0.784400 0.177350 0.037011
0.812755 0.176280 0.036217
0.841102 0.175211 0.035439
0.869441 0.174141 0.034676
0.000000 0.235320 0.064213
0.000000 0.235658 0.063013
0.012315 0.235997 0.061828
0.044613 0.236336 0.060657
0.076905 0.236674 0.059501
0.105439 0.235606 0.058360
0.133965 0.234539 0.057234
0.162484 0.233471 0.056122
0.190995 0.232403 0.055026
0.219499 0.231336 0.053944
0.247995 0.230268 0.052877
0.276484 0.229200 0.051824
0.304965 0.228132 0.050787
0.333438 0.227064 0.049765
0.361904 0.225996 0.048757
0.390362 0.224928 0.047765
0.418812 0.223860 0.046788
0.447254 0.222792 0.045825
0.475689 0.221724 0.044878
0.504116 0.220655 0.043946
0.532535 0.219587 0.043029
0.560946 0.218518 0.042128
0.589349 0.217450 0.041241
0.617745 0.216381 0.040370
0.646132 0.215312 0.039514
0.674512 0.214243 0.038673
0.702883 0.213174 0.037848
0.731247 0.212104 0.037038
0.759602 0.211035 0.036244
0.787949 0.209965 0.035465
0.816289 0.208895 0.034701
0.844620 0.207825 0.033953
0.872943 0.206755 0.033221
0.000000 0.267236 0.061867
0.000000 0.267574 0.060696
0.014370 0.267913 0.059540
0.046654 0.268251 0.058398
0.078931 0.268590 0.057271
0.109325 0.268225 0.056159
0.137837 0.267158 0.055062
0.166341 0.266090 0.053980
0.194837 0.265022 0.052912
0.223326 0.263954 0.051859
0.251807 0.262887 0.050822
0.280281 0.261819 0.049799
0.308747 0.260751 0.048791
0.337205 0.259683 0.047798
0.365655 0.258615 0.046820
0.394098 0.257546 0.045857
0.422533 0.256478 0.044910
0.450960 0.255410 0.043977
0.479379 0.254341 0.043060
0.507791 0.253273 0.042157
0.536194 0.252204 0.041270
0.564590 0.251135 0.040399
0.592978 0.250066 0.039542
0.621357 0.248997 0.038701
0.649729 0.247928 0.037875
0.678093 0.246859 0.037065
0.706449 0.245789 0.036270
0.734796 0.244719 0.035490
0.763136 0.243649 0.034726
0.791467 0.242579 0.033978
0.819790 0.241509 0.033245
0.848105 0.240438 0.032528
0.876412 0.239368 0.031826
0.000000 0.299152 0.059578
0.000000 0.299490 0.058436
0.016397 0.299829 0.057309
0.048666 0.300167 0.056196
0.080928 0.300506 0.055098
0.113182 0.300844 0.054015
0.141679 0.299777 0.052947
0.170168 0.298709 0.051894
0.198650 0.297641 0.050856
0.227123 0.296573 0.049833
0.255589 0.295505 0.048824
0.284048 0.294437 0.047831
0.312499 0.293369 0.046852
0.340942 0.292301 0.045889
0.369377 0.291232 0.044941
0.397804 0.290164 0.044008
0.426224 0.289096 0.043090
0.454635 0.288027 0.042187
0.483039 0.286958 0.041300
0.511435 0.285890 0.040427
0.539823 0.284821 0.039570
0.568203 0.283752 0.038729
0.596575 0.282682 0.037902
0.624939 0.281613 0.037092
0.653295 0.280543 0.036296
0.681643 0.279474 0.035516
0.709983 0.278404 0.034752
0.738315 0.277334 0.034003
0.766638 0.276263 0.033269
0.794953 0.275193 0.032551
0.823260 0.274122 0.031849
0.851559 0.273051 0.031163
0.879849 0.271980 0.030492
0.000000 0.331067 0.057346
0.000000 0.331406 0.056233
0.018394 0.331744 0.055135
0.050649 0.332083 0.054051
0.082896 0.332421 0.052983
0.115135 0.332760 0.051929
0.145492 0.332395 0.050890
0.173966 0.331327 0.049866
0.202432 0.330259 0.048858
0.230891 0.329191 0.047864
0.259342 0.328123 0.046885
0.287785 0.327055 0.045921
0.316221 0.325987 0.044972
0.344648 0.324919 0.044039
0.373068 0.323850 0.043120
0.401480 0.322782 0.042217
0.429884 0.321713 0.041329
0.458281 0.320644 0.040456
0.486669 0.319575 0.039599
0.515049 0.318506 0.038757
0.543421 0.317437 0.037930
0.571786 0.316367 0.037118
0.600142 0.315298 0.036322
0.628490 0.314228 0.035542
0.656830 0.313158 0.034777
0.685162 0.312088 0.034027
0.713486 0.311018 0.033293
0.741801 0.309947 0.032575
0.770108 0.308877 0.031873
0.798407 0.307806 0.031186
0.826698 0.306734 0.030515
0.854980 0.305663 0.029859
0.883254 0.304591 0.029220
0.000000 0.362983 0.055171
0.000000 0.363322 0.054087
0.020363 0.363660 0.053018
0.052602 0.363999 0.051964
0.084834 0.364337 0.050925
0.117059 0.364675 0.049900
0.149275 0.365014 0.048891
0.177734 0.363946 0.047897
0.206186 0.362878 0.046917
0.234629 0.361809 0.045953
0.263065 0.360741 0.045004
0.291493 0.359673 0.044070
0.319913 0.358604 0.043151
0.348325 0.357536 0.042247
0.376729 0.356467 0.041358
0.405126 0.355398 0.040485
0.433514 0.354329 0.039627
0.461895 0.353260 0.038784
0.490267 0.352191 0.037957
0.518632 0.351122 0.037145
0.546988 0.350052 0.036349
0.575337 0.348983 0.035568
0.603677 0.347913 0.034802
0.632009 0.346843 0.034052
0.660333 0.345772 0.033318
0.688649 0.344702 0.032599
0.716957 0.343631 0.031896
0.745256 0.342560 0.031208
0.773547 0.341489 0.030537
0.801829 0.340417 0.029881
0.830103 0.339346 0.029241
0.858369 0.338274 0.028617
0.886626 0.337201 0.028008
0.000000 0.394899 0.053053
0.000000 0.395237 0.051999
0.022302 0.395576 0.050959
0.054526 0.395914 0.049934
0.086743 0.396252 0.048924
0.118952 0.396591 0.047929
0.151154 0.396929 0.046950
0.181473 0.396564 0.045985
0.209909 0.395496 0.045035
0.238337 0.394427 0.044100
0.266757 0.393359 0.043181
0.295170 0.392290 0.042277
0.323574 0.391222 0.041388
0.351971 0.390153 0.040514
0.380360 0.389084 0.039655
0.408741 0.388015 0.038812
0.437113 0.386946 0.037984
0.465478 0.385876 0.037172
0.493835 0.384807 0.036375
0.522184 0.383737 0.035593
0.550524 0.382667 0.034827
0.578857 0.381597 0.034077
0.607181 0.380527 0.033342
0.635497 0.379456 0.032623
0.663805 0.378385 0.031919
0.692104 0.377315 0.031231
0.720395 0.376243 0.030559
0.748678 0.375172 0.029902
0.776953 0.374100 0.029262
0.805219 0.373028 0.028637
0.833476 0.371956 0.028028
0.861725 0.370883 0.027436
0.889966 0.369810 0.026859
0.000000 0.426815 0.050993
0.000000 0.427153 0.049968
0.024211 0.427491 0.048958
0.056421 0.427829 0.047962
0.088622 0.428168 0.046982
0.120816 0.428506 0.046017
0.153003 0.428844 0.045066
0.185181 0.429182 0.044131
0.213602 0.428113 0.043211
0.242014 0.427045 0.042307
0.270419 0.425976 0.041417
0.298816 0.424907 0.040543
0.327205 0.423838 0.039684
0.355586 0.422769 0.038840
0.383960 0.421700 0.038012
0.412325 0.420631 0.037199
0.440682 0.419561 0.036401
0.469031 0.418491 0.035619
0.497371 0.417421 0.034853
0.525704 0.416351 0.034102
0.554029 0.415281 0.033366
0.582345 0.414211 0.032646
0.610653 0.413140 0.031942
0.638953 0.412069 0.031254
0.667244 0.410998 0.030581
0.695527 0.409926 0.029924
0.723802 0.408855 0.029283
0.752068 0.407783 0.028658
0.780326 0.406710 0.028048
0.808576 0.405638 0.027455
0.836816 0.404565 0.026878
0.865048 0.403492 0.026317
0.893272 0.402418 0.025772
0.000000 0.458730 0.048991
0.000000 0.459068 0.047995
0.026091 0.459406 0.047014
0.058285 0.459744 0.046049
0.090471 0.460082 0.045098
0.122650 0.460420 0.044162
0.154821 0.460758 0.043242
0.186984 0.461096 0.042337
0.217264 0.460730 0.041447
0.245661 0.459662 0.040572
0.274051 0.458593 0.039712
0.302432 0.457524 0.038868
0.330806 0.456454 0.038039
0.359171 0.455385 0.037226
0.387528 0.454315 0.036428
0.415877 0.453246 0.035645
0.444219 0.452176 0.034878
0.472551 0.451106 0.034126
0.500876 0.450036 0.033390
0.529193 0.448965 0.032670
0.557501 0.447894 0.031965
0.585801 0.446823 0.031276
0.614093 0.445752 0.030603
0.642376 0.444681 0.029946
0.670651 0.443609 0.029304
0.698918 0.442537 0.028678
0.727176 0.441465 0.028068
0.755426 0.440392 0.027475
0.783667 0.439320 0.026897
0.811899 0.438246 0.026335
0.840123 0.437173 0.025789
0.868338 0.436099 0.025260
0.896545 0.435025 0.024747
0.000000 0.490645 0.047047
0.000000 0.490983 0.046081
0.027940 0.491321 0.045129
0.060119 0.491659 0.044193
0.092290 0.491997 0.043272
0.124454 0.492335 0.042367
0.156609 0.492672 0.041476
0.188757 0.493010 0.040601
0.220896 0.493347 0.039741
0.249278 0.492278 0.038896
0.277652 0.491209 0.038066
0.306017 0.490139 0.037252
0.334375 0.489070 0.036454
0.362724 0.488000 0.035671
0.391066 0.486930 0.034903
0.419399 0.485860 0.034151
0.447724 0.484790 0.033415
0.476041 0.483720 0.032694
0.504349 0.482649 0.031989
0.532650 0.481578 0.031299
0.560942 0.480507 0.030625
0.589225 0.479435 0.029967
0.617501 0.478364 0.029325
0.645768 0.477292 0.028699
0.674026 0.476219 0.028089
0.702276 0.475147 0.027494
0.730517 0.474074 0.026916
0.758750 0.473001 0.026354
0.786974 0.471927 0.025807
0.815190 0.470854 0.025277
0.843396 0.469779 0.024764
0.871594 0.468705 0.024266
0.899783 0.467630 0.023785
0.000000 0.522560 0.045161
0.000000 0.522898 0.044224
0.029760 0.523236 0.043303
0.061923 0.523573 0.042396
0.094079 0.523911 0.041505
0.126227 0.524248 0.040630
0.158367 0.524586 0.039769
0.190499 0.524923 0.038924
0.222623 0.525260 0.038094
0.252863 0.524894 0.037279
0.281221 0.523824 0.036480
0.309571 0.522755 0.035697
0.337913 0.521685 0.034929
0.366246 0.520615 0.034176
0.394572 0.519544 0.033439
0.422889 0.518474 0.032718
0.451198 0.517403 0.032012
0.479498 0.516332 0.031322
0.507790 0.515261 0.030647
0.536074 0.514190 0.029989
0.564350 0.513118 0.029346
0.592617 0.512046 0.028719
0.620876 0.510974 0.028109
0.649126 0.509901 0.027514
0.677368 0.508829 0.026935
0.705601 0.507755 0.026372
0.733825 0.506682 0.025825
0.762041 0.505608 0.025295
0.790248 0.504534 0.024781
0.818446 0.503459 0.024283
0.846636 0.502384 0.023801
0.874816 0.501309 0.023336
0.902988 0.500233 0.022887
0.000000 0.554474 0.043333
0.000000 0.554812 0.042426
0.031549 0.555150 0.041535
0.063697 0.555487 0.040658
0.095837 0.555825 0.039797
0.127969 0.556162 0.038952
0.160094 0.556499 0.038121
0.192210 0.556836 0.037306
0.224318 0.557172 0.036507
0.256418 0.557509 0.035723
0.284760 0.556439 0.034954
0.313094 0.555369 0.034201
0.341419 0.554299 0.033463
0.369737 0.553228 0.032741
0.398046 0.552158 0.032035
0.426347 0.551087 0.031345
0.454639 0.550016 0.030670
0.482923 0.548944 0.030011
0.511199 0.547873 0.029367
0.539467 0.546801 0.028740
0.567726 0.545728 0.028129
0.595976 0.544656 0.027533
0.624218 0.543583 0.026954
0.652451 0.542510 0.026391
0.680676 0.541436 0.025843
0.708892 0.540363 0.025312
0.737099 0.539288 0.024797
0.765298 0.538214 0.024299
0.793488 0.537139 0.023817
0.821669 0.536064 0.023351
0.849841 0.534988 0.022902
0.878004 0.533912 0.022469
0.906158 0.532835 0.022053
0.000000 0.586388 0.041564
0.001167 0.586726 0.040687
0.033308 0.587063 0.039826
0.065440 0.587400 0.038980
0.097565 0.587738 0.038149
0.129681 0.588074 0.037333
0.161789 0.588411 0.036533
0.193890 0.588748 0.035748
0.225982 0.589084 0.034979
0.258066 0.589420 0.034226
0.288267 0.589053 0.033488
0.316584 0.587983 0.032765
0.344894 0.586912 0.032058
0.373195 0.585841 0.031367
0.401488 0.584770 0.030692
0.429772 0.583699 0.030032
0.458049 0.582627 0.029389
0.486316 0.581555 0.028761
0.514575 0.580483 0.028149
0.542826 0.579410 0.027553
0.571068 0.578338 0.026973
0.599302 0.577264 0.026409
0.627527 0.576191 0.025861
0.655743 0.575117 0.025330
0.683951 0.574043 0.024814
0.712150 0.572969 0.024315
0.740340 0.571894 0.023833
0.768521 0.570818 0.023366
0.796693 0.569743 0.022916
0.824857 0.568666 0.022483
0.853011 0.567590 0.022066
0.881156 0.566513 0.021666
0.909293 0.565435 0.021283
0.000000 0.618302 0.039854
0.002911 0.618639 0.039008
0.035036 0.618976 0.038176
0.067152 0.619313 0.037360
0.099261 0.619650 0.036559
0.131361 0.619987 0.035774
0.163454 0.620323 0.035005
0.195538 0.620659 0.034251
0.227614 0.620995 0.033512
0.259682 0.621331 0.032789
0.291742 0.621667 0.032082
0.320043 0.620596 0.031390
0.348337 0.619525 0.030714
0.376621 0.618453 0.030054
0.404898 0.617382 0.029410
0.433166 0.616310 0.028781
0.461425 0.615237 0.028169
0.489676 0.614165 0.027572
0.517919 0.613092 0.026992
0.546153 0.612019 0.026428
0.574378 0.610946 0.025879
0.602595 0.609872 0.025347
0.630803 0.608798 0.024831
0.659002 0.607723 0.024332
0.687192 0.606648 0.023848
0.715374 0.605573 0.023381
0.743546 0.604497 0.022931
0.771710 0.603421 0.022497
0.799865 0.602345 0.022080
0.828010 0.601268 0.021679
0.856147 0.600190 0.021295
0.884274 0.599112 0.020928
0.912392 0.598034 0.020578
0.000000 0.650215 0.038204
0.004623 0.650552 0.037387
0.036732 0.650889 0.036586
0.068833 0.651225 0.035800
0.100926 0.651562 0.035030
0.133011 0.651898 0.034275
0.165087 0.652234 0.033536
0.197155 0.652570 0.032813
0.229215 0.652905 0.032105
0.261267 0.653241 0.031413
0.293310 0.653576 0.030736
0.323470 0.653208 0.030076
0.351747 0.652136 0.029431
0.380015 0.651064 0.028802
0.408275 0.649992 0.028189
0.436526 0.648919 0.027592
0.464769 0.647847 0.027011
0.493003 0.646774 0.026446
0.521229 0.645700 0.025897
0.549446 0.644626 0.025365
0.577654 0.643552 0.024848
0.605854 0.642478 0.024348
0.634044 0.641403 0.023864
0.662226 0.640328 0.023397
0.690399 0.639252 0.022946
0.718563 0.638176 0.022511
0.746718 0.637099 0.022093
0.774864 0.636022 0.021692
0.803001 0.634945 0.021308
0.831128 0.633867 0.020940
0.859247 0.632788 0.020589
0.887356 0.631709 0.020255
0.915455 0.630630 0.019938
0.000000 0.682128 0.036612
0.006305 0.682464 0.035826
0.038398 0.682801 0.035055
0.070483 0.683137 0.034300
0.102560 0.683473 0.033561
0.134628 0.683809 0.032837
0.166688 0.684144 0.032128
0.198740 0.684480 0.031436
0.230784 0.684815 0.030759
0.262819 0.685150 0.030098
0.294846 0.685484 0.029452
0.326865 0.685819 0.028823
0.355125 0.684746 0.028209
0.383377 0.683674 0.027612
0.411620 0.682601 0.027030
0.439854 0.681528 0.026465
0.468080 0.680455 0.025915
0.496297 0.679381 0.025382
0.524506 0.678307 0.024865
0.552705 0.677232 0.024364
0.580896 0.676157 0.023880
0.609078 0.675082 0.023412
0.637252 0.674006 0.022961
0.665416 0.672930 0.022526
0.693571 0.671854 0.022107
0.721717 0.670777 0.021705
0.749854 0.669699 0.021320
0.777982 0.668622 0.020952
0.806101 0.667543 0.020601
0.834210 0.666464 0.020266
0.862311 0.665385 0.019949
0.890401 0.664305 0.019648
0.918482 0.663224 0.019365
0.000000 0.714039 0.035081
0.007955 0.714376 0.034325
0.040032 0.714712 0.033585
0.072101 0.715047 0.032861
0.104161 0.715383 0.032152
0.136214 0.715718 0.031459
0.168258 0.716054 0.030781
0.200293 0.716388 0.030119
0.232321 0.716723 0.029474
0.264339 0.717057 0.028844
0.296350 0.717391 0.028230
0.328352 0.717725 0.027631
0.358470 0.717356 0.027049
0.386705 0.716283 0.026483
0.414931 0.715209 0.025933
0.443148 0.714135 0.025400
0.471357 0.713061 0.024882
0.499557 0.711987 0.024381
0.527748 0.710912 0.023896
0.555931 0.709837 0.023427
0.584104 0.708761 0.022975
0.612269 0.707685 0.022540
0.640424 0.706609 0.022121
0.668571 0.705532 0.021718
0.696708 0.704454 0.021333
0.724837 0.703376 0.020964
0.752956 0.702298 0.020612
0.781065 0.701219 0.020277
0.809166 0.700139 0.019959
0.837257 0.699059 0.019658
0.865338 0.697979 0.019374
0.893410 0.696898 0.019108
0.921472 0.695816 0.018858
0.000000 0.745950 0.033610
0.009574 0.746286 0.032884
0.041635 0.746622 0.032175
0.073687 0.746957 0.031481
0.105731 0.747292 0.030803
0.137767 0.747627 0.030141
0.169795 0.747962 0.029495
0.201814 0.748296 0.028864
0.233825 0.748630 0.028250
0.265827 0.748964 0.027651
0.297820 0.749298 0.027068
0.329805 0.749631 0.026502
0.361782 0.749964 0.025951
0.390000 0.748890 0.025417
0.418209 0.747816 0.024899
0.446409 0.746741 0.024397
0.474601 0.745667 0.023912
0.502783 0.744591 0.023443
0.530957 0.743516 0.022990
0.559122 0.742440 0.022554
0.587278 0.741363 0.022135
0.615425 0.740286 0.021732
0.643562 0.739209 0.021345
0.671691 0.738131 0.020976
0.699810 0.737052 0.020623
0.727920 0.735974 0.020288
0.756021 0.734894 0.019969
0.784112 0.733814 0.019668
0.812194 0.732734 0.019383
0.840266 0.731652 0.019116
0.868329 0.730571 0.018866
0.896382 0.729488 0.018634
0.924425 0.728405 0.018419
0.000000 0.777861 0.032198
0.011160 0.778196 0.031504
0.043205 0.778531 0.030826
0.075241 0.778866 0.030163
0.107269 0.779201 0.029516
0.139288 0.779535 0.028885
0.171299 0.779869 0.028270
0.203302 0.780203 0.027671
0.235296 0.780537 0.027088
0.267281 0.780870 0.026521
0.299258 0.781203 0.025970
0.331226 0.781535 0.025435
0.363185 0.781867 0.024916
0.393261 0.781496 0.024414
0.421453 0.780421 0.023928
0.449636 0.779346 0.023458
0.477810 0.778270 0.023005
0.505975 0.777194 0.022568
0.534131 0.776118 0.022148
0.562278 0.775041 0.021745
0.590416 0.773963 0.021358
0.618545 0.772886 0.020988
0.646665 0.771807 0.020635
0.674775 0.770728 0.020299
0.702876 0.769649 0.019980
0.730968 0.768569 0.019677
0.759050 0.767488 0.019392
0.787122 0.766407 0.019125
0.815185 0.765325 0.018874
0.843238 0.764243 0.018641
0.871282 0.763160 0.018426
0.899315 0.762076 0.018228
0.927339 0.760992 0.018048
0.000000 0.809770 0.030848
0.012715 0.810105 0.030185
0.044743 0.810440 0.029537
0.076763 0.810774 0.028906
0.108774 0.811108 0.028290
