assets/luts/nordic-winter.cube
# Nordic Winter — Aperture X
#
# Das klare, kalte Licht kurzer nordischer Wintertage: kuehle, leicht
# angehobene Schatten (Schnee im Schatten ist blau, nicht schwarz),
# fast neutrale Lichter (Schnee darf nicht blau ausbrennen), gedaempfte
# Rot- und Gelbtoene bei erhaltener Blau-Cyan-Saettigung.
#
# Original erstellt fuer Aperture X (Phase 28, siehe DECISIONS.md
# ADR-0058) — kein fremdes Werk enthalten, frei verwendbar. Erzeugt
# aus derselben Formel wie der eingebaute Filter gleichen Namens;
# `builtin_lut_matches_shipped_cube_files` in builtin_luts.rs prueft
# beide real gegeneinander.
TITLE "Nordic Winter"
LUT_3D_SIZE 9
DOMAIN_MIN 0.0 0.0 0.0
DOMAIN_MAX 1.0 1.0 1.0
0.000000 0.000000 0.085000
0.044668 0.000000 0.079377
0.159221 0.000000 0.073984
0.273659 0.000000 0.068821
0.387979 0.000000 0.063891
0.502181 0.000000 0.059196
0.616264 0.000000 0.054736
0.730225 0.000000 0.050513
0.844064 0.000000 0.046530
0.000000 0.107658 0.074160
0.061013 0.106199 0.068990
0.175337 0.101927 0.064052
0.289543 0.097657 0.059348
0.403629 0.093386 0.054881
0.517595 0.089115 0.050650
0.631438 0.084843 0.046659
0.745157 0.080569 0.042908
0.858750 0.076294 0.039401
0.000000 0.235320 0.064213
0.076905 0.236674 0.059501
0.190995 0.232403 0.055026
0.304965 0.228132 0.050787
0.418812 0.223860 0.046788
0.532535 0.219587 0.043029
0.646132 0.215312 0.039514
0.759602 0.211035 0.036244
0.872943 0.206755 0.033221
0.000000 0.362983 0.055171
0.084834 0.364337 0.050925
0.206186 0.362878 0.046917
0.319913 0.358604 0.043151
0.433514 0.354329 0.039627
0.546988 0.350052 0.036349
0.660333 0.345772 0.033318
0.773547 0.341489 0.030537
0.886626 0.337201 0.028008
0.000000 0.490645 0.047047
0.092290 0.491997 0.043272
0.220896 0.493347 0.039741
0.334375 0.489070 0.036454
0.447724 0.484790 0.033415
0.560942 0.480507 0.030625
0.674026 0.476219 0.028089
0.786974 0.471927 0.025807
0.899783 0.467630 0.023785
0.000000 0.618302 0.039854
0.099261 0.619650 0.036559
0.227614 0.620995 0.033512
0.348337 0.619525 0.030714
0.461425 0.615237 0.028169
0.574378 0.610946 0.025879
0.687192 0.606648 0.023848
0.799865 0.602345 0.022080
0.912392 0.598034 0.020578
0.000000 0.745950 0.033610
0.105731 0.747292 0.030803
0.233825 0.748630 0.028250
0.361782 0.749964 0.025951
0.474601 0.745667 0.023912
0.587278 0.741363 0.022135
0.699810 0.737052 0.020623
0.812194 0.732734 0.019383
0.924425 0.728405 0.018419
0.000000 0.873586 0.028331
0.111685 0.874919 0.026024
0.239509 0.876247 0.023976
0.367191 0.877569 0.022190
0.487228 0.876071 0.020670
0.599617 0.871753 0.019420
0.711853 0.867425 0.018447
0.823931 0.863085 0.017755
0.935846 0.858734 0.017353
0.000000 1.000000 0.024040
0.117104 1.000000 0.022245
0.244646 1.000000 0.020716
0.372040 1.000000 0.019457
0.499281 1.000000 0.018475
0.611365 1.000000 0.017774
0.723285 0.997754 0.017361
0.835034 0.993388 0.017247
0.946604 0.989005 0.017441
0.000000 0.000000 0.207912
0.053851 0.000000 0.202373
0.168362 0.000000 0.197064
0.282757 0.000000 0.191987
0.397034 0.000000 0.187142
0.511192 0.000000 0.182533
0.625230 0.000000 0.178160
0.739147 0.000000 0.174025
0.852940 0.000000 0.170129
0.000000 0.108154 0.197237
0.070112 0.109507 0.192152
0.184393 0.105237 0.187300
0.298555 0.100966 0.182683
0.412598 0.096695 0.178302
0.526518 0.092424 0.174159
0.640316 0.088151 0.170255
0.753989 0.083877 0.166594
0.867536 0.079601 0.163176
0.000000 0.235816 0.187458
0.078419 0.237171 0.182833
0.199965 0.235712 0.178444
0.313890 0.231441 0.174293
0.427691 0.227169 0.170382
0.541369 0.222895 0.166712
0.654919 0.218619 0.163286
0.768342 0.214341 0.160106
0.881635 0.210059 0.157175
0.000000 0.363480 0.178586
0.086261 0.364833 0.174427
0.215067 0.366186 0.170508
0.328748 0.361912 0.166830
0.442303 0.357636 0.163396
0.555730 0.353358 0.160208
0.669027 0.349077 0.157269
0.782192 0.344792 0.154580
0.895222 0.340503 0.152145
0.000000 0.491141 0.170635
0.093627 0.492492 0.166949
0.222187 0.493842 0.163507
0.343118 0.492376 0.160311
0.456419 0.488095 0.157363
0.569588 0.483810 0.154666
0.682623 0.479521 0.152222
0.795520 0.475227 0.150036
0.908278 0.470928 0.148109
0.000000 0.618797 0.163618
0.100506 0.620144 0.160413
0.228811 0.621488 0.157457
0.356985 0.622828 0.154751
0.470024 0.618539 0.152300
0.582926 0.614246 0.150104
0.695689 0.609946 0.148169
0.808308 0.605640 0.146498
0.920782 0.601326 0.145095
0.000000 0.746443 0.157551
0.106881 0.747783 0.154838
0.234925 0.749120 0.152377
0.362832 0.750451 0.150173
0.483099 0.748964 0.148230
0.595723 0.744658 0.146549
0.708202 0.740345 0.145137
0.820530 0.736023 0.143997
0.932703 0.731690 0.143136
0.000000 0.874075 0.152455
0.112737 0.875407 0.150243
0.240509 0.876733 0.148290
0.368138 0.878052 0.146601
0.495621 0.879364 0.145180
0.607955 0.875042 0.144031
0.720134 0.870710 0.143160
0.832153 0.866366 0.142574
0.944006 0.862010 0.142279
0.000000 1.000000 0.148351
0.118053 1.000000 0.146653
0.245541 1.000000 0.145223
0.372879 1.000000 0.144065
0.500063 1.000000 0.143185
0.619588 1.000000 0.142588
0.731447 1.000000 0.142284
0.843131 0.996658 0.142282
0.954632 0.992268 0.142593
0.000000 0.000000 0.330854
0.063018 0.000000 0.325399
0.177487 0.000000 0.320175
0.291839 0.000000 0.315183
0.406072 0.000000 0.310425
0.520187 0.000000 0.305902
0.634181 0.000000 0.301616
0.748052 0.000000 0.297568
0.861800 0.000000 0.293762
0.000000 0.108650 0.320346
0.071695 0.110004 0.315346
0.193433 0.108546 0.310580
0.307552 0.104275 0.306049
0.421549 0.100004 0.301755
0.535425 0.095732 0.297699
0.649177 0.091459 0.293885
0.762804 0.087185 0.290312
0.876304 0.082908 0.286985
0.000000 0.236313 0.310735
0.079916 0.237667 0.306196
0.208918 0.239021 0.301894
0.322798 0.234750 0.297831
0.436554 0.230477 0.294008
0.550185 0.226202 0.290427
0.663689 0.221926 0.287092
0.777065 0.217646 0.284003
0.890309 0.213364 0.281163
0.000000 0.363976 0.302034
0.087671 0.365329 0.297962
0.216431 0.366682 0.294131
0.337566 0.365220 0.290543
0.451075 0.360943 0.287199
0.564454 0.356664 0.284102
0.677703 0.352381 0.281254
0.790818 0.348095 0.278658
0.903798 0.343804 0.276317
0.000000 0.491637 0.294255
0.094947 0.492987 0.290658
0.223460 0.494336 0.287306
0.351844 0.495682 0.284201
0.465097 0.491399 0.281345
0.578217 0.487113 0.278740
0.691201 0.482822 0.276391
0.804048 0.478526 0.274299
0.916754 0.474224 0.272469
0.000000 0.619291 0.287414
0.101733 0.620637 0.284300
0.229990 0.621980 0.281436
0.358115 0.623319 0.278823
0.478604 0.621841 0.276465
0.591455 0.617545 0.274364
0.704166 0.613243 0.272526
0.816732 0.608934 0.270952
0.929151 0.604617 0.269648
0.000000 0.746935 0.281527
0.108013 0.748274 0.278906
0.236007 0.749609 0.276539
0.363863 0.750938 0.274430
0.491578 0.752261 0.272583
0.604149 0.747953 0.271000
0.716573 0.743636 0.269687
0.828845 0.739310 0.268649
0.940961 0.734974 0.267891
0.000000 0.874564 0.276614
0.113770 0.875894 0.274496
0.241490 0.877217 0.272640
0.369066 0.878534 0.271049
0.496495 0.879843 0.269727
0.616272 0.878330 0.268679
0.728393 0.873994 0.267912
0.840352 0.869646 0.267431
0.952142 0.865283 0.267246
0.000000 1.000000 0.272698
0.118982 1.000000 0.271097
0.246416 1.000000 0.269766
0.373698 1.000000 0.268709
0.500825 1.000000 0.267933
0.627789 1.000000 0.267443
0.739585 1.000000 0.267248
0.851204 0.999926 0.267358
0.962633 0.995528 0.267789
0.000000 0.000000 0.453827
0.064670 0.000000 0.448457
0.186596 0.000000 0.443318
0.300905 0.000000 0.438411
0.415095 0.000000 0.433739
0.529165 0.000000 0.429303
0.643114 0.000000 0.425104
0.756941 0.000000 0.421145
0.870643 0.000000 0.417426
0.000000 0.109146 0.443485
0.073263 0.110500 0.438571
0.202457 0.111855 0.433891
0.316531 0.107584 0.429447
0.430485 0.103313 0.425240
0.544315 0.099041 0.421273
0.658022 0.094767 0.417546
0.771602 0.090492 0.414064
0.885055 0.086214 0.410826
0.000000 0.236810 0.434043
0.081398 0.238164 0.429591
0.210355 0.239518 0.425376
0.331690 0.238058 0.421401
0.445400 0.233785 0.417667
0.558985 0.229509 0.414176
0.672442 0.225232 0.410930
0.785769 0.220951 0.407932
0.898965 0.216667 0.405185
0.000000 0.364472 0.425513
0.089064 0.365825 0.421530
0.217779 0.367177 0.417787
0.346367 0.368527 0.414288
0.459829 0.364249 0.411034
0.573161 0.359969 0.408028
0.686361 0.355685 0.405272
0.799427 0.351397 0.402770
0.912357 0.347105 0.400523
0.000000 0.492132 0.417908
0.096250 0.493482 0.414401
0.224716 0.494830 0.411139
0.353052 0.496174 0.408124
0.473756 0.494703 0.405360
0.586827 0.490415 0.402849
0.699761 0.486123 0.400593
0.812557 0.481825 0.398597
0.925210 0.477520 0.396864
0.000000 0.619785 0.411244
0.102943 0.621130 0.408221
0.231152 0.622471 0.405448
0.359227 0.623808 0.402928
0.487166 0.625141 0.400664
0.599966 0.620843 0.398660
0.712624 0.616539 0.396918
0.825137 0.612227 0.395442
0.937500 0.607907 0.394239
0.000000 0.747426 0.405537
0.109126 0.748764 0.403008
0.237070 0.750097 0.400736
0.364875 0.751424 0.398722
0.492538 0.752745 0.396971
0.612555 0.751246 0.395487
0.724924 0.746926 0.394274
0.837139 0.742597 0.393338
0.949196 0.738256 0.392685
0.000000 0.875052 0.400807
0.114783 0.876380 0.398785
0.242451 0.877701 0.397025
0.369974 0.879015 0.395532
0.497347 0.880320 0.394310
0.624568 0.881616 0.393365
0.736630 0.877276 0.392702
0.848528 0.872923 0.392329
0.960254 0.868555 0.392255
0.000000 1.000000 0.397080
0.119892 1.000000 0.395578
0.247271 1.000000 0.394347
0.374496 1.000000 0.393392
0.501564 1.000000 0.392719
0.628468 1.000000 0.392336
0.747700 1.000000 0.392252
0.859251 1.000000 0.392478
0.970607 0.998784 0.393031
0.000000 0.000000 0.576831
0.066307 0.000000 0.571546
0.195690 0.000000 0.566492
0.309955 0.000000 0.561671
0.424101 0.000000 0.557085
0.538127 0.000000 0.552736
0.652032 0.000000 0.548624
0.765813 0.000000 0.544753
0.879469 0.000000 0.541124
0.000000 0.109643 0.566656
0.074815 0.110997 0.561828
0.203965 0.112351 0.557234
0.325495 0.110893 0.552877
0.439404 0.106621 0.548757
0.553189 0.102349 0.544878
0.666849 0.098075 0.541241
0.780383 0.093799 0.537848
0.893789 0.089520 0.534701
0.000000 0.237306 0.557383
0.082863 0.238660 0.553018
0.211775 0.240014 0.548891
0.340565 0.241366 0.545004
0.454229 0.237092 0.541358
0.567767 0.232816 0.537957
0.681177 0.228538 0.534802
0.794457 0.224256 0.531896
0.907603 0.219971 0.529241
0.000000 0.364969 0.549025
0.090440 0.366321 0.545129
0.219109 0.367672 0.541476
0.347652 0.369021 0.538066
0.468566 0.367555 0.534903
0.581849 0.363274 0.531989
0.695001 0.358989 0.529325
0.808017 0.354699 0.526916
0.920896 0.350404 0.524764
0.000000 0.492627 0.541594
0.097536 0.493976 0.538176
0.225954 0.495323 0.535005
0.354242 0.496667 0.532082
0.482398 0.498007 0.529410
0.595419 0.493717 0.526992
0.708303 0.489423 0.524831
0.821046 0.485122 0.522931
0.933647 0.480815 0.521295
0.000000 0.620278 0.535106
0.104135 0.621622 0.532175
0.232295 0.622962 0.529495
0.360320 0.624298 0.527068
0.488209 0.625628 0.524899
0.608457 0.624141 0.522990
0.721062 0.619834 0.521345
0.833521 0.615519 0.519969
0.945829 0.611196 0.518866
0.000000 0.747917 0.529580
0.110222 0.749253 0.527145
0.238115 0.750584 0.524967
0.365868 0.751909 0.523050
0.493478 0.753227 0.521396
0.620941 0.754538 0.520011
0.733254 0.750215 0.518899
0.845412 0.745881 0.518065
0.957409 0.741536 0.517517
0.000000 0.875540 0.525036
0.115778 0.876865 0.523109
0.243393 0.878184 0.521447
0.370862 0.879495 0.520053
0.498180 0.880797 0.518931
0.625343 0.882089 0.518088
0.744846 0.880556 0.517531
0.856681 0.876198 0.517266
0.968342 0.871824 0.517305
0.000000 1.000000 0.521498
0.120782 1.000000 0.520095
0.248105 1.000000 0.518964
0.375273 1.000000 0.518112
0.502281 1.000000 0.517545
0.629123 1.000000 0.517270
0.755790 1.000000 0.517298
0.867271 1.000000 0.517642
0.978552 1.000000 0.518320
0.000000 0.000000 0.699866
0.067927 0.000000 0.694665
0.197267 0.000000 0.689697
0.318989 0.000000 0.684962
0.433092 0.000000 0.680463
0.547073 0.000000 0.676200
0.660933 0.000000 0.672177
0.774668 0.000000 0.668394
0.888278 0.000000 0.664854
0.000000 0.110139 0.689859
0.076350 0.111494 0.685116
0.205457 0.112848 0.680609
0.334442 0.114202 0.676339
0.448306 0.109930 0.672307
0.562046 0.105657 0.668516
0.675660 0.101382 0.664968
0.789147 0.097105 0.661665
0.902505 0.092825 0.658610
0.000000 0.237803 0.680755
0.084312 0.239157 0.676477
0.213179 0.240510 0.672438
0.341923 0.241862 0.668639
0.463041 0.240400 0.665083
0.576533 0.236123 0.661771
0.689895 0.231843 0.658707
0.803126 0.227560 0.655893
0.916224 0.223273 0.653331
0.000000 0.365465 0.672568
0.091800 0.366817 0.668762
0.220423 0.368167 0.665197
0.348918 0.369515 0.661878
0.477285 0.370861 0.658805
0.590520 0.366578 0.655983
0.703622 0.362291 0.653412
0.816589 0.358000 0.651097
0.929417 0.353703 0.649040
0.000000 0.493122 0.665312
0.098804 0.494470 0.661985
0.227175 0.495816 0.658904
0.355415 0.497158 0.656073
0.483521 0.498497 0.653494
0.603992 0.497018 0.651170
0.716825 0.492722 0.649104
0.829516 0.488419 0.647300
0.942063 0.484109 0.645762
0.000000 0.620771 0.659003
0.105309 0.622114 0.656163
0.233420 0.623452 0.653576
0.361395 0.624786 0.651243
0.489233 0.626115 0.649169
0.616929 0.627437 0.647356
0.729481 0.623128 0.645809
0.841885 0.618810 0.644533
0.954136 0.614483 0.643531
0.000000 0.748408 0.653658
0.111298 0.749742 0.651317
0.239140 0.751071 0.649234
0.366842 0.752393 0.647412
0.494398 0.753709 0.645857
0.621807 0.755017 0.644571
0.741564 0.753502 0.643560
0.853663 0.749165 0.642831
0.965600 0.744815 0.642389
0.000000 0.876026 0.649299
0.116754 0.877349 0.647469
0.244315 0.878665 0.645904
0.371729 0.879973 0.644609
0.498991 0.881272 0.643590
0.626096 0.882559 0.642851
0.753038 0.883835 0.642399
0.864811 0.879471 0.642245
0.976405 0.875091 0.642397
0.000000 1.000000 0.645952
0.121651 1.000000 0.644648
0.248918 1.000000 0.643619
0.376028 1.000000 0.642871
0.502976 1.000000 0.642410
0.629755 1.000000 0.642245
0.756355 1.000000 0.642387
0.875265 1.000000 0.642850
0.986467 1.000000 0.643658
0.000000 0.000000 0.822933
0.069532 0.000000 0.817817
0.198829 0.000000 0.812934
0.328007 0.000000 0.808285
0.442066 0.000000 0.803872
0.556003 0.000000 0.799697
0.669817 0.000000 0.795762
0.783506 0.000000 0.792068
0.897070 0.000000 0.788618
0.000000 0.110636 0.813093
0.077870 0.111990 0.808436
0.206932 0.113344 0.804015
0.335873 0.114698 0.799833
0.457192 0.113238 0.795889
0.570885 0.108965 0.792187
0.684453 0.104689 0.788729
0.797893 0.100411 0.785516
0.911203 0.096130 0.782551
0.000000 0.238299 0.804159
0.085744 0.239653 0.799968
0.214566 0.241006 0.796017
0.343264 0.242357 0.792307
0.471836 0.243707 0.788840
0.585281 0.239429 0.785619
0.698595 0.235148 0.782646
0.811777 0.230864 0.779924
0.924826 0.226575 0.777455
0.000000 0.365961 0.796145
0.093143 0.367312 0.792426
0.221719 0.368662 0.788952
0.350168 0.370009 0.785723
0.478487 0.371353 0.782741
0.599173 0.369882 0.780011
0.712226 0.365593 0.777533
0.825142 0.361300 0.775312
0.937919 0.357001 0.773351
0.000000 0.493617 0.789064
0.100055 0.494964 0.785826
0.228378 0.496309 0.782837
0.356569 0.497650 0.780098
0.484627 0.498986 0.777612
0.612547 0.500318 0.775382
0.725328 0.496020 0.773412
0.837967 0.491714 0.771705
0.950460 0.487402 0.770266
0.000000 0.621264 0.782932
0.106465 0.622605 0.780185
0.234527 0.623942 0.777691
0.362452 0.625274 0.775452
0.490238 0.626601 0.773474
0.617882 0.627921 0.771758
0.737880 0.626421 0.770310
0.850228 0.622099 0.769133
0.962423 0.617769 0.768234
0.000000 0.748897 0.777770
0.112357 0.750230 0.775523
0.240147 0.751556 0.773535
0.367796 0.752877 0.771811
0.495299 0.754189 0.770354
0.622652 0.755494 0.769168
0.749852 0.756788 0.768260
0.861893 0.752446 0.767635
0.973768 0.748091 0.767301
0.000000 0.876512 0.773597
0.117710 0.877833 0.771864
0.245218 0.879146 0.770398
0.372576 0.880450 0.769203
0.499781 0.881745 0.768286
0.626827 0.883029 0.767651
0.753709 0.884299 0.767308
0.872917 0.882742 0.767264
0.984443 0.878355 0.767533
0.000000 1.000000 0.770442
0.122500 1.000000 0.769239
0.249710 1.000000 0.768312
0.376762 1.000000 0.767668
0.503649 1.000000 0.767314
0.630363 1.000000 0.767261
0.756895 1.000000 0.767519
0.883231 1.000000 0.768105
0.994349 1.000000 0.769047
0.000000 0.000000 0.946030
0.071121 0.000000 0.940999
0.200375 0.000000 0.936202
0.329509 0.000000 0.931639
0.451023 0.000000 0.927314
0.564915 0.000000 0.923226
0.678684 0.000000 0.919379
0.792328 0.000000 0.915774
0.905845 0.000000 0.912414
0.000000 0.111132 0.936358
0.079373 0.112487 0.931788
0.208391 0.113841 0.927454
0.337288 0.115194 0.923359
0.466061 0.116546 0.919504
0.579708 0.112272 0.915891
0.693230 0.107996 0.912522
0.806622 0.103717 0.909400
0.919884 0.099435 0.906527
0.000000 0.238796 0.927595
0.087160 0.240149 0.923491
0.215937 0.241501 0.919628
0.344589 0.242852 0.916007
0.473114 0.244201 0.912630
0.594011 0.242735 0.909500
0.707277 0.238453 0.906619
0.820411 0.234167 0.903989
0.933409 0.229877 0.901614
0.000000 0.366456 0.919753
0.094469 0.367807 0.916124
0.222999 0.369156 0.912739
0.351400 0.370502 0.909601
0.479670 0.371845 0.906711
0.607808 0.373185 0.904073
0.720811 0.368895 0.901689
0.833677 0.364600 0.899563
0.946401 0.360298 0.897698
0.000000 0.494111 0.912848
0.101289 0.495457 0.909701
0.229564 0.496801 0.906803
0.357706 0.498140 0.904157
0.485713 0.499475 0.901764
0.613583 0.500805 0.899629
0.733813 0.499317 0.897756
0.846399 0.495009 0.896146
0.958837 0.490693 0.894806
0.000000 0.621756 0.906896
0.107603 0.623096 0.904241
0.235615 0.624431 0.901840
0.363490 0.625761 0.899696
0.491224 0.627085 0.897814
0.618815 0.628403 0.896196
0.746258 0.629712 0.894847
0.858551 0.625388 0.893771
0.970688 0.621053 0.892976
0.000000 0.749387 0.901916
0.113396 0.750717 0.899764
0.241135 0.752041 0.897872
0.368731 0.753359 0.896245
0.496179 0.754669 0.894887
0.623477 0.755970 0.893803
0.750619 0.757260 0.892998
0.870100 0.755726 0.892478
0.981913 0.751366 0.892254
0.000000 0.876997 0.897931
0.118647 0.878315 0.896295
0.246100 0.879625 0.894928
0.373403 0.880926 0.893834
0.500550 0.882217 0.893020
0.627537 0.883496 0.892491
0.754356 0.884762 0.892256
0.880998 0.886011 0.892326
0.992454 0.881616 0.892712
0.000000 1.000000 0.894969
0.123329 1.000000 0.893866
0.250481 1.000000 0.893042
0.377473 1.000000 0.892504
0.504298 1.000000 0.892259
0.630947 1.000000 0.892318
0.757409 1.000000 0.892694
0.883668 1.000000 0.893407
1.000000 1.000000 0.894492
0.000000 0.000000 1.000000
0.072695 0.000000 1.000000
0.201905 0.000000 1.000000
0.330995 0.000000 1.000000
0.459965 0.000000 1.000000
0.573812 0.000000 1.000000
0.687535 0.000000 1.000000
0.801132 0.000000 1.000000
0.914602 0.000000 1.000000
0.000000 0.111629 1.000000
0.080861 0.112983 1.000000
0.209834 0.114337 1.000000
0.338686 0.115690 1.000000
0.467413 0.117042 1.000000
0.588514 0.115579 1.000000
0.701988 0.111302 1.000000
0.815333 0.107022 1.000000
0.928547 0.102739 1.000000
0.000000 0.239292 1.000000
0.088559 0.240645 1.000000
0.217290 0.241997 1.000000
0.345896 0.243347 1.000000
0.474375 0.244695 1.000000
0.602724 0.246040 1.000000
0.715942 0.241757 1.000000
0.829026 0.237469 1.000000
0.941974 0.233177 1.000000
0.000000 0.366952 1.000000
0.095778 0.368302 1.000000
0.224261 0.369650 1.000000
0.352614 0.370995 1.000000
0.480837 0.372337 1.000000
0.608925 0.373675 1.000000
0.729378 0.372196 1.000000
0.842192 0.367898 1.000000
0.954865 0.363595 1.000000
0.000000 0.494605 1.000000
0.102505 0.495950 1.000000
0.230731 0.497292 1.000000
0.358825 0.498630 1.000000
0.486782 0.499964 1.000000
0.614601 0.501292 1.000000
0.742278 0.502613 1.000000
0.854810 0.498302 1.000000
0.967194 0.493984 1.000000
0.000000 0.622248 1.000000
0.108724 0.623586 1.000000
0.236685 0.624919 1.000000
0.364509 0.626247 1.000000
0.492191 0.627569 1.000000
0.619728 0.628884 1.000000
0.747117 0.630190 1.000000
0.866853 0.628675 1.000000
0.978931 0.624335 1.000000
0.000000 0.749875 1.000000
0.114417 0.751203 1.000000
0.242104 0.752525 1.000000
0.369646 0.753840 1.000000
0.497040 0.755147 1.000000
0.624281 0.756444 1.000000
0.751365 0.757730 1.000000
0.878285 0.759004 1.000000
0.990034 0.754638 1.000000
0.000000 0.877481 1.000000
0.119563 0.878796 1.000000
0.246962 0.880103 1.000000
0.374209 0.881401 1.000000
0.501298 0.882688 1.000000
0.628224 0.883962 1.000000
0.754979 0.885222 1.000000
0.881555 0.886464 1.000000
1.000000 0.884873 1.000000
0.000000 1.000000 1.000000
0.124136 1.000000 1.000000
0.251231 1.000000 1.000000
0.378162 1.000000 1.000000
0.504923 1.000000 1.000000
0.631505 1.000000 1.000000
0.757895 1.000000 1.000000
0.884074 1.000000 1.000000
1.000000 1.000000 1.000000
