assets/luts/nordic-winter.cube
# Nordic Winter — Aperture X
#
# Das klare, kalte Licht kurzer nordischer Wintertage: kuehle, leicht
# angehobene Schatten (Schnee im Schatten ist blau, nicht schwarz),
# fast neutrale Lichter (Schnee darf nicht blau ausbrennen), gedaempfte
# Rot- und Gelbtoene bei erhaltener Blau-Cyan-Saettigung.
#
# Original erstellt fuer Aperture X (Phase 28, siehe DECISIONS.md
# ADR-0058) — kein fremdes Werk enthalten, frei verwendbar. Erzeugt
# aus derselben Formel wie der eingebaute Filter gleichen Namens;
# `builtin_lut_matches_shipped_cube_files` in builtin_luts.rs prueft
# beide real gegeneinander.
TITLE "Nordic Winter"
LUT_3D_SIZE 5
DOMAIN_MIN 0.0 0.0 0.0
DOMAIN_MAX 1.0 1.0 1.0
0.000000 0.000000 0.085000
0.159221 0.000000 0.073984
0.387979 0.000000 0.063891
0.616264 0.000000 0.054736
0.844064 0.000000 0.046530
0.000000 0.235320 0.064213
0.190995 0.232403 0.055026
0.418812 0.223860 0.046788
0.646132 0.215312 0.039514
0.872943 0.206755 0.033221
0.000000 0.490645 0.047047
0.220896 0.493347 0.039741
0.447724 0.484790 0.033415
0.674026 0.476219 0.028089
0.899783 0.467630 0.023785
0.000000 0.745950 0.033610
0.233825 0.748630 0.028250
0.474601 0.745667 0.023912
0.699810 0.737052 0.020623
0.924425 0.728405 0.018419
0.000000 1.000000 0.024040
0.244646 1.000000 0.020716
0.499281 1.000000 0.018475
0.723285 0.997754 0.017361
0.946604 0.989005 0.017441
0.000000 0.000000 0.330854
0.177487 0.000000 0.320175
0.406072 0.000000 0.310425
0.634181 0.000000 0.301616
0.861800 0.000000 0.293762
0.000000 0.236313 0.310735
0.208918 0.239021 0.301894
0.436554 0.230477 0.294008
0.663689 0.221926 0.287092
0.890309 0.213364 0.281163
0.000000 0.491637 0.294255
0.223460 0.494336 0.287306
0.465097 0.491399 0.281345
0.691201 0.482822 0.276391
0.916754 0.474224 0.272469
0.000000 0.746935 0.281527
0.236007 0.749609 0.276539
0.491578 0.752261 0.272583
0.716573 0.743636 0.269687
0.940961 0.734974 0.267891
0.000000 1.000000 0.272698
0.246416 1.000000 0.269766
0.500825 1.000000 0.267933
0.739585 1.000000 0.267248
0.962633 0.995528 0.267789
0.000000 0.000000 0.576831
0.195690 0.000000 0.566492
0.424101 0.000000 0.557085
0.652032 0.000000 0.548624
0.879469 0.000000 0.541124
0.000000 0.237306 0.557383
0.211775 0.240014 0.548891
0.454229 0.237092 0.541358
0.681177 0.228538 0.534802
0.907603 0.219971 0.529241
0.000000 0.492627 0.541594
0.225954 0.495323 0.535005
0.482398 0.498007 0.529410
0.708303 0.489423 0.524831
0.933647 0.480815 0.521295
0.000000 0.747917 0.529580
0.238115 0.750584 0.524967
0.493478 0.753227 0.521396
0.733254 0.750215 0.518899
0.957409 0.741536 0.517517
0.000000 1.000000 0.521498
0.248105 1.000000 0.518964
0.502281 1.000000 0.517545
0.755790 1.000000 0.517298
0.978552 1.000000 0.518320
0.000000 0.000000 0.822933
0.198829 0.000000 0.812934
0.442066 0.000000 0.803872
0.669817 0.000000 0.795762
0.897070 0.000000 0.788618
0.000000 0.238299 0.804159
0.214566 0.241006 0.796017
0.471836 0.243707 0.788840
0.698595 0.235148 0.782646
0.924826 0.226575 0.777455
0.000000 0.493617 0.789064
0.228378 0.496309 0.782837
0.484627 0.498986 0.777612
0.725328 0.496020 0.773412
0.950460 0.487402 0.770266
0.000000 0.748897 0.777770
0.240147 0.751556 0.773535
0.495299 0.754189 0.770354
0.749852 0.756788 0.768260
0.973768 0.748091 0.767301
0.000000 1.000000 0.770442
0.249710 1.000000 0.768312
0.503649 1.000000 0.767314
0.756895 1.000000 0.767519
0.994349 1.000000 0.769047
0.000000 0.000000 1.000000
0.201905 0.000000 1.000000
0.459965 0.000000 1.000000
0.687535 0.000000 1.000000
0.914602 0.000000 1.000000
0.000000 0.239292 1.000000
0.217290 0.241997 1.000000
0.474375 0.244695 1.000000
0.715942 0.241757 1.000000
0.941974 0.233177 1.000000
0.000000 0.494605 1.000000
0.230731 0.497292 1.000000
0.486782 0.499964 1.000000
0.742278 0.502613 1.000000
0.967194 0.493984 1.000000
0.000000 0.749875 1.000000
0.242104 0.752525 1.000000
0.497040 0.755147 1.000000
0.751365 0.757730 1.000000
0.990034 0.754638 1.000000
0.000000 1.000000 1.000000
0.251231 1.000000 1.000000
0.504923 1.000000 1.000000
0.757895 1.000000 1.000000
1.000000 1.000000 1.000000
