assets/luts/retro-fuji-thailand.cube
# Retro Fuji Thailand — Aperture X
#
# Charakter gescannter Fuji-Negative aus tropischen Reisemotiven:
# angehobener Schwarzpunkt mit Gruenstich, gedaempfte, nach
# Gelb-Orange gekippte Lichter, gezielt verstaerkte Tuerkistoene in
# Wasser und Himmel, flachere Mitten (Negativfilm-Kennlinie).
#
# Original erstellt fuer Aperture X (Phase 27, siehe DECISIONS.md
# ADR-0057) — kein fremdes Werk enthalten, frei verwendbar. Erzeugt
# aus derselben Formel wie der eingebaute Filter gleichen Namens;
# `builtin_lut_matches_shipped_cube_file` in builtin_luts.rs prueft
# beide real gegeneinander.
TITLE "Retro Fuji Thailand"
LUT_3D_SIZE 9
DOMAIN_MIN 0.0 0.0 0.0
DOMAIN_MAX 1.0 1.0 1.0
0.012000 0.082000 0.090000
0.129216 0.079811 0.086278
0.246747 0.077873 0.082140
0.364449 0.076108 0.077787
0.482274 0.074490 0.073284
0.600194 0.073007 0.068668
0.718192 0.071651 0.063963
0.836254 0.070415 0.059187
0.954370 0.069296 0.054357
0.016660 0.192935 0.082282
0.134357 0.191164 0.077935
0.252178 0.189542 0.073436
0.370095 0.188055 0.068823
0.488091 0.186694 0.064121
0.606151 0.185454 0.059348
0.724265 0.184332 0.054518
0.842426 0.183323 0.049645
0.960625 0.182427 0.044737
0.022082 0.304594 0.073588
0.139997 0.303102 0.068978
0.257990 0.301737 0.064279
0.376048 0.300494 0.059508
0.494161 0.299367 0.054680
0.612320 0.298355 0.049808
0.730518 0.297455 0.044901
0.848748 0.296666 0.039969
0.967007 0.295987 0.035019
0.027889 0.416781 0.064436
0.145945 0.415533 0.059668
0.264056 0.414403 0.054842
0.382214 0.413387 0.049971
0.500410 0.412483 0.045065
0.618640 0.411690 0.040134
0.736898 0.411008 0.035184
0.855178 0.410436 0.030225
0.973475 0.409975 0.025262
0.033951 0.529439 0.055003
0.152108 0.528419 0.050134
0.270303 0.527511 0.045229
0.388532 0.526715 0.040298
0.506789 0.526029 0.035350
0.625068 0.525454 0.030390
0.743365 0.524988 0.025427
0.861675 0.524634 0.020467
0.979995 0.524392 0.015517
0.040196 0.642540 0.045393
0.158424 0.641740 0.040463
0.276680 0.641050 0.035515
0.394958 0.640471 0.030556
0.513255 0.640002 0.025593
0.631565 0.639644 0.020632
0.749884 0.639398 0.015682
0.868209 0.639266 0.010747
0.986534 0.639250 0.005835
0.046571 0.756072 0.035680
0.164849 0.755489 0.030721
0.283145 0.755016 0.025758
0.401454 0.754654 0.020798
0.519773 0.754405 0.015846
0.638098 0.754269 0.010911
0.756423 0.754248 0.005998
0.874745 0.754346 0.001115
0.993058 0.754566 0.000000
0.053035 0.870030 0.025923
0.171344 0.869665 0.020963
0.289663 0.869411 0.016011
0.407987 0.869271 0.011075
0.526312 0.869247 0.006162
0.644634 0.869341 0.001277
0.762948 0.869556 0.000000
0.881248 0.869898 0.000000
0.999530 0.870370 0.000000
0.059552 0.984418 0.016176
0.177876 0.984274 0.011240
0.296201 0.984246 0.006325
0.414523 0.984336 0.001440
0.532837 0.984547 0.000000
0.651139 0.984884 0.000000
0.769421 0.985352 0.000000
0.887678 0.985958 0.000000
1.000000 0.986713 0.000000
0.012750 0.086779 0.214344
0.130119 0.081890 0.205105
0.247722 0.077207 0.195565
0.365472 0.075498 0.191151
0.483335 0.073931 0.186603
0.601285 0.072496 0.181952
0.719307 0.071184 0.177219
0.837390 0.069991 0.172422
0.955524 0.068915 0.167574
0.017632 0.195079 0.201022
0.135379 0.190553 0.191301
0.253238 0.188981 0.186756
0.371185 0.187541 0.182108
0.489206 0.186226 0.177378
0.607287 0.185029 0.172583
0.725419 0.183949 0.167736
0.843594 0.182981 0.162849
0.961806 0.182126 0.157931
0.023141 0.304032 0.186910
0.141086 0.302587 0.182264
0.259104 0.301268 0.177537
0.377183 0.300067 0.172743
0.495314 0.298983 0.167898
0.613488 0.298012 0.163012
0.731699 0.297153 0.158095
0.849940 0.296404 0.153156
0.968207 0.295766 0.148201
0.029002 0.416310 0.177695
0.147080 0.415105 0.172904
0.265209 0.414017 0.168060
0.383382 0.413042 0.163176
0.501591 0.412180 0.158260
0.619832 0.411428 0.153321
0.738098 0.410786 0.148367
0.856385 0.410254 0.143405
0.974688 0.409833 0.138442
0.035104 0.529052 0.168223
0.153275 0.528073 0.163339
0.271484 0.527207 0.158424
0.389723 0.526451 0.153486
0.507989 0.525805 0.148532
0.626275 0.525270 0.143570
0.744577 0.524846 0.138608
0.862892 0.524532 0.133651
0.981214 0.524332 0.128705
0.041376 0.642234 0.158588
0.159615 0.641474 0.153650
0.277880 0.640825 0.148697
0.396165 0.640286 0.143736
0.514467 0.639858 0.138773
0.632781 0.639541 0.133816
0.751103 0.639337 0.128870
0.869428 0.639247 0.123943
0.987752 0.639273 0.119041
0.047770 0.755845 0.148863
0.166055 0.755302 0.143901
0.284357 0.754870 0.138939
0.402671 0.754550 0.133981
0.520992 0.754342 0.129035
0.639317 0.754248 0.124107
0.757642 0.754270 0.119204
0.875961 0.754412 0.114334
0.994270 0.754678 0.109503
0.054247 0.869883 0.139104
0.172560 0.869559 0.134146
0.290881 0.869347 0.129199
0.409206 0.869249 0.124271
0.527531 0.869268 0.119367
0.645850 0.869406 0.114495
0.764160 0.869667 0.109664
0.882454 0.870055 0.104881
1.000000 0.870577 0.100156
0.060770 0.984352 0.129364
0.179095 0.984250 0.124435
0.297420 0.984265 0.119530
0.415740 0.984399 0.114657
0.534050 0.984656 0.109824
0.652345 0.985040 0.105039
0.770619 0.985558 0.100313
0.888865 0.986217 0.095657
1.000000 0.987029 0.091089
0.013581 0.091613 0.338578
0.131053 0.086809 0.329206
0.248715 0.082188 0.319590
0.366510 0.077720 0.309810
0.484407 0.073390 0.299908
0.602385 0.072001 0.295225
0.720431 0.070733 0.290467
0.838534 0.069583 0.285650
0.956684 0.068548 0.280785
0.018624 0.200058 0.325049
0.136416 0.195586 0.315273
0.254309 0.191251 0.305375
0.372285 0.187045 0.295382
0.490329 0.185773 0.290626
0.608430 0.184620 0.285811
0.726579 0.183581 0.280948
0.844768 0.182655 0.276049
0.962992 0.181840 0.271122
0.024211 0.309112 0.310842
0.142185 0.304902 0.300852
0.260227 0.300814 0.290786
0.378326 0.299656 0.285972
0.496473 0.298614 0.281111
0.614661 0.297684 0.276213
0.732884 0.296865 0.271286
0.851135 0.296158 0.266340
0.969410 0.295560 0.261383
0.030124 0.418667 0.296258
0.148221 0.414693 0.286134
0.266367 0.413647 0.281274
0.384554 0.412713 0.276376
0.502776 0.411891 0.271451
0.621027 0.411179 0.266506
0.739301 0.410578 0.261548
0.857594 0.410087 0.256585
0.975902 0.409707 0.251624
0.036262 0.528680 0.281436
0.154448 0.527742 0.276540
0.272668 0.526917 0.271615
0.390918 0.526201 0.266671
0.509192 0.525596 0.261713
0.627484 0.525102 0.256751
0.745792 0.524718 0.251789
0.864109 0.524446 0.246836
0.982433 0.524287 0.241897
0.042560 0.641942 0.271780
0.160809 0.641223 0.266836
0.279082 0.640615 0.261879
0.397374 0.640116 0.256916
0.515681 0.639729 0.251954
0.633998 0.639453 0.247001
0.752322 0.639290 0.242061
0.870647 0.639243 0.237142
0.988970 0.639313 0.232252
0.048973 0.755633 0.262044
0.167264 0.755131 0.257081
0.285571 0.754740 0.252120
0.403888 0.754460 0.247165
0.522211 0.754294 0.242225
0.640536 0.754242 0.237306
0.758859 0.754308 0.232414
0.877175 0.754495 0.227557
0.995480 0.754807 0.222744
0.055460 0.869751 0.252285
0.173777 0.869468 0.247330
0.292100 0.869298 0.242390
0.410426 0.869242 0.237469
0.528749 0.869304 0.232577
0.647065 0.869487 0.227719
0.765370 0.869794 0.222904
0.883657 0.870231 0.218141
1.000000 0.870804 0.213441
0.061989 0.984301 0.242554
0.180315 0.984242 0.237633
0.298638 0.984300 0.232739
0.416955 0.984479 0.227880
0.535260 0.984782 0.223063
0.653548 0.985214 0.218299
0.771813 0.985783 0.213597
0.890046 0.986496 0.208971
1.000000 0.987369 0.204440
0.014459 0.096483 0.462752
0.132011 0.091752 0.453276
0.249727 0.087189 0.443593
0.367562 0.082773 0.433765
0.485491 0.078491 0.423826
0.603495 0.074334 0.413800
0.721563 0.070298 0.403707
0.839684 0.069191 0.398871
0.957850 0.068197 0.393992
0.019634 0.205058 0.449054
0.137466 0.200637 0.439230
0.255392 0.196350 0.429294
0.373394 0.192190 0.419271
0.491460 0.188149 0.409179
0.609579 0.184226 0.399033
0.727744 0.183228 0.394155
0.845947 0.182343 0.389245
0.964181 0.181569 0.384310
0.025293 0.314210 0.434762
0.143293 0.310045 0.424742
0.261357 0.306001 0.414652
0.379474 0.302073 0.404507
0.497638 0.298260 0.394319
0.615839 0.297371 0.389409
0.734073 0.296593 0.384475
0.852334 0.295926 0.379524
0.970616 0.295368 0.374563
0.031254 0.423853 0.420125
0.149370 0.419921 0.409982
0.267532 0.416104 0.399794
0.385732 0.412399 0.389573
0.503965 0.411617 0.384640
0.622225 0.410946 0.379689
0.740507 0.410385 0.374729
0.858806 0.409935 0.369766
0.977118 0.409595 0.364806
0.037426 0.533948 0.405270
0.155625 0.530239 0.395050
0.273857 0.526642 0.384804
0.392116 0.525967 0.379854
0.510397 0.525402 0.374894
0.628695 0.524948 0.369931
0.747007 0.524605 0.364972
0.865327 0.524374 0.360023
0.983652 0.524257 0.355091
0.043748 0.644478 0.390282
0.162007 0.640987 0.380019
0.280287 0.640419 0.375059
0.398585 0.639961 0.370096
0.516896 0.639615 0.365137
0.635217 0.639380 0.360187
0.753541 0.639259 0.355255
0.871866 0.639255 0.350345
0.990187 0.639368 0.345467
0.050178 0.755436 0.375225
0.168475 0.754975 0.370262
0.286786 0.754624 0.365302
0.405106 0.754386 0.360352
0.523430 0.754262 0.355419
0.641755 0.754253 0.350509
0.760076 0.754363 0.345629
0.878389 0.754595 0.340787
0.996687 0.754953 0.335992
0.056675 0.869634 0.365467
0.174995 0.869392 0.360517
0.293319 0.869264 0.355583
0.411645 0.869251 0.350672
0.529966 0.869357 0.345791
0.648278 0.869585 0.340948
0.766577 0.869939 0.336151
0.884857 0.870425 0.331410
1.000000 0.871050 0.326737
0.063209 0.984266 0.355747
0.181534 0.984250 0.350835
0.299855 0.984352 0.345953
0.418168 0.984575 0.341108
0.536468 0.984925 0.336310
0.654748 0.985406 0.331567
0.773002 0.986027 0.326891
0.891221 0.986797 0.322298
1.000000 0.987732 0.317808
0.015371 0.101383 0.586880
0.132991 0.096717 0.577318
0.250754 0.092210 0.567577
0.368626 0.087844 0.557705
0.486584 0.083609 0.547732
0.604613 0.079497 0.537679
0.722702 0.075504 0.527564
0.840840 0.071626 0.517399
0.959021 0.067861 0.507195
0.020660 0.210077 0.573039
0.138529 0.205707 0.563171
0.256484 0.201467 0.553201
0.374511 0.197351 0.543151
0.492598 0.193354 0.533038
0.610735 0.189472 0.522874
0.728914 0.185703 0.512671
0.847129 0.182047 0.502438
0.965374 0.181313 0.497496
0.026385 0.319325 0.558670
0.144409 0.315205 0.548623
0.262494 0.311204 0.538511
0.380629 0.307318 0.528349
0.498807 0.303546 0.518147
0.617022 0.299885 0.507915
0.735266 0.296336 0.497661
0.853535 0.295709 0.492705
0.971824 0.295192 0.487743
0.032390 0.429054 0.543984
0.150524 0.425165 0.533824
0.268701 0.421389 0.523623
0.386914 0.417724 0.513392
0.505157 0.414171 0.503138
0.623426 0.410728 0.492871
0.741714 0.410207 0.487909
0.860019 0.409797 0.482946
0.978334 0.409499 0.477990
0.038594 0.539231 0.529099
0.156806 0.535563 0.518868
0.275049 0.532006 0.508616
0.393316 0.528559 0.498349
0.511605 0.525223 0.488074
0.629908 0.524809 0.483112
0.748224 0.524507 0.478155
0.866546 0.524318 0.473212
0.984871 0.524243 0.468288
0.044940 0.649842 0.514093
0.163207 0.646391 0.503826
0.281495 0.643051 0.493552
0.399798 0.639821 0.483277
0.518113 0.639515 0.478320
0.636435 0.639322 0.473376
0.754761 0.639244 0.468451
0.873084 0.639282 0.463553
0.991403 0.639441 0.458687
0.051385 0.760879 0.499030
0.169688 0.757646 0.488755
0.288002 0.754524 0.478486
0.406324 0.754327 0.473541
0.524650 0.754245 0.468615
0.642974 0.754279 0.463715
0.761292 0.754433 0.458849
0.879600 0.754711 0.454023
0.997892 0.755117 0.449247
0.057892 0.872345 0.483963
0.176214 0.869332 0.473705
0.294539 0.869246 0.468779
0.412863 0.869276 0.463878
0.531182 0.869426 0.459010
0.649490 0.869700 0.454183
0.767783 0.870101 0.449405
0.886053 0.870637 0.444688
1.000000 0.871316 0.440043
0.064428 0.984247 0.468943
0.182752 0.984273 0.464041
0.301071 0.984419 0.459172
0.419380 0.984689 0.454343
0.537673 0.985086 0.449564
0.655945 0.985617 0.444844
0.774187 0.986291 0.440196
0.892391 0.987120 0.435638
1.000000 0.988121 0.431193
0.016312 0.106308 0.710972
0.133990 0.101704 0.701337
0.251796 0.097250 0.691543
0.369702 0.092933 0.681631
0.487687 0.088743 0.671627
0.605739 0.084675 0.661550
0.723847 0.080725 0.651415
0.842002 0.076888 0.641234
0.960196 0.073165 0.631018
0.021701 0.215115 0.697007
0.139603 0.210794 0.687099
0.257587 0.206600 0.677097
0.375637 0.202528 0.667022
0.493743 0.198573 0.656889
0.611896 0.194733 0.646710
0.730089 0.191006 0.636495
0.848316 0.187390 0.626253
0.966571 0.183884 0.615992
0.027486 0.324456 0.682567
0.145534 0.320380 0.672495
0.263638 0.316422 0.662363
0.381790 0.312578 0.652185
0.499982 0.308847 0.641971
0.618208 0.305227 0.631730
0.736462 0.301718 0.621470
0.854739 0.298319 0.611199
0.973035 0.295030 0.600923
0.033534 0.434271 0.667837
0.151684 0.430423 0.657660
0.269875 0.426688 0.647447
0.388100 0.423065 0.637207
0.506353 0.419552 0.626948
0.624630 0.416149 0.616677
0.742924 0.412856 0.606401
0.861233 0.409675 0.596128
0.979552 0.409418 0.591176
0.039768 0.544530 0.652924
0.157992 0.540903 0.642684
0.276244 0.537386 0.632425
0.394520 0.533979 0.622155
0.512814 0.530683 0.611879
0.631123 0.527498 0.601606
0.749441 0.524425 0.591341
0.867765 0.524277 0.586404
0.986091 0.524245 0.581488
0.046135 0.655220 0.637903
0.164410 0.651810 0.627633
0.282704 0.648510 0.617357
0.401012 0.645321 0.607084
0.519331 0.642244 0.596818
0.637654 0.639280 0.586568
0.755980 0.639244 0.581652
0.874302 0.639326 0.576764
0.992617 0.639529 0.571913
0.052594 0.766337 0.622835
0.170902 0.763144 0.612561
0.289220 0.760064 0.602296
0.407544 0.757096 0.592045
0.525869 0.754244 0.581815
0.644191 0.754322 0.576927
0.762507 0.754521 0.572074
0.880809 0.754845 0.567265
0.999094 0.755299 0.562510
0.059109 0.877883 0.607773
0.177433 0.874912 0.597522
0.295758 0.872056 0.587291
0.414081 0.869317 0.577089
0.532396 0.869512 0.572235
0.650699 0.869832 0.567425
0.768985 0.870282 0.562668
0.887246 0.870869 0.557975
1.000000 0.871603 0.553361
0.065647 0.989868 0.592767
0.183970 0.987125 0.582564
0.302286 0.984504 0.572396
0.420590 0.984819 0.567584
0.538876 0.985265 0.562826
0.657137 0.985847 0.558131
0.775367 0.986576 0.553514
0.893553 0.987465 0.548993
1.000000 0.988538 0.544600
0.017276 0.111257 0.835034
0.135006 0.106710 0.825335
0.252851 0.102308 0.815494
0.370788 0.098039 0.805545
0.488799 0.093894 0.795513
0.606873 0.089870 0.785413
0.724999 0.085961 0.775260
0.843169 0.082166 0.765065
0.961376 0.078484 0.754838
0.022755 0.220171 0.820959
0.140689 0.215898 0.811014
0.258698 0.211749 0.800984
0.376769 0.207721 0.790886
0.494894 0.203808 0.780734
0.613062 0.200010 0.770541
0.731269 0.196323 0.760315
0.849506 0.192748 0.750065
0.967770 0.189282 0.739800
0.028596 0.329604 0.806455
0.146666 0.325572 0.796359
0.264789 0.321656 0.786209
0.382956 0.317853 0.776017
0.501161 0.314163 0.765792
0.619398 0.310584 0.755543
0.737661 0.307115 0.745278
0.855946 0.303756 0.735004
0.974247 0.300508 0.724729
0.034684 0.439503 0.791683
0.152850 0.435697 0.781492
0.271054 0.432003 0.771268
0.389290 0.428420 0.761020
0.507552 0.424948 0.750756
0.625836 0.421585 0.740482
0.744136 0.418333 0.730207
0.862449 0.415193 0.719936
0.980770 0.412164 0.709676
0.040947 0.549843 0.776745
0.159181 0.546257 0.766497
0.277443 0.542780 0.756233
0.395726 0.539414 0.745960
0.514026 0.536159 0.735685
0.632339 0.533014 0.725414
0.750660 0.529982 0.715154
0.868985 0.527064 0.704911
0.987309 0.524263 0.694693
0.047334 0.660613 0.761711
0.165616 0.657243 0.751438
0.283916 0.653984 0.741163
0.402228 0.650836 0.730891
0.520549 0.647800 0.720631
0.638874 0.644879 0.710388
0.757198 0.642073 0.700169
0.875519 0.639387 0.689981
0.993829 0.639635 0.685145
0.053806 0.771810 0.746641
0.172118 0.768658 0.736369
0.290438 0.765618 0.726108
0.408763 0.762693 0.715864
0.527088 0.759883 0.705644
0.645408 0.757193 0.695455
0.763719 0.754625 0.685305
0.882016 0.754996 0.680515
1.000000 0.755500 0.675783
0.060327 0.883437 0.731585
0.178652 0.880507 0.721341
0.296977 0.877694 0.711120
0.415298 0.874999 0.700930
0.533609 0.872427 0.690778
0.651906 0.869981 0.680674
0.770184 0.870481 0.675939
0.888434 0.871121 0.671274
1.000000 0.871912 0.666693
0.066866 0.995505 0.716595
0.185187 0.992806 0.706404
0.303499 0.990229 0.696251
0.421797 0.987780 0.686145
0.540075 0.985462 0.676096
0.658326 0.986097 0.671428
0.776541 0.986883 0.666844
0.894708 0.987836 0.662366
1.000000 0.988985 0.658031
0.018261 0.116228 0.959070
0.136037 0.111736 0.949314
0.253918 0.107384 0.939430
0.371884 0.103161 0.929448
0.489920 0.099061 0.919389
0.608013 0.095079 0.909268
0.726156 0.091213 0.899099
0.844341 0.087459 0.888891
0.962560 0.083817 0.878655
0.023821 0.225246 0.944897
0.141784 0.221019 0.934918
0.259817 0.216914 0.924861
0.377909 0.212929 0.914742
0.496051 0.209059 0.904574
0.614234 0.205301 0.894367
0.732453 0.201656 0.884132
0.850700 0.198121 0.873876
0.968973 0.194696 0.863607
0.029715 0.334768 0.930333
0.147806 0.330779 0.920216
0.265945 0.326905 0.910049
0.384127 0.323144 0.899844
0.502345 0.319494 0.889609
0.620592 0.315955 0.879353
0.738863 0.312527 0.869084
0.857154 0.309209 0.858809
0.975460 0.306001 0.848535
0.035840 0.444751 0.915524
0.154021 0.440986 0.905320
0.272237 0.437333 0.895086
0.390483 0.433790 0.884831
0.508754 0.430358 0.874562
0.627044 0.427036 0.864287
0.745350 0.423825 0.854013
0.863666 0.420725 0.843745
0.981989 0.417739 0.833492
0.042129 0.555172 0.900563
0.160374 0.551625 0.890308
0.278644 0.548190 0.880040
0.396934 0.544864 0.869765
0.515239 0.541649 0.859491
0.633556 0.538546 0.849223
0.751879 0.535555 0.838968
0.870204 0.532680 0.828734
0.988527 0.529921 0.818527
0.048535 0.666021 0.885518
0.166824 0.662692 0.875243
0.285129 0.659473 0.864969
0.403445 0.656366 0.854700
0.521768 0.653372 0.844445
0.640093 0.650493 0.834210
0.758417 0.647730 0.824002
0.876734 0.645088 0.813828
0.995040 0.642570 0.803696
0.055019 0.777297 0.870446
0.173334 0.774187 0.860178
0.291657 0.771189 0.849922
0.409982 0.768305 0.839686
0.528306 0.765539 0.829477
0.646624 0.762893 0.819302
0.764930 0.760371 0.809168
0.883220 0.757977 0.799085
1.000000 0.755719 0.789064
0.061546 0.889005 0.855399
0.179871 0.886118 0.845163
0.298195 0.883348 0.834952
0.416513 0.880698 0.824776
0.534820 0.878172 0.814640
0.653111 0.875774 0.804556
0.771379 0.873511 0.794532
0.889617 0.871392 0.784583
1.000000 0.872243 0.780038
0.068084 1.000000 0.840428
0.186403 0.998503 0.830250
0.304710 0.995972 0.820113
0.423001 0.993570 0.810026
0.541270 0.991303 0.800001
0.659510 0.989179 0.790049
0.777709 0.987211 0.780188
0.895853 0.988232 0.775757
1.000000 0.989468 0.771492
0.019265 0.121220 1.000000
0.137082 0.116781 1.000000
0.254997 0.112477 1.000000
0.372990 0.108300 1.000000
0.491048 0.104244 1.000000
0.609161 0.100305 1.000000
0.727320 0.096480 1.000000
0.845518 0.092767 1.000000
0.963748 0.089166 1.000000
0.024898 0.230337 1.000000
0.142889 0.226156 1.000000
0.260945 0.222096 1.000000
0.379056 0.218153 1.000000
0.497214 0.214324 1.000000
0.615410 0.210608 1.000000
0.733640 0.207003 1.000000
0.851898 0.203508 0.997684
0.970178 0.200124 0.987412
0.030842 0.339948 1.000000
0.148951 0.336001 1.000000
0.267108 0.332169 1.000000
0.385303 0.328449 1.000000
0.503532 0.324840 1.000000
0.621789 0.321342 1.000000
0.740068 0.317954 0.992890
0.858365 0.314676 0.982615
0.976675 0.311509 0.972342
0.037002 0.450013 1.000000
0.155196 0.446290 1.000000
0.273424 0.442677 1.000000
0.391680 0.439175 1.000000
0.509958 0.435783 0.998368
0.628255 0.432502 0.988093
0.746565 0.429332 0.977820
0.864884 0.426273 0.967557
0.983209 0.423329 0.957309
0.043316 0.560515 1.000000
0.161571 0.557009 1.000000
0.279849 0.553614 1.000000
0.398145 0.550328 0.993571
0.516454 0.547154 0.983298
0.634773 0.544092 0.973034
0.753098 0.541144 0.962786
0.871423 0.538311 0.952561
0.989745 0.535596 0.942365
0.049739 0.671444 1.000000
0.168035 0.668155 0.999048
0.286344 0.664977 0.988775
0.404663 0.661911 0.978511
0.522987 0.658959 0.968263
0.641312 0.656122 0.958037
0.759634 0.653404 0.947840
0.877948 0.650806 0.937680
0.996248 0.648335 0.927566
0.056233 0.782800 0.994253
0.174552 0.779730 0.983989
0.292876 0.776774 0.973740
0.411201 0.773934 0.963513
0.529523 0.771211 0.953315
0.647837 0.768610 0.943153
0.766139 0.766134 0.933037
0.884421 0.763790 0.922976
1.000000 0.761583 0.912980
0.062765 0.894590 0.979216
0.181091 0.891745 0.968988
0.299413 0.889019 0.958789
0.417727 0.886413 0.948627
0.536029 0.883933 0.938509
0.654312 0.881584 0.928446
0.772570 0.879373 0.918448
0.890795 0.877310 0.908530
1.000000 0.875410 0.898712
0.069302 1.000000 0.964264
0.187617 1.000000 0.954100
0.305919 1.000000 0.943981
0.424203 0.999379 0.933916
0.542462 0.997163 0.923915
0.660688 0.995095 0.913994
0.778869 0.993189 0.904173
0.896988 0.991469 0.894482
1.000000 0.990000 0.885000
