assets/luts/retro-fuji-thailand.cube
# Retro Fuji Thailand — Aperture X
#
# Charakter gescannter Fuji-Negative aus tropischen Reisemotiven:
# angehobener Schwarzpunkt mit Gruenstich, gedaempfte, nach
# Gelb-Orange gekippte Lichter, gezielt verstaerkte Tuerkistoene in
# Wasser und Himmel, flachere Mitten (Negativfilm-Kennlinie).
#
# Original erstellt fuer Aperture X (Phase 27, siehe DECISIONS.md
# ADR-0057) — kein fremdes Werk enthalten, frei verwendbar. Erzeugt
# aus derselben Formel wie der eingebaute Filter gleichen Namens;
# `builtin_lut_matches_shipped_cube_file` in builtin_luts.rs prueft
# beide real gegeneinander.
TITLE "Retro Fuji Thailand"
LUT_3D_SIZE 5
DOMAIN_MIN 0.0 0.0 0.0
DOMAIN_MAX 1.0 1.0 1.0
0.012000 0.082000 0.090000
0.246747 0.077873 0.082140
0.482274 0.074490 0.073284
0.718192 0.071651 0.063963
0.954370 0.069296 0.054357
0.022082 0.304594 0.073588
0.257990 0.301737 0.064279
0.494161 0.299367 0.054680
0.730518 0.297455 0.044901
0.967007 0.295987 0.035019
0.033951 0.529439 0.055003
0.270303 0.527511 0.045229
0.506789 0.526029 0.035350
0.743365 0.524988 0.025427
0.979995 0.524392 0.015517
0.046571 0.756072 0.035680
0.283145 0.755016 0.025758
0.519773 0.754405 0.015846
0.756423 0.754248 0.005998
0.993058 0.754566 0.000000
0.059552 0.984418 0.016176
0.296201 0.984246 0.006325
0.532837 0.984547 0.000000
0.769421 0.985352 0.000000
1.000000 0.986713 0.000000
0.013581 0.091613 0.338578
0.248715 0.082188 0.319590
0.484407 0.073390 0.299908
0.720431 0.070733 0.290467
0.956684 0.068548 0.280785
0.024211 0.309112 0.310842
0.260227 0.300814 0.290786
0.496473 0.298614 0.281111
0.732884 0.296865 0.271286
0.969410 0.295560 0.261383
0.036262 0.528680 0.281436
0.272668 0.526917 0.271615
0.509192 0.525596 0.261713
0.745792 0.524718 0.251789
0.982433 0.524287 0.241897
0.048973 0.755633 0.262044
0.285571 0.754740 0.252120
0.522211 0.754294 0.242225
0.758859 0.754308 0.232414
0.995480 0.754807 0.222744
0.061989 0.984301 0.242554
0.298638 0.984300 0.232739
0.535260 0.984782 0.223063
0.771813 0.985783 0.213597
1.000000 0.987369 0.204440
0.015371 0.101383 0.586880
0.250754 0.092210 0.567577
0.486584 0.083609 0.547732
0.722702 0.075504 0.527564
0.959021 0.067861 0.507195
0.026385 0.319325 0.558670
0.262494 0.311204 0.538511
0.498807 0.303546 0.518147
0.735266 0.296336 0.497661
0.971824 0.295192 0.487743
0.038594 0.539231 0.529099
0.275049 0.532006 0.508616
0.511605 0.525223 0.488074
0.748224 0.524507 0.478155
0.984871 0.524243 0.468288
0.051385 0.760879 0.499030
0.288002 0.754524 0.478486
0.524650 0.754245 0.468615
0.761292 0.754433 0.458849
0.997892 0.755117 0.449247
0.064428 0.984247 0.468943
0.301071 0.984419 0.459172
0.537673 0.985086 0.449564
0.774187 0.986291 0.440196
1.000000 0.988121 0.431193
0.017276 0.111257 0.835034
0.252851 0.102308 0.815494
0.488799 0.093894 0.795513
0.724999 0.085961 0.775260
0.961376 0.078484 0.754838
0.028596 0.329604 0.806455
0.264789 0.321656 0.786209
0.501161 0.314163 0.765792
0.737661 0.307115 0.745278
0.974247 0.300508 0.724729
0.040947 0.549843 0.776745
0.277443 0.542780 0.756233
0.514026 0.536159 0.735685
0.750660 0.529982 0.715154
0.987309 0.524263 0.694693
0.053806 0.771810 0.746641
0.290438 0.765618 0.726108
0.527088 0.759883 0.705644
0.763719 0.754625 0.685305
1.000000 0.755500 0.675783
0.066866 0.995505 0.716595
0.303499 0.990229 0.696251
0.540075 0.985462 0.676096
0.776541 0.986883 0.666844
1.000000 0.988985 0.658031
0.019265 0.121220 1.000000
0.254997 0.112477 1.000000
0.491048 0.104244 1.000000
0.727320 0.096480 1.000000
0.963748 0.089166 1.000000
0.030842 0.339948 1.000000
0.267108 0.332169 1.000000
0.503532 0.324840 1.000000
0.740068 0.317954 0.992890
0.976675 0.311509 0.972342
0.043316 0.560515 1.000000
0.279849 0.553614 1.000000
0.516454 0.547154 0.983298
0.753098 0.541144 0.962786
0.989745 0.535596 0.942365
0.056233 0.782800 0.994253
0.292876 0.776774 0.973740
0.529523 0.771211 0.953315
0.766139 0.766134 0.933037
1.000000 0.761583 0.912980
0.069302 1.000000 0.964264
0.305919 1.000000 0.943981
0.542462 0.997163 0.923915
0.778869 0.993189 0.904173
1.000000 0.990000 0.885000
