assets/luts/retro-fuji-thailand.cube
# Retro Fuji Thailand — Aperture X
#
# Charakter gescannter Fuji-Negative aus tropischen Reisemotiven:
# angehobener Schwarzpunkt mit Gruenstich, gedaempfte, nach
# Gelb-Orange gekippte Lichter, gezielt verstaerkte Tuerkistoene in
# Wasser und Himmel, flachere Mitten (Negativfilm-Kennlinie).
#
# Original erstellt fuer Aperture X (Phase 27, siehe DECISIONS.md
# ADR-0057) — kein fremdes Werk enthalten, frei verwendbar. Erzeugt
# aus derselben Formel wie der eingebaute Filter gleichen Namens;
# `builtin_lut_matches_shipped_cube_file` in builtin_luts.rs prueft
# beide real gegeneinander.
TITLE "Retro Fuji Thailand"
LUT_3D_SIZE 33
DOMAIN_MIN 0.0 0.0 0.0
DOMAIN_MAX 1.0 1.0 1.0
0.012000 0.082000 0.090000
0.041248 0.081415 0.089144
0.070545 0.080862 0.088222
0.099870 0.080328 0.087263
0.129216 0.079811 0.086278
0.158578 0.079308 0.085269
0.187956 0.078818 0.084242
0.217346 0.078340 0.083199
0.246747 0.077873 0.082140
0.276159 0.077417 0.081069
0.305581 0.076971 0.079986
0.335011 0.076534 0.078892
0.364449 0.076108 0.077787
0.393895 0.075690 0.076674
0.423348 0.075281 0.075552
0.452808 0.074881 0.074422
0.482274 0.074490 0.073284
0.511746 0.074107 0.072139
0.541223 0.073732 0.070988
0.570706 0.073366 0.069831
0.600194 0.073007 0.068668
0.629687 0.072657 0.067499
0.659184 0.072314 0.066325
0.688686 0.071978 0.065146
0.718192 0.071651 0.063963
0.747702 0.071331 0.062775
0.777215 0.071018 0.061583
0.806733 0.070713 0.060387
0.836254 0.070415 0.059187
0.865778 0.070124 0.057984
0.895306 0.069841 0.056778
0.924836 0.069565 0.055569
0.954370 0.069296 0.054357
0.013027 0.109630 0.088253
0.042351 0.109096 0.087296
0.071695 0.108578 0.086311
0.101058 0.108075 0.085303
0.130434 0.107584 0.084277
0.159824 0.107106 0.083234
0.189225 0.106638 0.082176
0.218637 0.106182 0.081105
0.248058 0.105735 0.080022
0.277488 0.105299 0.078928
0.306926 0.104872 0.077824
0.336372 0.104454 0.076711
0.365825 0.104045 0.075589
0.395284 0.103645 0.074460
0.424750 0.103253 0.073322
0.454222 0.102870 0.072178
0.483699 0.102495 0.071027
0.513182 0.102128 0.069869
0.542669 0.101769 0.068706
0.572162 0.101418 0.067538
0.601659 0.101075 0.066364
0.631161 0.100739 0.065185
0.660666 0.100412 0.064002
0.690176 0.100091 0.062814
0.719690 0.099778 0.061623
0.749207 0.099473 0.060427
0.778728 0.099175 0.059227
0.808252 0.098884 0.058025
0.837780 0.098601 0.056818
0.867310 0.098324 0.055609
0.896844 0.098055 0.054397
0.926380 0.097793 0.053182
0.955919 0.097538 0.051965
0.014175 0.137345 0.086344
0.043537 0.136841 0.085337
0.072913 0.136350 0.084311
0.102303 0.135871 0.083269
0.131704 0.135404 0.082211
0.161115 0.134947 0.081141
0.190536 0.134500 0.080058
0.219965 0.134063 0.078965
0.249403 0.133636 0.077861
0.278849 0.133218 0.076748
0.308301 0.132808 0.075627
0.337760 0.132408 0.074497
0.367226 0.132016 0.073360
0.396697 0.131632 0.072216
0.426175 0.131257 0.071065
0.455657 0.130890 0.069908
0.485145 0.130531 0.068745
0.514637 0.130180 0.067577
0.544134 0.129836 0.066403
0.573635 0.129501 0.065225
0.603141 0.129172 0.064042
0.632651 0.128852 0.062854
0.662164 0.128539 0.061662
0.691681 0.128233 0.060467
0.721202 0.127935 0.059267
0.750726 0.127644 0.058065
0.780254 0.127360 0.056859
0.809784 0.127083 0.055650
0.839317 0.126814 0.054437
0.868854 0.126552 0.053223
0.898393 0.126296 0.052005
0.927934 0.126048 0.050785
0.957479 0.125807 0.049563
0.015392 0.165116 0.084346
0.044781 0.164637 0.083304
0.074182 0.164169 0.082247
0.103593 0.163712 0.081177
0.133013 0.163265 0.080095
0.162443 0.162828 0.079002
0.191880 0.162400 0.077898
0.221325 0.161981 0.076786
0.250778 0.161572 0.075664
0.280237 0.161171 0.074535
0.309702 0.160779 0.073398
0.339173 0.160395 0.072254
0.368650 0.160020 0.071104
0.398133 0.159652 0.069947
0.427620 0.159293 0.068784
0.457112 0.158941 0.067616
0.486609 0.158598 0.066442
0.516110 0.158262 0.065264
0.545616 0.157933 0.064081
0.575125 0.157612 0.062894
0.604639 0.157299 0.061702
0.634156 0.156993 0.060507
0.663676 0.156694 0.059308
0.693200 0.156403 0.058105
0.722728 0.156119 0.056899
0.752258 0.155842 0.055690
0.781791 0.155573 0.054478
0.811327 0.155310 0.053263
0.840866 0.155055 0.052046
0.870408 0.154806 0.050826
0.899952 0.154565 0.049604
0.929499 0.154331 0.048380
0.959047 0.154103 0.047154
0.016660 0.192935 0.082282
0.046070 0.192477 0.081213
0.075491 0.192030 0.080131
0.104920 0.191592 0.079038
0.134357 0.191164 0.077935
0.163802 0.190745 0.076823
0.193254 0.190335 0.075702
0.222713 0.189934 0.074573
0.252178 0.189542 0.073436
0.281649 0.189158 0.072292
0.311126 0.188782 0.071142
0.340608 0.188414 0.069985
0.370095 0.188055 0.068823
0.399587 0.187703 0.067655
0.429084 0.187359 0.066482
0.458585 0.187023 0.065303
0.488091 0.186694 0.064121
0.517600 0.186373 0.062933
0.547113 0.186059 0.061742
0.576630 0.185753 0.060547
0.606151 0.185454 0.059348
0.635675 0.185163 0.058145
0.665202 0.184879 0.056939
0.694732 0.184601 0.055730
0.724265 0.184332 0.054518
0.753801 0.184069 0.053304
0.783340 0.183813 0.052086
0.812882 0.183565 0.050867
0.842426 0.183323 0.049645
0.871972 0.183088 0.048421
0.901521 0.182861 0.047195
0.931072 0.182640 0.045967
0.960625 0.182427 0.044737
0.017968 0.220794 0.080167
0.047397 0.220356 0.079075
0.076834 0.219928 0.077972
0.106279 0.219509 0.076860
0.135731 0.219099 0.075739
0.165189 0.218697 0.074611
0.194654 0.218305 0.073474
0.224125 0.217920 0.072331
0.253602 0.217544 0.071181
0.283084 0.217176 0.070024
0.312571 0.216817 0.068862
0.342063 0.216464 0.067694
0.371559 0.216120 0.066521
0.401060 0.215784 0.065343
0.430565 0.215455 0.064160
0.460075 0.215134 0.062973
0.489588 0.214820 0.061782
0.519105 0.214513 0.060586
0.548625 0.214214 0.059388
0.578149 0.213922 0.058185
0.607676 0.213638 0.056979
0.637206 0.213361 0.055771
0.666739 0.213090 0.054559
0.696275 0.212827 0.053344
0.725814 0.212572 0.052127
0.755355 0.212323 0.050907
0.784899 0.212081 0.049686
0.814445 0.211846 0.048462
0.843994 0.211618 0.047236
0.873545 0.211398 0.046008
0.903098 0.211184 0.044778
0.932653 0.210977 0.043547
0.962210 0.210777 0.042314
0.019311 0.248692 0.078009
0.048756 0.248273 0.076897
0.078207 0.247862 0.075777
0.107666 0.247461 0.074648
0.137130 0.247068 0.073512
0.166601 0.246683 0.072369
0.196077 0.246307 0.071219
0.225559 0.245939 0.070063
0.255046 0.245578 0.068901
0.284538 0.245226 0.067733
0.314034 0.244882 0.066560
0.343535 0.244545 0.065382
0.373040 0.244216 0.064200
0.402549 0.243894 0.063013
0.432062 0.243580 0.061821
0.461579 0.243273 0.060626
0.491099 0.242974 0.059428
0.520623 0.242682 0.058225
0.550150 0.242397 0.057020
0.579680 0.242120 0.055811
0.609213 0.241849 0.054599
0.638749 0.241586 0.053385
0.668287 0.241330 0.052168
0.697829 0.241081 0.050948
0.727373 0.240839 0.049726
0.756919 0.240604 0.048502
0.786467 0.240376 0.047277
0.816018 0.240155 0.046049
0.845571 0.239941 0.044819
0.875126 0.239734 0.043588
0.904683 0.239533 0.042356
0.934242 0.239340 0.041122
0.963803 0.239154 0.039887
0.020684 0.276626 0.075814
0.050142 0.276224 0.074686
0.079606 0.275831 0.073550
0.109077 0.275446 0.072407
0.138553 0.275069 0.071257
0.168035 0.274701 0.070101
0.197521 0.274340 0.068939
0.227013 0.273988 0.067772
0.256509 0.273643 0.066599
0.286010 0.273306 0.065421
0.315515 0.272977 0.064239
0.345024 0.272655 0.063052
0.374537 0.272340 0.061861
0.404053 0.272033 0.060666
0.433573 0.271734 0.059468
0.463097 0.271442 0.058265
0.492624 0.271157 0.057060
0.522154 0.270879 0.055851
0.551687 0.270608 0.054640
0.581222 0.270345 0.053425
0.610761 0.270088 0.052208
0.640302 0.269839 0.050989
0.669846 0.269597 0.049767
0.699392 0.269362 0.048543
0.728941 0.269133 0.047317
0.758491 0.268912 0.046090
0.788044 0.268698 0.044860
0.817599 0.268490 0.043629
0.847156 0.268290 0.042397
0.876715 0.268096 0.041163
0.906276 0.267910 0.039928
0.935838 0.267730 0.038692
0.965402 0.267557 0.037455
0.022082 0.304594 0.073588
0.051553 0.304208 0.072445
0.081029 0.303832 0.071296
0.110510 0.303463 0.070140
0.139997 0.303102 0.068978
0.169488 0.302749 0.067811
0.198984 0.302404 0.066638
0.228485 0.302067 0.065461
0.257990 0.301737 0.064279
0.287499 0.301415 0.063092
0.317011 0.301101 0.061901
0.346528 0.300794 0.060706
0.376048 0.300494 0.059508
0.405571 0.300201 0.058306
0.435098 0.299916 0.057100
0.464628 0.299638 0.055892
0.494161 0.299367 0.054680
0.523696 0.299103 0.053466
0.553235 0.298847 0.052249
0.582776 0.298597 0.051030
0.612320 0.298355 0.049808
0.641866 0.298119 0.048584
0.671414 0.297891 0.047358
0.700965 0.297669 0.046131
0.730518 0.297455 0.044901
0.760072 0.297247 0.043670
0.789629 0.297047 0.042438
0.819188 0.296853 0.041204
0.848748 0.296666 0.039969
0.878311 0.296486 0.038733
0.907874 0.296313 0.037496
0.937440 0.296147 0.036258
0.967007 0.295987 0.035019
0.023504 0.332594 0.071334
0.052986 0.332225 0.070179
0.082472 0.331864 0.069017
0.111963 0.331511 0.067850
0.141459 0.331166 0.066678
0.170960 0.330828 0.065500
0.200464 0.330498 0.064318
0.229973 0.330176 0.063131
0.259486 0.329861 0.061941
0.289002 0.329554 0.060746
0.318522 0.329254 0.059548
0.348045 0.328961 0.058346
0.377572 0.328675 0.057140
0.407102 0.328397 0.055932
0.436634 0.328126 0.054721
0.466170 0.327862 0.053506
0.495708 0.327605 0.052290
0.525249 0.327356 0.051070
0.554793 0.327113 0.049849
0.584339 0.326877 0.048625
0.613887 0.326648 0.047399
0.643438 0.326427 0.046172
0.672991 0.326212 0.044942
0.702546 0.326004 0.043711
0.732102 0.325803 0.042479
0.761661 0.325609 0.041245
0.791221 0.325422 0.040010
0.820784 0.325242 0.038774
0.850347 0.325069 0.037537
0.879913 0.324902 0.036299
0.909479 0.324743 0.035061
0.939048 0.324590 0.033821
0.968617 0.324444 0.032581
0.024947 0.360626 0.069056
0.054439 0.360273 0.067889
0.083934 0.359927 0.066717
0.113435 0.359589 0.065539
0.142939 0.359259 0.064357
0.172448 0.358937 0.063171
0.201960 0.358621 0.061981
0.231477 0.358314 0.060786
0.260996 0.358014 0.059588
0.290519 0.357721 0.058386
0.320046 0.357435 0.057181
0.349576 0.357156 0.055972
0.379108 0.356885 0.054761
0.408644 0.356621 0.053547
0.438182 0.356364 0.052330
0.467723 0.356114 0.051111
0.497267 0.355871 0.049889
0.526812 0.355635 0.048666
0.556361 0.355406 0.047440
0.585911 0.355184 0.046213
0.615464 0.354969 0.044983
0.645019 0.354761 0.043752
0.674575 0.354560 0.042520
0.704134 0.354365 0.041286
0.733694 0.354178 0.040051
0.763256 0.353998 0.038815
0.792820 0.353824 0.037578
0.822385 0.353658 0.036340
0.851952 0.353498 0.035102
0.881520 0.353345 0.033863
0.911090 0.353199 0.032623
0.940660 0.353060 0.031383
0.970232 0.352928 0.030142
0.026409 0.388688 0.066756
0.055910 0.388350 0.065579
0.085414 0.388020 0.064397
0.114922 0.387697 0.063211
0.144435 0.387382 0.062020
0.173951 0.387074 0.060826
0.203471 0.386773 0.059628
0.232994 0.386480 0.058426
0.262520 0.386194 0.057221
0.292050 0.385915 0.056013
0.321582 0.385644 0.054801
0.351118 0.385379 0.053587
0.380656 0.385122 0.052371
0.410197 0.384872 0.051152
0.439740 0.384629 0.049930
0.469286 0.384393 0.048707
0.498834 0.384163 0.047481
0.528385 0.383941 0.046253
0.557937 0.383726 0.045024
0.587492 0.383518 0.043793
0.617049 0.383316 0.042561
0.646607 0.383122 0.041327
0.676167 0.382934 0.040093
0.705729 0.382754 0.038857
0.735293 0.382580 0.037620
0.764858 0.382413 0.036382
0.794425 0.382253 0.035143
0.823993 0.382100 0.033904
0.853562 0.381954 0.032664
0.883133 0.381814 0.031424
0.912705 0.381682 0.030183
0.942278 0.381556 0.028943
0.971852 0.381438 0.027702
0.027889 0.416781 0.064436
0.057397 0.416458 0.063250
0.086909 0.416142 0.062060
0.116425 0.415834 0.060866
0.145945 0.415533 0.059668
0.175468 0.415240 0.058466
0.204994 0.414954 0.057261
0.234524 0.414675 0.056053
0.264056 0.414403 0.054842
0.293591 0.414138 0.053628
0.323129 0.413881 0.052411
0.352670 0.413630 0.051192
0.382214 0.413387 0.049971
0.411759 0.413150 0.048747
0.441307 0.412921 0.047522
0.470858 0.412699 0.046294
0.500410 0.412483 0.045065
0.529965 0.412275 0.043834
0.559522 0.412073 0.042602
0.589080 0.411878 0.041369
0.618640 0.411690 0.040134
0.648202 0.411510 0.038898
0.677766 0.411336 0.037661
0.707331 0.411168 0.036423
0.736898 0.411008 0.035184
0.766466 0.410855 0.033945
0.796035 0.410709 0.032705
0.825606 0.410569 0.031465
0.855178 0.410436 0.030225
0.884750 0.410311 0.028984
0.914324 0.410192 0.027743
0.943899 0.410080 0.026502
0.973475 0.409975 0.025262
0.029384 0.444903 0.062100
0.058900 0.444594 0.060906
0.088419 0.444293 0.059708
0.117942 0.443999 0.058506
0.147468 0.443713 0.057301
0.176997 0.443434 0.056093
0.206530 0.443162 0.054882
0.236065 0.442897 0.053668
0.265603 0.442639 0.052452
0.295144 0.442388 0.051233
0.324687 0.442145 0.050012
0.354233 0.441908 0.048788
0.383781 0.441678 0.047563
0.413331 0.441456 0.046335
0.442884 0.441240 0.045106
0.472438 0.441031 0.043876
0.501995 0.440830 0.042643
0.531553 0.440635 0.041410
0.561113 0.440447 0.040175
0.590675 0.440265 0.038939
0.620239 0.440091 0.037702
0.649804 0.439924 0.036464
0.679370 0.439764 0.035226
0.708938 0.439610 0.033987
0.738508 0.439463 0.032747
0.768078 0.439323 0.031507
0.797650 0.439191 0.030266
0.827223 0.439065 0.029025
0.856797 0.438946 0.027785
0.886372 0.438833 0.026544
0.915948 0.438728 0.025303
0.945524 0.438630 0.024063
0.975102 0.438538 0.022822
0.030893 0.473053 0.059748
0.060416 0.472759 0.058546
0.089942 0.472472 0.057341
0.119471 0.472193 0.056134
0.149004 0.471921 0.054923
0.178539 0.471656 0.053709
0.208077 0.471398 0.052492
0.237617 0.471147 0.051274
0.267161 0.470903 0.050052
0.296706 0.470666 0.048829
0.326254 0.470436 0.047604
0.355804 0.470213 0.046376
0.385357 0.469997 0.045147
0.414911 0.469788 0.043917
0.444468 0.469586 0.042684
0.474026 0.469391 0.041451
0.503586 0.469203 0.040216
0.533148 0.469021 0.038980
0.562712 0.468847 0.037743
0.592277 0.468679 0.036506
0.621843 0.468519 0.035267
0.651411 0.468365 0.034028
0.680980 0.468218 0.032788
0.710551 0.468078 0.031548
0.740123 0.467945 0.030308
0.769696 0.467819 0.029067
0.799269 0.467699 0.027826
0.828844 0.467587 0.026585
0.858420 0.467482 0.025344
0.887997 0.467383 0.024104
0.917574 0.467291 0.022864
0.947152 0.467207 0.021624
0.976731 0.467129 0.020385
0.032416 0.501232 0.057382
0.061945 0.500952 0.056174
0.091478 0.500680 0.054963
0.121013 0.500414 0.053749
0.150550 0.500156 0.052533
0.180091 0.499905 0.051314
0.209634 0.499661 0.050093
0.239180 0.499424 0.048870
0.268728 0.499194 0.047644
0.298278 0.498970 0.046417
0.327830 0.498754 0.045188
0.357384 0.498545 0.043958
0.386941 0.498343 0.042726
0.416499 0.498147 0.041492
0.446059 0.497959 0.040257
0.475621 0.497777 0.039021
0.505184 0.497603 0.037785
0.534749 0.497435 0.036547
0.564316 0.497274 0.035308
0.593884 0.497120 0.034069
0.623453 0.496973 0.032829
0.653024 0.496833 0.031589
0.682595 0.496699 0.030349
0.712168 0.496573 0.029108
0.741742 0.496453 0.027867
0.771317 0.496341 0.026627
0.800892 0.496235 0.025386
0.830469 0.496136 0.024145
0.860046 0.496044 0.022905
0.889624 0.495960 0.021665
0.919203 0.495882 0.020426
0.948782 0.495811 0.019187
0.978362 0.495747 0.017949
0.033951 0.529439 0.055003
0.063486 0.529173 0.053790
0.093024 0.528915 0.052574
0.122565 0.528663 0.051355
0.152108 0.528419 0.050134
0.181653 0.528181 0.048911
0.211201 0.527951 0.047685
0.240751 0.527728 0.046458
0.270303 0.527511 0.045229
0.299858 0.527302 0.043999
0.329414 0.527099 0.042767
0.358972 0.526904 0.041533
0.388532 0.526715 0.040298
0.418094 0.526533 0.039063
0.447657 0.526358 0.037826
0.477222 0.526190 0.036588
0.506789 0.526029 0.035350
0.536357 0.525875 0.034111
0.565926 0.525728 0.032871
0.595496 0.525587 0.031631
0.625068 0.525454 0.030390
0.654641 0.525327 0.029150
0.684214 0.525207 0.027909
0.713789 0.525094 0.026668
0.743365 0.524988 0.025427
0.772941 0.524889 0.024187
0.802519 0.524797 0.022946
0.832097 0.524712 0.021707
0.861675 0.524634 0.020467
0.891255 0.524563 0.019228
0.920834 0.524499 0.017990
0.950414 0.524442 0.016753
0.979995 0.524392 0.015517
0.035498 0.557673 0.052614
0.065038 0.557421 0.051396
0.094581 0.557177 0.050175
0.124127 0.556939 0.048951
0.153674 0.556709 0.047726
0.183224 0.556485 0.046499
0.212777 0.556268 0.045270
0.242331 0.556059 0.044040
0.271887 0.555856 0.042808
0.301445 0.555660 0.041574
0.331005 0.555471 0.040340
0.360567 0.555289 0.039104
0.390130 0.555114 0.037867
0.419695 0.554946 0.036629
0.449261 0.554784 0.035391
0.478829 0.554630 0.034152
0.508398 0.554482 0.032912
0.537969 0.554342 0.031672
0.567540 0.554208 0.030432
0.597113 0.554081 0.029191
0.626687 0.553961 0.027950
0.656262 0.553848 0.026709
0.685837 0.553742 0.025469
0.715414 0.553643 0.024228
0.744991 0.553550 0.022988
0.774569 0.553465 0.021748
0.804148 0.553387 0.020508
0.833727 0.553315 0.019270
0.863307 0.553251 0.018032
0.892887 0.553194 0.016794
0.922467 0.553144 0.015558
0.952048 0.553101 0.014323
0.981629 0.553065 0.013089
0.037055 0.585935 0.050215
0.066600 0.585697 0.048992
0.096148 0.585466 0.047767
0.125698 0.585242 0.046540
0.155250 0.585026 0.045311
0.184804 0.584816 0.044081
0.214360 0.584613 0.042849
0.243918 0.584417 0.041615
0.273478 0.584227 0.040381
0.303040 0.584045 0.039145
0.332603 0.583870 0.037908
0.362168 0.583701 0.036671
0.391734 0.583540 0.035432
0.421302 0.583385 0.034193
0.450871 0.583237 0.032953
0.480442 0.583096 0.031713
0.510013 0.582962 0.030473
0.539586 0.582835 0.029232
0.569159 0.582715 0.027991
0.598734 0.582602 0.026751
0.628310 0.582495 0.025510
0.657886 0.582396 0.024269
0.687464 0.582303 0.023029
0.717042 0.582218 0.021789
0.746620 0.582139 0.020550
0.776199 0.582068 0.019311
0.805779 0.582003 0.018073
0.835359 0.581946 0.016836
0.864940 0.581895 0.015599
0.894520 0.581852 0.014364
0.924101 0.581816 0.013130
0.953683 0.581787 0.011897
0.983264 0.581765 0.010665
0.038621 0.614224 0.047808
0.068171 0.614000 0.046581
0.097723 0.613783 0.045352
0.127277 0.613573 0.044122
0.156833 0.613369 0.042890
0.186391 0.613173 0.041657
0.215951 0.612984 0.040422
0.245513 0.612801 0.039186
0.275076 0.612626 0.037950
0.304641 0.612457 0.036712
0.334207 0.612295 0.035474
0.363775 0.612140 0.034234
0.393344 0.611992 0.032995
0.422914 0.611851 0.031755
0.452486 0.611717 0.030514
0.482058 0.611589 0.029274
0.511632 0.611469 0.028033
0.541207 0.611355 0.026792
0.570782 0.611249 0.025551
0.600359 0.611149 0.024311
0.629936 0.611056 0.023070
0.659514 0.610970 0.021830
0.689093 0.610892 0.020591
0.718672 0.610820 0.019352
0.748251 0.610755 0.018114
0.777831 0.610697 0.016877
0.807412 0.610647 0.015640
0.836993 0.610603 0.014405
0.866574 0.610567 0.013171
0.896155 0.610538 0.011938
0.925736 0.610516 0.010706
0.955318 0.610501 0.009476
0.984899 0.610493 0.008247
0.040196 0.642540 0.045393
0.069750 0.642329 0.044163
0.099306 0.642126 0.042931
0.128864 0.641929 0.041698
0.158424 0.641740 0.040463
0.187986 0.641557 0.039227
0.217549 0.641381 0.037991
0.247114 0.641212 0.036753
0.276680 0.641050 0.035515
0.306247 0.640895 0.034276
0.335816 0.640747 0.033036
0.365387 0.640605 0.031796
0.394958 0.640471 0.030556
0.424531 0.640343 0.029315
0.454105 0.640223 0.028074
0.483679 0.640109 0.026833
0.513255 0.640002 0.025593
0.542831 0.639902 0.024352
0.572408 0.639809 0.023112
0.601986 0.639723 0.021872
0.631565 0.639644 0.020632
0.661144 0.639572 0.019394
0.690724 0.639507 0.018155
0.720304 0.639449 0.016918
0.749884 0.639398 0.015682
0.779465 0.639355 0.014446
0.809046 0.639318 0.013212
0.838627 0.639289 0.011979
0.868209 0.639266 0.010747
0.897790 0.639251 0.009517
0.927371 0.639243 0.008288
0.956953 0.639243 0.007061
0.986534 0.639250 0.005835
0.041779 0.670883 0.042972
0.071337 0.670686 0.041739
0.100897 0.670496 0.040504
0.130459 0.670313 0.039269
0.160022 0.670137 0.038032
0.189586 0.669968 0.036794
0.219153 0.669806 0.035556
0.248720 0.669650 0.034317
0.278289 0.669502 0.033077
0.307859 0.669360 0.031837
0.337431 0.669225 0.030597
0.367003 0.669098 0.029356
0.396577 0.668977 0.028116
0.426152 0.668863 0.026875
0.455727 0.668756 0.025634
0.485304 0.668655 0.024393
0.514881 0.668562 0.023153
0.544459 0.668476 0.021913
0.574037 0.668397 0.020674
0.603616 0.668324 0.019435
0.633196 0.668259 0.018197
0.662776 0.668201 0.016959
0.692357 0.668150 0.015723
0.721937 0.668106 0.014487
0.751518 0.668069 0.013253
0.781100 0.668039 0.012020
0.810681 0.668017 0.010788
0.840262 0.668002 0.009558
0.869844 0.667994 0.008329
0.899425 0.667993 0.007101
0.929006 0.667999 0.005876
0.958587 0.668013 0.004652
0.988168 0.668035 0.003431
0.043370 0.699252 0.040545
0.072931 0.699069 0.039310
0.102495 0.698893 0.038073
0.132059 0.698723 0.036836
0.161625 0.698561 0.035597
0.191193 0.698405 0.034358
0.220762 0.698257 0.033119
0.250332 0.698115 0.031879
0.279903 0.697980 0.030638
0.309476 0.697852 0.029398
0.339050 0.697731 0.028157
0.368624 0.697616 0.026916
0.398200 0.697509 0.025675
0.427776 0.697409 0.024435
0.457353 0.697315 0.023194
0.486931 0.697229 0.021954
0.516510 0.697149 0.020715
0.546089 0.697077 0.019476
0.575668 0.697011 0.018238
0.605248 0.696953 0.017001
0.634829 0.696902 0.015764
0.664410 0.696857 0.014529
0.693991 0.696820 0.013294
0.723572 0.696790 0.012061
0.753153 0.696767 0.010829
0.782735 0.696752 0.009599
0.812316 0.696744 0.008370
0.841897 0.696743 0.007142
0.871478 0.696749 0.005917
0.901059 0.696763 0.004693
0.930640 0.696784 0.003471
0.960220 0.696813 0.002252
0.989800 0.696849 0.001034
0.044967 0.727649 0.038115
0.074532 0.727479 0.036877
0.104098 0.727316 0.035639
0.133666 0.727160 0.034400
0.163235 0.727011 0.033160
0.192805 0.726869 0.031920
0.222376 0.726734 0.030680
0.251949 0.726606 0.029439
0.281522 0.726484 0.028198
0.311097 0.726370 0.026957
0.340672 0.726262 0.025717
0.370249 0.726162 0.024476
0.399826 0.726068 0.023236
0.429403 0.725981 0.021996
0.458982 0.725902 0.020756
0.488561 0.725829 0.019517
0.518141 0.725763 0.018279
0.547721 0.725705 0.017042
0.577301 0.725653 0.015805
0.606882 0.725609 0.014570
0.636463 0.725571 0.013335
0.666044 0.725541 0.012102
0.695625 0.725518 0.010870
0.725207 0.725502 0.009640
0.754788 0.725494 0.008411
0.784370 0.725493 0.007183
0.813951 0.725499 0.005958
0.843532 0.725512 0.004734
0.873112 0.725533 0.003512
0.902692 0.725562 0.002292
0.932272 0.725598 0.001075
0.961852 0.725641 0.000000
0.991430 0.725692 0.000000
0.046571 0.756072 0.035680
0.076138 0.755915 0.034441
0.105707 0.755766 0.033201
0.135277 0.755624 0.031961
0.164849 0.755489 0.030721
0.194421 0.755360 0.029480
0.223995 0.755238 0.028240
0.253569 0.755124 0.026999
0.283145 0.755016 0.025758
0.312721 0.754915 0.024517
0.342298 0.754821 0.023277
0.371876 0.754734 0.022037
0.401454 0.754654 0.020798
0.431033 0.754581 0.019559
0.460613 0.754515 0.018320
0.490193 0.754457 0.017083
0.519773 0.754405 0.015846
0.549354 0.754360 0.014611
0.578935 0.754322 0.013376
0.608516 0.754292 0.012143
0.638098 0.754269 0.010911
0.667679 0.754253 0.009681
0.697261 0.754244 0.008451
0.726842 0.754243 0.007224
0.756423 0.754248 0.005998
0.786004 0.754262 0.004774
0.815584 0.754282 0.003553
0.845165 0.754311 0.002333
0.874745 0.754346 0.001115
0.904324 0.754390 0.000000
0.933903 0.754441 0.000000
0.963481 0.754499 0.000000
0.993058 0.754566 0.000000
0.048180 0.784521 0.033243
0.077750 0.784379 0.032003
0.107321 0.784243 0.030762
0.136894 0.784114 0.029522
0.166467 0.783992 0.028281
0.196042 0.783877 0.027040
0.225617 0.783769 0.025799
0.255193 0.783668 0.024559
0.284770 0.783574 0.023318
0.314348 0.783487 0.022078
0.343927 0.783407 0.020839
0.373506 0.783334 0.019600
0.403085 0.783268 0.018362
0.432665 0.783208 0.017124
0.462246 0.783156 0.015888
0.491827 0.783111 0.014652
0.521408 0.783074 0.013418
0.550989 0.783043 0.012184
0.580570 0.783019 0.010952
0.610151 0.783003 0.009722
0.639733 0.782994 0.008492
0.669314 0.782992 0.007265
0.698895 0.782998 0.006039
0.728476 0.783011 0.004815
0.758057 0.783032 0.003593
0.787637 0.783060 0.002373
0.817217 0.783095 0.001156
0.846796 0.783138 0.000000
0.876375 0.783189 0.000000
0.905953 0.783247 0.000000
0.935530 0.783313 0.000000
0.965107 0.783388 0.000000
0.994683 0.783470 0.000000
0.049794 0.812997 0.030804
0.079366 0.812868 0.029563
0.108940 0.812746 0.028322
0.138514 0.812631 0.027081
0.168090 0.812523 0.025841
