assets/luts/sahara-gold.cube
# Sahara Gold — Aperture X
#
# Wuestenlicht der spaeten Nachmittagsstunde: warme, sandfarbene
# Lichter mit deutlich gedaempftem Blau, Schatten mit leichtem
# Violettstich, angehobener Mittenkontrast statt flacher Kurve.
#
# Original erstellt fuer Aperture X (Phase 28, siehe DECISIONS.md
# ADR-0058) — kein fremdes Werk enthalten, frei verwendbar. Erzeugt
# aus derselben Formel wie der eingebaute Filter gleichen Namens;
# `builtin_lut_matches_shipped_cube_files` in builtin_luts.rs prueft
# beide real gegeneinander.
TITLE "Sahara Gold"
LUT_3D_SIZE 9
DOMAIN_MIN 0.0 0.0 0.0
DOMAIN_MAX 1.0 1.0 1.0
0.020000 0.000000 0.045000
0.100076 0.000000 0.041162
0.240724 0.000000 0.036758
0.381687 0.000000 0.032075
0.522890 0.000000 0.027199
0.664293 0.000000 0.022177
0.805870 0.000000 0.017038
0.947605 0.000696 0.011805
1.000000 0.002506 0.006495
0.020696 0.072435 0.036910
0.101651 0.073924 0.032234
0.242846 0.075505 0.027364
0.384243 0.077159 0.022346
0.525815 0.078872 0.017211
0.667545 0.080636 0.011981
0.809418 0.082445 0.006673
0.951425 0.084291 0.001300
1.000000 0.086172 0.000000
0.022803 0.215451 0.027529
0.104194 0.217103 0.022516
0.245760 0.218814 0.017384
0.387485 0.220577 0.012157
0.529353 0.222384 0.006851
0.671356 0.224229 0.001480
0.813486 0.226109 0.000000
0.955735 0.228019 0.000000
1.000000 0.229957 0.000000
0.025705 0.358756 0.017557
0.107425 0.360517 0.012333
0.249289 0.362323 0.007029
0.391288 0.364167 0.001660
0.533413 0.366046 0.000000
0.675658 0.367955 0.000000
0.818018 0.369892 0.000000
0.960488 0.371853 0.000000
1.000000 0.373836 0.000000
0.029224 0.502262 0.007207
0.111219 0.504105 0.001839
0.253340 0.505983 0.000000
0.395581 0.507891 0.000000
0.537937 0.509827 0.000000
0.680404 0.511787 0.000000
0.822978 0.513769 0.000000
0.965655 0.515771 0.000000
1.000000 0.517790 0.000000
0.033267 0.645919 0.000000
0.115505 0.647827 0.000000
0.257857 0.649762 0.000000
0.400320 0.651721 0.000000
0.542890 0.653703 0.000000
0.685564 0.655704 0.000000
0.828341 0.657722 0.000000
0.971218 0.659756 0.000000
1.000000 0.661802 0.000000
0.037777 0.789697 0.000000
0.120236 0.791656 0.000000
0.262803 0.793636 0.000000
0.405474 0.795637 0.000000
0.548247 0.797655 0.000000
0.691120 0.799688 0.000000
0.834093 0.801734 0.000000
0.977164 0.803790 0.000000
1.000000 0.805856 0.000000
0.042715 0.933570 0.000000
0.125383 0.935570 0.000000
0.268153 0.937587 0.000000
0.411023 0.939620 0.000000
0.553992 0.941665 0.000000
0.697060 0.943722 0.000000
0.840226 0.945787 0.000000
0.983491 0.947858 0.000000
1.000000 0.949933 0.000000
0.048059 1.000000 0.000000
0.130925 1.000000 0.000000
0.273891 1.000000 0.000000
0.416956 1.000000 0.000000
0.560119 1.000000 0.000000
0.703381 1.000000 0.000000
0.846743 1.000000 0.000000
0.990208 1.000000 0.000000
1.000000 1.000000 0.000000
0.019912 0.000000 0.123714
0.100269 0.000000 0.119589
0.241045 0.000000 0.115067
0.382103 0.000000 0.110307
0.523383 0.000000 0.105373
0.664852 0.000000 0.100305
0.806489 0.000000 0.095130
0.948277 0.001355 0.089866
1.000000 0.003179 0.084531
0.021014 0.072969 0.115222
0.102064 0.074495 0.110468
0.243337 0.076104 0.105540
0.384800 0.077781 0.100476
0.526432 0.079514 0.095304
0.668215 0.081295 0.090043
0.810139 0.083117 0.084710
0.952193 0.084977 0.079315
1.000000 0.086870 0.073871
0.023291 0.216049 0.105706
0.104749 0.217724 0.100646
0.246375 0.219455 0.095478
0.388154 0.221235 0.090220
0.530073 0.223056 0.084888
0.672123 0.224915 0.079496
0.814297 0.226806 0.074053
0.956588 0.228727 0.068570
1.000000 0.230673 0.063054
0.026318 0.359397 0.095651
0.108092 0.361175 0.090396
0.250007 0.362995 0.085067
0.392052 0.364852 0.079677
0.534222 0.366742 0.074236
0.676510 0.368662 0.068753
0.818911 0.370608 0.063238
0.961421 0.372577 0.057698
1.000000 0.374568 0.052140
0.029941 0.502933 0.085246
0.111982 0.504790 0.079857
0.254148 0.506679 0.074418
0.396432 0.508598 0.068937
0.538829 0.510543 0.063423
0.681335 0.512511 0.057883
0.823947 0.514501 0.052325
0.966663 0.516509 0.046756
1.000000 0.518534 0.041182
0.034074 0.646615 0.074600
0.116354 0.648533 0.069120
0.258747 0.650478 0.063607
0.401250 0.652445 0.058068
0.543859 0.654434 0.052511
0.686571 0.656442 0.046942
0.829384 0.658466 0.041368
0.972297 0.660505 0.035796
1.000000 0.662555 0.030233
0.038666 0.790412 0.063791
0.121165 0.792380 0.058253
0.263770 0.794368 0.052696
0.406479 0.796375 0.047128
0.549289 0.798399 0.041554
0.692199 0.800436 0.035982
0.835207 0.802487 0.030419
0.978314 0.804547 0.024871
1.000000 0.806615 0.019348
0.043682 0.934301 0.052882
0.126387 0.936308 0.047313
0.269193 0.938331 0.041740
0.412100 0.940368 0.036168
0.555105 0.942418 0.030604
0.698209 0.944478 0.025056
0.841412 0.946545 0.019531
0.984713 0.948619 0.014040
1.000000 0.950694 0.008591
0.049098 1.000000 0.041926
0.132001 1.000000 0.036353
0.275004 1.000000 0.030789
0.418104 1.000000 0.025240
0.561303 1.000000 0.019715
0.704602 1.000000 0.014222
0.848001 1.000000 0.008772
0.991505 1.000000 0.003377
1.000000 1.000000 0.000000
0.019976 0.000000 0.262268
0.100515 0.000000 0.257965
0.241404 0.000000 0.253345
0.382548 0.000000 0.248515
0.523901 0.000000 0.243529
0.665434 0.000000 0.238419
0.807128 0.000221 0.233209
0.948969 0.002019 0.227918
1.000000 0.003857 0.222558
0.021370 0.073517 0.253503
0.102507 0.075076 0.248679
0.243853 0.076712 0.243697
0.385380 0.078410 0.238591
0.527069 0.080161 0.233384
0.668905 0.081958 0.228095
0.810877 0.083795 0.222738
0.952978 0.085667 0.217324
1.000000 0.087571 0.211864
0.023805 0.216656 0.243865
0.105326 0.218353 0.238763
0.247010 0.220102 0.233559
0.388841 0.221898 0.228273
0.530810 0.223733 0.222918
0.672906 0.225604 0.217506
0.815124 0.227507 0.212047
0.957457 0.229438 0.206551
1.000000 0.231393 0.201025
0.026952 0.360043 0.233734
0.108778 0.361837 0.228450
0.250742 0.363672 0.223097
0.392834 0.365542 0.217687
0.535048 0.367443 0.212230
0.677377 0.369373 0.206735
0.819819 0.371328 0.201209
0.962368 0.373305 0.195662
1.000000 0.375302 0.190099
0.030674 0.503610 0.223277
0.112762 0.505479 0.217868
0.254972 0.507379 0.212412
0.397298 0.509308 0.206918
0.539736 0.511262 0.201394
0.682281 0.513239 0.195847
0.824931 0.515235 0.190284
0.967684 0.517250 0.184713
1.000000 0.519280 0.179139
0.034896 0.647315 0.212595
0.117219 0.649243 0.207102
0.259652 0.651197 0.201578
0.402194 0.653172 0.196032
0.544841 0.655169 0.190470
0.687591 0.657182 0.184898
0.830441 0.659212 0.179325
0.973390 0.661255 0.173755
1.000000 0.663310 0.168197
0.039570 0.791131 0.201763
0.122108 0.793106 0.196217
0.264751 0.795102 0.190655
0.407497 0.797115 0.185084
0.550344 0.799144 0.179510
0.693290 0.801187 0.173941
0.836335 0.803241 0.168382
0.979478 0.805304 0.162843
1.000000 0.807374 0.157330
0.044662 0.935035 0.190841
0.127404 0.937048 0.185270
0.270248 0.939076 0.179696
0.413191 0.941119 0.174126
0.556232 0.943172 0.168567
0.699372 0.945235 0.163027
0.842611 0.947305 0.157513
0.985949 0.949379 0.152036
1.000000 0.951455 0.146606
0.050151 1.000000 0.179882
0.133091 1.000000 0.174312
0.276129 1.000000 0.168752
0.419266 1.000000 0.163211
0.562501 1.000000 0.157697
0.705836 1.000000 0.152218
0.849274 1.000000 0.146786
0.992817 1.000000 0.141416
1.000000 1.000000 0.136126
0.020123 0.000000 0.400739
0.100807 0.000000 0.396300
0.241797 0.000000 0.391595
0.383022 0.000000 0.386703
0.524443 0.000000 0.381668
0.666037 0.000000 0.376519
0.807786 0.000875 0.371278
0.949678 0.002689 0.365960
1.000000 0.004540 0.360579
0.021760 0.074079 0.391755
0.102978 0.075668 0.386868
0.244393 0.077328 0.381838
0.385981 0.079047 0.376692
0.527726 0.080815 0.371454
0.669613 0.082628 0.366138
0.811633 0.084478 0.360759
0.953779 0.086362 0.355327
1.000000 0.088276 0.349853
0.024343 0.217272 0.382007
0.105926 0.218988 0.376865
0.247665 0.220756 0.371630
0.389548 0.222567 0.366316
0.531564 0.224416 0.360939
0.673705 0.226299 0.355509
0.815966 0.228212 0.350036
0.958341 0.230152 0.344528
1.000000 0.232116 0.338993
0.027605 0.360696 0.371805
0.109483 0.362506 0.366495
0.251494 0.364353 0.361119
0.393632 0.366235 0.355691
0.535889 0.368147 0.350219
0.678260 0.370087 0.344712
0.820741 0.372050 0.339177
0.963329 0.374035 0.333623
1.000000 0.376039 0.328056
0.031425 0.504291 0.361300
0.113559 0.506172 0.355873
0.255812 0.508083 0.350402
0.398179 0.510022 0.344896
0.540656 0.511984 0.339362
0.683241 0.513969 0.333809
0.825929 0.515972 0.328242
0.968719 0.517993 0.322669
1.000000 0.520028 0.317096
0.035735 0.648019 0.350585
0.118098 0.649957 0.345080
0.260572 0.651919 0.339547
0.403153 0.653902 0.333994
0.545838 0.655905 0.328428
0.688624 0.657925 0.322855
0.831511 0.659960 0.317282
0.974496 0.662007 0.311716
1.000000 0.664065 0.306164
0.040488 0.791853 0.339732
0.123065 0.793836 0.334179
0.265746 0.795838 0.328613
0.408530 0.797857 0.323040
0.551413 0.799892 0.317467
0.694395 0.801939 0.311901
0.837476 0.803996 0.306349
0.980655 0.806062 0.300818
1.000000 0.808134 0.295318
0.045655 0.935771 0.328799
0.128435 0.937790 0.323226
0.271315 0.939824 0.317653
0.414294 0.941870 0.312086
0.557372 0.943928 0.306533
0.700548 0.945993 0.301002
0.843823 0.948065 0.295500
0.987199 0.950141 0.290039
1.000000 0.952216 0.284630
0.051218 1.000000 0.317839
0.134193 1.000000 0.312272
0.277268 1.000000 0.306718
0.420440 1.000000 0.301186
0.563712 1.000000 0.295683
0.707085 1.000000 0.290220
0.850560 1.000000 0.284809
0.994144 1.000000 0.279466
1.000000 1.000000 0.274213
0.020331 0.000000 0.539150
0.101140 0.000000 0.534601
0.242221 0.000000 0.529820
0.383522 0.000000 0.524871
0.525009 0.000000 0.519792
0.666661 0.000000 0.514607
0.808464 0.001535 0.509336
0.950405 0.003363 0.503994
1.000000 0.005228 0.498592
0.022181 0.074652 0.529982
0.103475 0.076269 0.525039
0.244956 0.077952 0.519963
0.386604 0.079690 0.514781
0.528402 0.081475 0.509513
0.670339 0.083302 0.504173
0.812406 0.085165 0.498773
0.954596 0.087060 0.493324
1.000000 0.088985 0.487836
0.024904 0.217895 0.520134
0.106546 0.219631 0.514956
0.248339 0.221415 0.509690
0.390272 0.223240 0.504352
0.532335 0.225102 0.498954
0.674521 0.226997 0.493507
0.816824 0.228920 0.488020
0.959239 0.230869 0.482501
1.000000 0.232842 0.476958
0.028277 0.361355 0.509866
0.110205 0.363179 0.504531
0.252264 0.365040 0.499135
0.394446 0.366933 0.493689
0.536745 0.368856 0.488203
0.679157 0.370804 0.482685
0.821678 0.372776 0.477143
0.964304 0.374768 0.471583
1.000000 0.376778 0.466013
0.032193 0.504977 0.499315
0.114371 0.506870 0.493871
0.256667 0.508791 0.488387
0.399075 0.510739 0.482870
0.541592 0.512710 0.477328
0.684214 0.514701 0.471769
0.826940 0.516711 0.466199
0.969767 0.518737 0.460625
1.000000 0.520777 0.455054
0.036588 0.648727 0.488570
0.118993 0.650673 0.483054
0.261506 0.652643 0.477513
0.404125 0.654634 0.471954
0.546848 0.656644 0.466385
0.689671 0.658669 0.460811
0.832594 0.660709 0.455240
0.975616 0.662761 0.449678
1.000000 0.664822 0.444133
0.041421 0.792577 0.477698
0.124036 0.794568 0.472140
0.266755 0.796577 0.466570
0.409575 0.798602 0.460997
0.552495 0.800641 0.455425
0.695514 0.802692 0.449863
0.838630 0.804753 0.444318
0.981846 0.806822 0.438797
1.000000 0.808895 0.433310
0.046663 0.936509 0.466756
0.129480 0.938534 0.461182
0.272396 0.940573 0.455611
0.415411 0.942624 0.450048
0.558525 0.944684 0.444502
0.701737 0.946753 0.438981
0.845049 0.948826 0.433493
0.988462 0.950902 0.428049
1.000000 0.952976 0.422663
0.052297 1.000000 0.455796
0.135309 1.000000 0.450233
0.278420 1.000000 0.444687
0.421629 1.000000 0.439164
0.564937 1.000000 0.433675
0.708347 1.000000 0.428229
0.851862 1.000000 0.422841
0.995486 1.000000 0.417528
1.000000 1.000000 0.412316
0.020591 0.000000 0.677515
0.101508 0.000000 0.672870
0.242675 0.000000 0.668023
0.384046 0.000000 0.663023
0.525596 0.000000 0.657902
0.667305 0.000399 0.652683
0.809160 0.002201 0.647385
0.951150 0.004043 0.642019
1.000000 0.005919 0.636599
0.022632 0.075236 0.668187
0.103998 0.076879 0.663191
0.245542 0.078583 0.658074
0.387246 0.080339 0.652859
0.529096 0.082140 0.647562
0.671082 0.083981 0.642199
0.813195 0.085856 0.636780
0.955428 0.087763 0.631316
1.000000 0.089697 0.625816
0.025488 0.218525 0.658247
0.107187 0.220280 0.653034
0.249032 0.222080 0.647740
0.391014 0.223919 0.642379
0.533122 0.225793 0.636962
0.675352 0.227699 0.631499
0.817697 0.229632 0.625999
0.960152 0.231590 0.620471
1.000000 0.233570 0.614921
0.028969 0.362019 0.647918
0.110945 0.363857 0.642558
0.253050 0.365730 0.637143
0.395276 0.367635 0.631682
0.537617 0.369567 0.626183
0.680069 0.371524 0.620655
0.822628 0.373504 0.615106
0.965292 0.375503 0.609542
1.000000 0.377520 0.603969
0.032978 0.505667 0.637324
0.115199 0.507571 0.631864
0.257537 0.509502 0.626367
0.399985 0.511459 0.620840
0.542541 0.513437 0.615291
0.685202 0.515436 0.609727
0.827965 0.517452 0.604155
0.970828 0.519484 0.598582
1.000000 0.521528 0.593013
0.037457 0.649438 0.626551
0.119902 0.651393 0.621025
0.262454 0.653371 0.615476
0.405112 0.655369 0.609913
0.547871 0.657385 0.604341
0.690731 0.659416 0.598767
0.833691 0.661460 0.593199
0.976748 0.663515 0.587642
1.000000 0.665580 0.582106
0.042368 0.793305 0.615662
0.125021 0.795302 0.610099
0.267778 0.797317 0.604527
0.410634 0.799348 0.598953
0.553590 0.801392 0.593384
0.696645 0.803447 0.587827
0.839798 0.805511 0.582290
0.983050 0.807581 0.576781
1.000000 0.809656 0.571309
0.047684 0.937250 0.604713
0.130537 0.939280 0.599139
0.273490 0.941323 0.593570
0.416542 0.943378 0.588012
0.559691 0.945442 0.582474
0.702940 0.947512 0.576964
0.846289 0.949587 0.571491
0.989740 0.951663 0.566066
1.000000 0.953736 0.560706
0.053390 1.000000 0.593755
0.136438 1.000000 0.588197
0.279585 1.000000 0.582659
0.422830 1.000000 0.577147
0.566175 1.000000 0.571673
0.709623 1.000000 0.566246
0.853177 1.000000 0.560883
0.996845 1.000000 0.555603
1.000000 1.000000 0.550440
0.020894 0.000000 0.815840
0.101910 0.000000 0.811113
0.243155 0.000000 0.806205
0.384595 0.000000 0.801158
0.526205 0.000000 0.795999
0.667969 0.001055 0.790749
0.809875 0.002872 0.785424
0.951912 0.004727 0.780038
1.000000 0.006615 0.774600
0.023111 0.075831 0.806371
0.104544 0.077497 0.801328
0.246149 0.079221 0.796172
0.387908 0.080995 0.790925
0.529809 0.082811 0.785603
0.671842 0.084665 0.780218
0.814000 0.086552 0.774782
0.956276 0.088469 0.769303
1.000000 0.090412 0.763791
0.026093 0.219163 0.796346
0.107847 0.220935 0.791102
0.249743 0.222750 0.785781
0.391772 0.224602 0.780398
0.533926 0.226489 0.774964
0.676198 0.228405 0.769486
0.818584 0.230347 0.763975
0.961080 0.232314 0.758438
1.000000 0.234301 0.752882
0.029678 0.362689 0.785960
0.111703 0.364540 0.780579
0.253852 0.366425 0.775145
0.396121 0.368340 0.769670
0.538503 0.370282 0.764159
0.680995 0.372248 0.758623
0.823593 0.374235 0.753067
0.966295 0.376241 0.747499
1.000000 0.378263 0.741926
0.033779 0.506362 0.775327
0.116043 0.508276 0.769853
0.258422 0.510217 0.764344
0.400910 0.512182 0.758808
0.543505 0.514168 0.753252
0.686203 0.516173 0.747685
0.829003 0.518195 0.742111
0.971903 0.520232 0.736539
1.000000 0.522281 0.730974
0.038341 0.650152 0.764528
0.120825 0.652116 0.758993
0.263417 0.654102 0.753438
0.406112 0.656106 0.747870
0.548908 0.658128 0.742297
0.691805 0.660164 0.736725
0.834800 0.662213 0.731160
0.977894 0.664271 0.725610
1.000000 0.666338 0.720083
0.043329 0.794035 0.753623
0.126020 0.796039 0.748056
0.268813 0.798060 0.742483
0.411707 0.800096 0.736910
0.554699 0.802144 0.731345
0.697790 0.804203 0.725794
0.840979 0.806269 0.720266
0.984267 0.808342 0.714770
1.000000 0.810417 0.709314
0.048719 0.937993 0.742669
0.131609 0.940028 0.737096
0.274598 0.942076 0.731530
0.417685 0.944134 0.725979
0.560871 0.946200 0.720450
0.704156 0.948273 0.714952
0.847542 0.950348 0.709495
0.991032 0.952424 0.704092
1.000000 0.954495 0.698760
0.054496 1.000000 0.731716
0.137581 1.000000 0.726164
0.280763 1.000000 0.720634
0.424045 1.000000 0.715135
0.567428 1.000000 0.709677
0.710914 1.000000 0.704272
0.854509 1.000000 0.698936
0.998220 1.000000 0.693694
1.000000 1.000000 0.688587
0.021237 0.000000 0.954132
0.102342 0.000000 0.949332
0.243662 0.000000 0.944369
0.385167 0.000000 0.939278
0.526835 0.000000 0.934084
0.668652 0.001716 0.928805
0.810607 0.003548 0.923456
0.952691 0.005416 0.918049
1.000000 0.007315 0.912595
0.023615 0.076435 0.944537
0.105114 0.078123 0.939449
0.246777 0.079866 0.934258
0.388589 0.081656 0.928982
0.530540 0.083487 0.923635
0.672619 0.085353 0.918230
0.814821 0.087252 0.912777
0.957139 0.089179 0.907286
1.000000 0.091131 0.901763
0.026719 0.219807 0.934433
0.108527 0.221596 0.929159
0.250472 0.223425 0.923814
0.392548 0.225290 0.918411
0.534746 0.227188 0.912960
0.677060 0.229114 0.907469
0.819487 0.231066 0.901947
0.962022 0.233040 0.896402
1.000000 0.235035 0.890841
0.030405 0.363363 0.923994
0.112477 0.365228 0.918592
0.254671 0.367124 0.913142
0.396981 0.369049 0.907653
0.539404 0.371000 0.902132
0.681935 0.372974 0.896588
0.824572 0.374968 0.891027
0.967311 0.376980 0.885456
1.000000 0.379008 0.879882
0.034596 0.507060 0.913324
0.116902 0.508985 0.907836
0.259322 0.510935 0.902316
0.401849 0.512908 0.896773
0.544482 0.514901 0.891212
0.687218 0.516913 0.885641
0.830055 0.518941 0.880068
0.972991 0.520982 0.874497
1.000000 0.523035 0.868937
0.039239 0.650869 0.902501
0.121763 0.652842 0.896958
0.264393 0.654835 0.891398
0.407125 0.656846 0.885827
0.549959 0.658873 0.880253
0.692892 0.660914 0.874683
0.835923 0.662966 0.869123
0.979053 0.665029 0.863580
1.000000 0.667098 0.858063
0.044304 0.794768 0.891583
0.127033 0.796778 0.886013
0.269863 0.798805 0.880439
0.412792 0.800846 0.874868
0.555821 0.802898 0.869308
0.698948 0.804960 0.863764
0.842173 0.807029 0.858247
0.985498 0.809103 0.852764
1.000000 0.811179 0.847327
0.049767 0.938737 0.880625
0.132693 0.940777 0.875054
0.275718 0.942829 0.869493
0.418842 0.944891 0.863949
0.562064 0.946960 0.858430
0.705386 0.949034 0.852946
0.848809 0.951109 0.847507
0.992338 0.953184 0.842128
1.000000 0.955252 0.836826
0.055616 1.000000 0.869678
0.138736 1.000000 0.864133
0.281955 1.000000 0.858614
0.425273 1.000000 0.853128
0.568694 1.000000 0.847688
0.712219 1.000000 0.842306
0.855855 1.000000 0.837001
0.999613 1.000000 0.831802
1.000000 1.000000 0.826767
0.021615 0.000000 1.000000
0.102803 0.000000 1.000000
0.244194 0.000000 1.000000
0.385760 0.000000 1.000000
0.527485 0.000577 1.000000
0.669353 0.002384 1.000000
0.811356 0.004229 1.000000
0.953486 0.006109 0.996054
1.000000 0.008019 0.990585
0.024144 0.077047 1.000000
0.105705 0.078756 1.000000
0.247425 0.080517 1.000000
0.389289 0.082323 1.000000
0.531288 0.084167 1.000000
0.673413 0.086046 0.996236
0.815658 0.087955 0.990768
0.958018 0.089892 0.985264
1.000000 0.091853 0.979732
0.027365 0.220458 1.000000
0.109224 0.222262 1.000000
0.251219 0.224105 1.000000
0.393340 0.225983 0.996417
0.535581 0.227891 0.990951
0.677937 0.229827 0.985448
0.820404 0.231787 0.979917
0.962978 0.233769 0.974365
1.000000 0.235771 0.968799
0.031150 0.364043 1.000000
0.113267 0.365919 0.996599
0.255505 0.367827 0.991133
0.397857 0.369762 0.985632
0.540320 0.371721 0.980101
0.682890 0.373703 0.974550
0.825564 0.375704 0.968985
0.968341 0.377722 0.963412
1.000000 0.379756 0.957839
0.035428 0.507763 0.991316
0.117777 0.509697 0.985816
0.260236 0.511656 0.980286
0.402803 0.513636 0.974735
0.545474 0.515637 0.969170
0.688247 0.517655 0.963598
0.831120 0.519688 0.958024
0.974093 0.521734 0.952457
1.000000 0.523790 0.946903
0.040152 0.651590 0.980471
0.122715 0.653570 0.974921
0.265383 0.655570 0.969356
0.408153 0.657587 0.963784
0.551023 0.659620 0.958210
0.693992 0.661665 0.952642
0.837060 0.663722 0.947088
0.980226 0.665787 0.941554
1.000000 0.667858 0.936049
0.045292 0.795503 0.969542
0.128059 0.797520 0.963969
0.270925 0.799552 0.958396
0.413891 0.801597 0.952828
0.556956 0.803653 0.947273
0.700119 0.805718 0.941738
0.843381 0.807789 0.936232
0.986743 0.809864 0.930764
1.000000 0.811939 0.925348
0.050828 0.939484 0.958582
0.133791 0.941528 0.953013
0.276852 0.943584 0.947458
0.420012 0.945649 0.941922
0.563270 0.947720 0.936415
0.706629 0.949795 0.930946
0.850091 0.951870 0.925527
0.993660 0.953943 0.920174
1.000000 0.956008 0.914907
0.056748 1.000000 0.947642
0.139905 1.000000 0.942106
0.283160 1.000000 0.936598
0.426516 1.000000 0.931128
0.569974 1.000000 0.925707
0.713539 1.000000 0.920351
0.857218 1.000000 0.915081
1.000000 1.000000 0.909932
1.000000 1.000000 0.905000
