assets/luts/sahara-gold.cube
# Sahara Gold — Aperture X
#
# Wuestenlicht der spaeten Nachmittagsstunde: warme, sandfarbene
# Lichter mit deutlich gedaempftem Blau, Schatten mit leichtem
# Violettstich, angehobener Mittenkontrast statt flacher Kurve.
#
# Original erstellt fuer Aperture X (Phase 28, siehe DECISIONS.md
# ADR-0058) — kein fremdes Werk enthalten, frei verwendbar. Erzeugt
# aus derselben Formel wie der eingebaute Filter gleichen Namens;
# `builtin_lut_matches_shipped_cube_files` in builtin_luts.rs prueft
# beide real gegeneinander.
TITLE "Sahara Gold"
LUT_3D_SIZE 33
DOMAIN_MIN 0.0 0.0 0.0
DOMAIN_MAX 1.0 1.0 1.0
0.020000 0.000000 0.045000
0.019916 0.000000 0.044149
0.029924 0.000000 0.043200
0.064981 0.000000 0.042200
0.100076 0.000000 0.041162
0.135201 0.000000 0.040095
0.170353 0.000000 0.039003
0.205528 0.000000 0.037890
0.240724 0.000000 0.036758
0.275939 0.000000 0.035609
0.311172 0.000000 0.034444
0.346421 0.000000 0.033266
0.381687 0.000000 0.032075
0.416967 0.000000 0.030872
0.452261 0.000000 0.029658
0.487569 0.000000 0.028433
0.522890 0.000000 0.027199
0.558223 0.000000 0.025956
0.593568 0.000000 0.024704
0.628925 0.000000 0.023444
0.664293 0.000000 0.022177
0.699672 0.000000 0.020902
0.735061 0.000000 0.019621
0.770461 0.000000 0.018333
0.805870 0.000000 0.017038
0.841290 0.000000 0.015738
0.876719 0.000000 0.014433
0.912157 0.000250 0.013122
0.947605 0.000696 0.011805
0.983061 0.001145 0.010485
1.000000 0.001596 0.009159
1.000000 0.002049 0.007829
1.000000 0.002506 0.006495
0.019922 0.000000 0.043233
0.019979 0.000000 0.042234
0.030072 0.000000 0.041197
0.065197 0.000000 0.040131
0.100347 0.000000 0.039040
0.135522 0.000000 0.037928
0.170717 0.000000 0.036796
0.205931 0.000000 0.035647
0.241164 0.000000 0.034484
0.276413 0.000000 0.033306
0.311678 0.000000 0.032115
0.346957 0.000000 0.030912
0.382251 0.000000 0.029698
0.417559 0.000000 0.028474
0.452879 0.000000 0.027240
0.488212 0.000000 0.025997
0.523557 0.000000 0.024746
0.558913 0.000000 0.023486
0.594281 0.000000 0.022219
0.629659 0.000000 0.020945
0.665048 0.000000 0.019663
0.700447 0.000000 0.018376
0.735857 0.000000 0.017082
0.771276 0.000000 0.015782
0.806704 0.000000 0.014476
0.842143 0.000236 0.013165
0.877590 0.000681 0.011849
0.913046 0.001130 0.010529
0.948511 0.001581 0.009203
0.983984 0.002034 0.007873
1.000000 0.002490 0.006539
1.000000 0.002949 0.005201
1.000000 0.003410 0.003859
0.020069 0.001096 0.041232
0.020192 0.001421 0.040167
0.030342 0.001758 0.039077
0.065515 0.002104 0.037965
0.100710 0.002459 0.036834
0.135924 0.002822 0.035686
0.171156 0.003191 0.034523
0.206404 0.003568 0.033345
0.241669 0.003950 0.032155
0.276948 0.004338 0.030952
0.312241 0.004731 0.029739
0.347548 0.005129 0.028515
0.382868 0.005532 0.027282
0.418201 0.005940 0.026039
0.453545 0.006352 0.024788
0.488901 0.006767 0.023529
0.524268 0.007187 0.022262
0.559646 0.007611 0.020987
0.595035 0.008037 0.019706
0.630434 0.008468 0.018419
0.665843 0.008901 0.017125
0.701262 0.009338 0.015825
0.736690 0.009778 0.014520
0.772128 0.010221 0.013209
0.807575 0.010666 0.011893
0.843031 0.011115 0.010573
0.878495 0.011566 0.009247
0.913969 0.012019 0.007918
0.949450 0.012475 0.006584
0.984941 0.012933 0.005246
1.000000 0.013394 0.003904
1.000000 0.013857 0.002558
1.000000 0.014322 0.001209
0.020337 0.036746 0.039114
0.020509 0.037092 0.038002
0.030703 0.037447 0.036872
0.065916 0.037809 0.035724
0.101148 0.038179 0.034562
0.136396 0.038555 0.033385
0.171660 0.038937 0.032195
0.206938 0.039325 0.030993
0.242231 0.039718 0.029780
0.277538 0.040116 0.028556
0.312857 0.040519 0.027323
0.348189 0.040926 0.026081
0.383533 0.041338 0.024830
0.418889 0.041754 0.023571
0.454256 0.042173 0.022304
0.489633 0.042596 0.021030
0.525022 0.043023 0.019749
0.560420 0.043453 0.018462
0.595829 0.043887 0.017168
0.631248 0.044324 0.015869
0.666676 0.044763 0.014563
0.702113 0.045206 0.013253
0.737560 0.045651 0.011937
0.773015 0.046100 0.010617
0.808480 0.046550 0.009292
0.843953 0.047004 0.007962
0.879434 0.047460 0.006628
0.914924 0.047918 0.005290
0.950422 0.048379 0.003949
0.985928 0.048842 0.002603
1.000000 0.049307 0.001255
1.000000 0.049774 0.000000
1.000000 0.050243 0.000000
0.020696 0.072435 0.036910
0.020909 0.072797 0.035763
0.031140 0.073166 0.034601
0.066387 0.073542 0.033424
0.101651 0.073924 0.032234
0.136929 0.074312 0.031033
0.172221 0.074705 0.029820
0.207527 0.075103 0.028597
0.242846 0.075505 0.027364
0.278178 0.075913 0.026122
0.313522 0.076324 0.024871
0.348877 0.076740 0.023613
0.384243 0.077159 0.022346
0.419621 0.077582 0.021073
0.455009 0.078009 0.019792
0.490407 0.078439 0.018505
0.525815 0.078872 0.017211
0.561233 0.079309 0.015912
0.596661 0.079749 0.014607
0.632098 0.080191 0.013297
0.667545 0.080636 0.011981
0.703000 0.081085 0.010661
0.738464 0.081535 0.009336
0.773937 0.081989 0.008007
0.809418 0.082445 0.006673
0.844908 0.082903 0.005335
0.880405 0.083363 0.003994
0.915911 0.083826 0.002648
0.951425 0.084291 0.001300
0.986947 0.084758 0.000000
1.000000 0.085228 0.000000
1.000000 0.085699 0.000000
1.000000 0.086172 0.000000
0.021132 0.108154 0.034640
0.021379 0.108530 0.033463
0.031641 0.108911 0.032274
0.066919 0.109299 0.031073
0.102211 0.109692 0.029861
0.137517 0.110089 0.028638
0.172836 0.110492 0.027405
0.208167 0.110899 0.026164
0.243510 0.111310 0.024913
0.278865 0.111726 0.023655
0.314231 0.112145 0.022389
0.349608 0.112568 0.021115
0.384996 0.112995 0.019835
0.420394 0.113425 0.018548
0.455802 0.113858 0.017255
0.491219 0.114294 0.015955
0.526647 0.114734 0.014651
0.562084 0.115176 0.013340
0.597530 0.115622 0.012025
0.632985 0.116070 0.010705
0.668448 0.116520 0.009380
0.703921 0.116974 0.008051
0.739402 0.117429 0.006717
0.774891 0.117887 0.005380
0.810389 0.118348 0.004038
0.845894 0.118811 0.002693
0.881408 0.119276 0.001345
0.916930 0.119743 0.000000
0.952459 0.120212 0.000000
0.987996 0.120683 0.000000
1.000000 0.121156 0.000000
1.000000 0.121631 0.000000
1.000000 0.122108 0.000000
0.021632 0.143899 0.032314
0.021910 0.144286 0.031113
0.032201 0.144678 0.029901
0.067507 0.145076 0.028679
0.102825 0.145478 0.027447
0.138155 0.145885 0.026205
0.173498 0.146297 0.024955
0.208853 0.146712 0.023697
0.244218 0.147131 0.022431
0.279595 0.147554 0.021158
0.314982 0.147980 0.019877
0.350380 0.148410 0.018591
0.385788 0.148843 0.017298
0.421205 0.149280 0.015999
0.456632 0.149719 0.014694
0.492069 0.150161 0.013384
0.527515 0.150607 0.012069
0.562969 0.151055 0.010749
0.598433 0.151505 0.009424
0.633905 0.151958 0.008095
0.669386 0.152414 0.006762
0.704875 0.152872 0.005424
0.740372 0.153333 0.004083
0.775877 0.153795 0.002738
0.811391 0.154260 0.001390
0.846912 0.154727 0.000038
0.882441 0.155196 0.000000
0.917978 0.155667 0.000000
0.953522 0.156140 0.000000
0.989074 0.156615 0.000000
1.000000 0.157092 0.000000
1.000000 0.157571 0.000000
1.000000 0.158051 0.000000
0.022191 0.179665 0.029942
0.022496 0.180063 0.028720
0.032814 0.180465 0.027488
0.068144 0.180872 0.026247
0.103487 0.181283 0.024997
0.138841 0.181698 0.023739
0.174206 0.182117 0.022473
0.209582 0.182540 0.021200
0.244969 0.182966 0.019920
0.280367 0.183396 0.018634
0.315774 0.183829 0.017341
0.351191 0.184265 0.016042
0.386618 0.184704 0.014738
0.422054 0.185147 0.013428
0.457500 0.185592 0.012113
0.492954 0.186040 0.010793
0.528417 0.186490 0.009469
0.563889 0.186943 0.008140
0.599369 0.187399 0.006806
0.634858 0.187857 0.005469
0.670355 0.188317 0.004128
0.705860 0.188780 0.002783
0.741374 0.189245 0.001435
0.776895 0.189712 0.000083
0.812423 0.190181 0.000000
0.847960 0.190652 0.000000
0.883504 0.191125 0.000000
0.919055 0.191600 0.000000
0.954614 0.192076 0.000000
0.990180 0.192555 0.000000
1.000000 0.193035 0.000000
1.000000 0.193517 0.000000
1.000000 0.194001 0.000000
0.022803 0.215451 0.027529
0.023133 0.215858 0.026288
0.033475 0.216269 0.025039
0.068829 0.216684 0.023781
0.104194 0.217103 0.022516
0.139570 0.217526 0.021243
0.174956 0.217952 0.019963
0.210353 0.218381 0.018677
0.245760 0.218814 0.017384
0.281177 0.219251 0.016086
0.316604 0.219690 0.014781
0.352039 0.220132 0.013472
0.387485 0.220577 0.012157
0.422939 0.221025 0.010837
0.458402 0.221475 0.009513
0.493873 0.221928 0.008184
0.529353 0.222384 0.006851
0.564842 0.222842 0.005514
0.600339 0.223302 0.004173
0.635843 0.223764 0.002828
0.671356 0.224229 0.001480
0.706877 0.224696 0.000128
0.742406 0.225165 0.000000
0.777942 0.225636 0.000000
0.813486 0.226109 0.000000
0.849037 0.226584 0.000000
0.884596 0.227060 0.000000
0.920161 0.227539 0.000000
0.955735 0.228019 0.000000
0.991315 0.228501 0.000000
1.000000 0.228985 0.000000
1.000000 0.229470 0.000000
1.000000 0.229957 0.000000
0.023463 0.251255 0.025080
0.023817 0.251670 0.023823
0.034181 0.252089 0.022558
0.069557 0.252511 0.021285
0.104943 0.252938 0.020006
0.140340 0.253367 0.018720
0.175747 0.253800 0.017427
0.211163 0.254236 0.016129
0.246589 0.254675 0.014825
0.282025 0.255117 0.013515
0.317470 0.255562 0.012201
0.352923 0.256010 0.010881
0.388386 0.256460 0.009557
0.423857 0.256913 0.008228
0.459337 0.257368 0.006895
0.494825 0.257826 0.005558
0.530322 0.258286 0.004217
0.565827 0.258749 0.002873
0.601339 0.259214 0.001525
0.636860 0.259680 0.000173
0.672388 0.260149 0.000000
0.707924 0.260620 0.000000
0.743467 0.261093 0.000000
0.779018 0.261568 0.000000
0.814577 0.262044 0.000000
0.850142 0.262523 0.000000
0.885715 0.263003 0.000000
0.921296 0.263485 0.000000
0.956883 0.263969 0.000000
0.992477 0.264454 0.000000
1.000000 0.264940 0.000000
1.000000 0.265429 0.000000
1.000000 0.265918 0.000000
0.024169 0.287075 0.022600
0.024544 0.287497 0.021328
0.034930 0.287923 0.020049
0.070326 0.288353 0.018763
0.105733 0.288785 0.017470
0.141149 0.289221 0.016172
0.176575 0.289660 0.014868
0.212010 0.290102 0.013559
0.247455 0.290547 0.012245
0.282908 0.290995 0.010925
0.318370 0.291445 0.009601
0.353841 0.291898 0.008273
0.389321 0.292353 0.006940
0.424809 0.292811 0.005603
0.460305 0.293271 0.004262
0.495810 0.293733 0.002918
0.531322 0.294198 0.001570
0.566842 0.294665 0.000218
0.602370 0.295134 0.000000
0.637906 0.295604 0.000000
0.673449 0.296077 0.000000
0.709000 0.296552 0.000000
0.744558 0.297029 0.000000
0.780124 0.297507 0.000000
0.815696 0.297987 0.000000
0.851276 0.298469 0.000000
0.886863 0.298952 0.000000
0.922457 0.299438 0.000000
0.958058 0.299924 0.000000
0.993666 0.300412 0.000000
1.000000 0.300902 0.000000
1.000000 0.301393 0.000000
1.000000 0.301886 0.000000
0.024917 0.322909 0.020091
0.025313 0.323338 0.018806
0.035719 0.323771 0.017514
0.071135 0.324207 0.016216
0.106561 0.324646 0.014912
0.141995 0.325088 0.013603
0.177440 0.325532 0.012289
0.212893 0.325980 0.010969
0.248355 0.326430 0.009646
0.283826 0.326883 0.008317
0.319305 0.327338 0.006984
0.354793 0.327796 0.005648
0.390289 0.328256 0.004307
0.425793 0.328718 0.002962
0.461305 0.329183 0.001615
0.496825 0.329649 0.000263
0.532352 0.330118 0.000000
0.567888 0.330589 0.000000
0.603431 0.331061 0.000000
0.638981 0.331536 0.000000
0.674539 0.332013 0.000000
0.710105 0.332491 0.000000
0.745677 0.332971 0.000000
0.781257 0.333453 0.000000
0.816843 0.333936 0.000000
0.852437 0.334421 0.000000
0.888038 0.334908 0.000000
0.923645 0.335396 0.000000
0.959260 0.335886 0.000000
0.994881 0.336377 0.000000
1.000000 0.336869 0.000000
1.000000 0.337363 0.000000
1.000000 0.337858 0.000000
0.025705 0.358756 0.017557
0.026121 0.359192 0.016259
0.036546 0.359631 0.014956
0.071981 0.360073 0.013647
0.107425 0.360517 0.012333
0.142878 0.360965 0.011013
0.178339 0.361415 0.009690
0.213810 0.361868 0.008361
0.249289 0.362323 0.007029
0.284776 0.362780 0.005692
0.320272 0.363240 0.004352
0.355776 0.363703 0.003007
0.391288 0.364167 0.001660
0.426807 0.364634 0.000308
0.462335 0.365102 0.000000
0.497870 0.365573 0.000000
0.533413 0.366046 0.000000
0.568963 0.366520 0.000000
0.604521 0.366997 0.000000
0.640086 0.367475 0.000000
0.675658 0.367955 0.000000
0.711237 0.368437 0.000000
0.746824 0.368920 0.000000
0.782417 0.369405 0.000000
0.818018 0.369892 0.000000
0.853625 0.370380 0.000000
0.889239 0.370869 0.000000
0.924860 0.371360 0.000000
0.960488 0.371853 0.000000
0.996122 0.372347 0.000000
1.000000 0.372842 0.000000
1.000000 0.373338 0.000000
1.000000 0.373836 0.000000
0.026532 0.394616 0.014999
0.026966 0.395058 0.013690
0.037410 0.395503 0.012376
0.072862 0.395950 0.011058
0.108324 0.396400 0.009734
0.143794 0.396852 0.008406
0.179273 0.397308 0.007073
0.214760 0.397765 0.005737
0.250255 0.398225 0.004396
0.285759 0.398687 0.003052
0.321270 0.399152 0.001705
0.356790 0.399618 0.000353
0.392317 0.400087 0.000000
0.427852 0.400557 0.000000
0.463394 0.401030 0.000000
0.498944 0.401504 0.000000
0.534502 0.401981 0.000000
0.570067 0.402459 0.000000
0.605639 0.402939 0.000000
0.641218 0.403421 0.000000
0.676804 0.403904 0.000000
0.712397 0.404389 0.000000
0.747998 0.404875 0.000000
0.783605 0.405363 0.000000
0.819219 0.405853 0.000000
0.854839 0.406344 0.000000
0.890467 0.406836 0.000000
0.926101 0.407330 0.000000
0.961742 0.407825 0.000000
0.997389 0.408321 0.000000
1.000000 0.408819 0.000000
1.000000 0.409318 0.000000
1.000000 0.409818 0.000000
0.027395 0.430488 0.012420
0.027847 0.430935 0.011102
0.038308 0.431385 0.009778
0.073778 0.431837 0.008450
0.109257 0.432292 0.007118
0.144743 0.432750 0.005781
0.180239 0.433210 0.004441
0.215742 0.433672 0.003097
0.251253 0.434136 0.001749
0.286772 0.434602 0.000398
0.322299 0.435071 0.000000
0.357834 0.435542 0.000000
0.393376 0.436014 0.000000
0.428926 0.436489 0.000000
0.464483 0.436965 0.000000
0.500048 0.437443 0.000000
0.535619 0.437923 0.000000
0.571198 0.438405 0.000000
0.606784 0.438888 0.000000
0.642377 0.439373 0.000000
0.677977 0.439859 0.000000
0.713584 0.440347 0.000000
0.749198 0.440837 0.000000
0.784819 0.441328 0.000000
0.820446 0.441820 0.000000
0.856080 0.442314 0.000000
0.891720 0.442809 0.000000
0.927368 0.443305 0.000000
0.963021 0.443802 0.000000
0.998682 0.444301 0.000000
1.000000 0.444801 0.000000
1.000000 0.445302 0.000000
1.000000 0.445804 0.000000
0.028293 0.466370 0.009822
0.028762 0.466822 0.008494
0.039241 0.467277 0.007162
0.074727 0.467735 0.005826
0.110222 0.468194 0.004486
0.145725 0.468656 0.003142
0.181236 0.469120 0.001794
0.216755 0.469587 0.000444
0.252282 0.470055 0.000000
0.287816 0.470526 0.000000
0.323358 0.470998 0.000000
0.358908 0.471473 0.000000
0.394465 0.471949 0.000000
0.430029 0.472427 0.000000
0.465600 0.472907 0.000000
0.501179 0.473388 0.000000
0.536765 0.473872 0.000000
0.572358 0.474357 0.000000
0.607957 0.474843 0.000000
0.643564 0.475331 0.000000
0.679178 0.475820 0.000000
0.714798 0.476311 0.000000
0.750425 0.476803 0.000000
0.786059 0.477297 0.000000
0.821699 0.477792 0.000000
0.857346 0.478288 0.000000
0.892999 0.478786 0.000000
0.928659 0.479285 0.000000
0.964326 0.479785 0.000000
0.999999 0.480286 0.000000
1.000000 0.480788 0.000000
1.000000 0.481291 0.000000
1.000000 0.481795 0.000000
0.029224 0.502262 0.007207
0.029711 0.502719 0.005871
0.040205 0.503179 0.004531
0.075708 0.503641 0.003187
0.111219 0.504105 0.001839
0.146737 0.504571 0.000489
0.182264 0.505040 0.000000
0.217798 0.505510 0.000000
0.253340 0.505983 0.000000
0.288889 0.506457 0.000000
0.324446 0.506933 0.000000
0.360010 0.507411 0.000000
0.395581 0.507891 0.000000
0.431160 0.508372 0.000000
0.466745 0.508856 0.000000
0.502338 0.509340 0.000000
0.537937 0.509827 0.000000
0.573544 0.510315 0.000000
0.609157 0.510804 0.000000
0.644777 0.511295 0.000000
0.680404 0.511787 0.000000
0.716037 0.512281 0.000000
0.751678 0.512776 0.000000
0.787324 0.513272 0.000000
0.822978 0.513769 0.000000
0.858637 0.514268 0.000000
0.894304 0.514768 0.000000
0.929976 0.515269 0.000000
0.965655 0.515771 0.000000
1.000000 0.516274 0.000000
1.000000 0.516778 0.000000
1.000000 0.517284 0.000000
1.000000 0.517790 0.000000
0.030189 0.538164 0.004575
0.030691 0.538625 0.003232
0.041202 0.539089 0.001884
0.076720 0.539556 0.000534
0.112246 0.540024 0.000000
0.147780 0.540494 0.000000
0.183322 0.540967 0.000000
0.218871 0.541441 0.000000
0.254427 0.541917 0.000000
0.289991 0.542395 0.000000
0.325562 0.542875 0.000000
0.361140 0.543356 0.000000
0.396725 0.543839 0.000000
0.432318 0.544324 0.000000
0.467917 0.544810 0.000000
0.503523 0.545298 0.000000
0.539136 0.545788 0.000000
0.574756 0.546278 0.000000
0.610383 0.546771 0.000000
0.646016 0.547264 0.000000
0.681656 0.547759 0.000000
0.717303 0.548255 0.000000
0.752956 0.548753 0.000000
0.788615 0.549251 0.000000
0.824281 0.549751 0.000000
0.859954 0.550252 0.000000
0.895633 0.550754 0.000000
0.931318 0.551257 0.000000
0.967010 0.551762 0.000000
1.000000 0.552267 0.000000
1.000000 0.552773 0.000000
1.000000 0.553280 0.000000
1.000000 0.553788 0.000000
0.031185 0.574074 0.001929
0.031703 0.574540 0.000579
0.042229 0.575008 0.000000
0.077762 0.575479 0.000000
0.113304 0.575951 0.000000
0.148852 0.576425 0.000000
0.184408 0.576901 0.000000
0.219972 0.577379 0.000000
0.255543 0.577859 0.000000
0.291121 0.578340 0.000000
0.326706 0.578823 0.000000
0.362298 0.579308 0.000000
0.397897 0.579794 0.000000
0.433503 0.580282 0.000000
0.469116 0.580771 0.000000
0.504736 0.581262 0.000000
0.540362 0.581754 0.000000
0.575995 0.582248 0.000000
0.611635 0.582743 0.000000
0.647281 0.583239 0.000000
0.682934 0.583736 0.000000
0.718593 0.584235 0.000000
0.754259 0.584734 0.000000
0.789931 0.585235 0.000000
0.825610 0.585737 0.000000
0.861295 0.586241 0.000000
0.896986 0.586745 0.000000
0.932684 0.587250 0.000000
0.968388 0.587756 0.000000
1.000000 0.588263 0.000000
1.000000 0.588771 0.000000
1.000000 0.589280 0.000000
1.000000 0.589790 0.000000
0.032211 0.609993 0.000000
0.032744 0.610463 0.000000
0.043285 0.610935 0.000000
0.078834 0.611409 0.000000
0.114390 0.611885 0.000000
0.149953 0.612363 0.000000
0.185524 0.612843 0.000000
0.221101 0.613324 0.000000
0.256686 0.613807 0.000000
0.292278 0.614292 0.000000
0.327877 0.614778 0.000000
0.363483 0.615266 0.000000
0.399095 0.615755 0.000000
0.434715 0.616246 0.000000
0.470341 0.616738 0.000000
0.505974 0.617231 0.000000
0.541613 0.617726 0.000000
0.577259 0.618222 0.000000
0.612912 0.618719 0.000000
0.648571 0.619218 0.000000
0.684237 0.619718 0.000000
0.719909 0.620219 0.000000
0.755587 0.620721 0.000000
0.791272 0.621224 0.000000
0.826963 0.621728 0.000000
0.862661 0.622233 0.000000
0.898364 0.622739 0.000000
0.934074 0.623246 0.000000
0.969791 0.623754 0.000000
1.000000 0.624263 0.000000
1.000000 0.624773 0.000000
1.000000 0.625283 0.000000
1.000000 0.625794 0.000000
0.033267 0.645919 0.000000
0.033815 0.646394 0.000000
0.044371 0.646870 0.000000
0.079934 0.647347 0.000000
0.115505 0.647827 0.000000
0.151082 0.648308 0.000000
0.186667 0.648791 0.000000
0.222258 0.649276 0.000000
0.257857 0.649762 0.000000
0.293462 0.650249 0.000000
0.329075 0.650739 0.000000
0.364694 0.651229 0.000000
0.400320 0.651721 0.000000
0.435953 0.652215 0.000000
0.471592 0.652710 0.000000
0.507238 0.653206 0.000000
0.542890 0.653703 0.000000
0.578549 0.654201 0.000000
0.614214 0.654701 0.000000
0.649886 0.655202 0.000000
0.685564 0.655704 0.000000
0.721249 0.656207 0.000000
0.756940 0.656711 0.000000
0.792637 0.657216 0.000000
0.828341 0.657722 0.000000
0.864051 0.658229 0.000000
0.899767 0.658737 0.000000
0.935489 0.659246 0.000000
0.971218 0.659756 0.000000
1.000000 0.660266 0.000000
1.000000 0.660777 0.000000
1.000000 0.661289 0.000000
1.000000 0.661802 0.000000
0.034353 0.681854 0.000000
0.034915 0.682331 0.000000
0.045485 0.682811 0.000000
0.081063 0.683292 0.000000
0.116647 0.683775 0.000000
0.152238 0.684259 0.000000
0.187837 0.684746 0.000000
0.223442 0.685233 0.000000
0.259054 0.685722 0.000000
0.294673 0.686213 0.000000
0.330299 0.686705 0.000000
0.365931 0.687198 0.000000
0.401570 0.687693 0.000000
0.437216 0.688189 0.000000
0.472868 0.688686 0.000000
0.508527 0.689185 0.000000
0.544192 0.689684 0.000000
0.579864 0.690185 0.000000
0.615542 0.690687 0.000000
0.651226 0.691190 0.000000
0.686917 0.691694 0.000000
0.722614 0.692199 0.000000
0.758317 0.692705 0.000000
0.794027 0.693212 0.000000
0.829743 0.693720 0.000000
0.865465 0.694229 0.000000
0.901193 0.694739 0.000000
0.936928 0.695249 0.000000
0.972668 0.695760 0.000000
1.000000 0.696272 0.000000
1.000000 0.696785 0.000000
1.000000 0.697298 0.000000
1.000000 0.697812 0.000000
0.035466 0.717795 0.000000
0.036043 0.718276 0.000000
0.046627 0.718759 0.000000
0.082219 0.719243 0.000000
0.117817 0.719729 0.000000
0.153422 0.720217 0.000000
0.189034 0.720706 0.000000
0.224652 0.721197 0.000000
0.260278 0.721688 0.000000
0.295910 0.722182 0.000000
0.331549 0.722676 0.000000
0.367194 0.723172 0.000000
0.402846 0.723670 0.000000
0.438505 0.724168 0.000000
0.474170 0.724668 0.000000
0.509841 0.725169 0.000000
0.545519 0.725670 0.000000
0.581203 0.726173 0.000000
0.616894 0.726677 0.000000
0.652591 0.727182 0.000000
0.688294 0.727689 0.000000
0.724003 0.728195 0.000000
0.759719 0.728703 0.000000
0.795441 0.729212 0.000000
0.831169 0.729722 0.000000
0.866903 0.730232 0.000000
0.902644 0.730743 0.000000
0.938390 0.731255 0.000000
0.974143 0.731768 0.000000
1.000000 0.732281 0.000000
1.000000 0.732795 0.000000
1.000000 0.733310 0.000000
1.000000 0.733825 0.000000
0.036608 0.753743 0.000000
0.037199 0.754227 0.000000
0.047797 0.754713 0.000000
0.083402 0.755201 0.000000
0.119013 0.755690 0.000000
0.154632 0.756180 0.000000
0.190257 0.756672 0.000000
0.225889 0.757165 0.000000
0.261528 0.757660 0.000000
0.297173 0.758156 0.000000
0.332825 0.758653 0.000000
0.368483 0.759151 0.000000
0.404148 0.759651 0.000000
0.439819 0.760152 0.000000
0.475496 0.760654 0.000000
0.511180 0.761157 0.000000
0.546871 0.761661 0.000000
0.582567 0.762166 0.000000
0.618270 0.762672 0.000000
0.653979 0.763179 0.000000
0.689695 0.763686 0.000000
0.725417 0.764195 0.000000
0.761144 0.764705 0.000000
0.796879 0.765215 0.000000
0.832619 0.765726 0.000000
0.868365 0.766238 0.000000
0.904118 0.766751 0.000000
0.939877 0.767264 0.000000
0.975641 0.767778 0.000000
1.000000 0.768292 0.000000
1.000000 0.768807 0.000000
1.000000 0.769323 0.000000
1.000000 0.769839 0.000000
0.037777 0.789697 0.000000
0.038381 0.790184 0.000000
0.048993 0.790673 0.000000
0.084611 0.791164 0.000000
0.120236 0.791656 0.000000
0.155868 0.792149 0.000000
0.191506 0.792643 0.000000
0.227151 0.793139 0.000000
0.262803 0.793636 0.000000
0.298461 0.794135 0.000000
0.334125 0.794634 0.000000
0.369796 0.795135 0.000000
0.405474 0.795637 0.000000
0.441157 0.796140 0.000000
0.476848 0.796644 0.000000
0.512544 0.797149 0.000000
0.548247 0.797655 0.000000
0.583956 0.798162 0.000000
0.619671 0.798669 0.000000
0.655392 0.799178 0.000000
0.691120 0.799688 0.000000
0.726854 0.800198 0.000000
0.762594 0.800709 0.000000
0.798340 0.801221 0.000000
0.834093 0.801734 0.000000
0.869851 0.802247 0.000000
0.905616 0.802761 0.000000
0.941387 0.803275 0.000000
0.977164 0.803790 0.000000
1.000000 0.804306 0.000000
1.000000 0.804822 0.000000
1.000000 0.805339 0.000000
1.000000 0.805856 0.000000
0.038972 0.825657 0.000000
0.039590 0.826147 0.000000
0.050215 0.826639 0.000000
0.085847 0.827132 0.000000
0.121485 0.827627 0.000000
0.157130 0.828123 0.000000
0.192781 0.828620 0.000000
0.228439 0.829118 0.000000
0.264103 0.829618 0.000000
0.299774 0.830118 0.000000
0.335451 0.830620 0.000000
0.371135 0.831123 0.000000
0.406824 0.831627 0.000000
0.442521 0.832132 0.000000
0.478223 0.832638 0.000000
0.513932 0.833145 0.000000
0.549647 0.833653 0.000000
0.585368 0.834161 0.000000
0.621096 0.834671 0.000000
0.656829 0.835181 0.000000
0.692569 0.835692 0.000000
0.728315 0.836204 0.000000
0.764067 0.836716 0.000000
0.799826 0.837230 0.000000
0.835590 0.837744 0.000000
0.871361 0.838258 0.000000
0.907138 0.838773 0.000000
0.942921 0.839289 0.000000
0.978710 0.839805 0.000000
1.000000 0.840321 0.000000
1.000000 0.840838 0.000000
1.000000 0.841356 0.000000
1.000000 0.841873 0.000000
0.040194 0.861623 0.000000
0.040825 0.862116 0.000000
0.051463 0.862610 0.000000
0.087108 0.863106 0.000000
0.122759 0.863603 0.000000
0.158417 0.864102 0.000000
0.194081 0.864601 0.000000
0.229751 0.865102 0.000000
