assets/luts/sahara-gold.cube
# Sahara Gold — Aperture X
#
# Wuestenlicht der spaeten Nachmittagsstunde: warme, sandfarbene
# Lichter mit deutlich gedaempftem Blau, Schatten mit leichtem
# Violettstich, angehobener Mittenkontrast statt flacher Kurve.
#
# Original erstellt fuer Aperture X (Phase 28, siehe DECISIONS.md
# ADR-0058) — kein fremdes Werk enthalten, frei verwendbar. Erzeugt
# aus derselben Formel wie der eingebaute Filter gleichen Namens;
# `builtin_lut_matches_shipped_cube_files` in builtin_luts.rs prueft
# beide real gegeneinander.
TITLE "Sahara Gold"
LUT_3D_SIZE 5
DOMAIN_MIN 0.0 0.0 0.0
DOMAIN_MAX 1.0 1.0 1.0
0.020000 0.000000 0.045000
0.240724 0.000000 0.036758
0.522890 0.000000 0.027199
0.805870 0.000000 0.017038
1.000000 0.002506 0.006495
0.022803 0.215451 0.027529
0.245760 0.218814 0.017384
0.529353 0.222384 0.006851
0.813486 0.226109 0.000000
1.000000 0.229957 0.000000
0.029224 0.502262 0.007207
0.253340 0.505983 0.000000
0.537937 0.509827 0.000000
0.822978 0.513769 0.000000
1.000000 0.517790 0.000000
0.037777 0.789697 0.000000
0.262803 0.793636 0.000000
0.548247 0.797655 0.000000
0.834093 0.801734 0.000000
1.000000 0.805856 0.000000
0.048059 1.000000 0.000000
0.273891 1.000000 0.000000
0.560119 1.000000 0.000000
0.846743 1.000000 0.000000
1.000000 1.000000 0.000000
0.019976 0.000000 0.262268
0.241404 0.000000 0.253345
0.523901 0.000000 0.243529
0.807128 0.000221 0.233209
1.000000 0.003857 0.222558
0.023805 0.216656 0.243865
0.247010 0.220102 0.233559
0.530810 0.223733 0.222918
0.815124 0.227507 0.212047
1.000000 0.231393 0.201025
0.030674 0.503610 0.223277
0.254972 0.507379 0.212412
0.539736 0.511262 0.201394
0.824931 0.515235 0.190284
1.000000 0.519280 0.179139
0.039570 0.791131 0.201763
0.264751 0.795102 0.190655
0.550344 0.799144 0.179510
0.836335 0.803241 0.168382
1.000000 0.807374 0.157330
0.050151 1.000000 0.179882
0.276129 1.000000 0.168752
0.562501 1.000000 0.157697
0.849274 1.000000 0.146786
1.000000 1.000000 0.136126
0.020331 0.000000 0.539150
0.242221 0.000000 0.529820
0.525009 0.000000 0.519792
0.808464 0.001535 0.509336
1.000000 0.005228 0.498592
0.024904 0.217895 0.520134
0.248339 0.221415 0.509690
0.532335 0.225102 0.498954
0.816824 0.228920 0.488020
1.000000 0.232842 0.476958
0.032193 0.504977 0.499315
0.256667 0.508791 0.488387
0.541592 0.512710 0.477328
0.826940 0.516711 0.466199
1.000000 0.520777 0.455054
0.041421 0.792577 0.477698
0.266755 0.796577 0.466570
0.552495 0.800641 0.455425
0.838630 0.804753 0.444318
1.000000 0.808895 0.433310
0.052297 1.000000 0.455796
0.278420 1.000000 0.444687
0.564937 1.000000 0.433675
0.851862 1.000000 0.422841
1.000000 1.000000 0.412316
0.020894 0.000000 0.815840
0.243155 0.000000 0.806205
0.526205 0.000000 0.795999
0.809875 0.002872 0.785424
1.000000 0.006615 0.774600
0.026093 0.219163 0.796346
0.249743 0.222750 0.785781
0.533926 0.226489 0.774964
0.818584 0.230347 0.763975
1.000000 0.234301 0.752882
0.033779 0.506362 0.775327
0.258422 0.510217 0.764344
0.543505 0.514168 0.753252
0.829003 0.518195 0.742111
1.000000 0.522281 0.730974
0.043329 0.794035 0.753623
0.268813 0.798060 0.742483
0.554699 0.802144 0.731345
0.840979 0.806269 0.720266
1.000000 0.810417 0.709314
0.054496 1.000000 0.731716
0.280763 1.000000 0.720634
0.567428 1.000000 0.709677
0.854509 1.000000 0.698936
1.000000 1.000000 0.688587
0.021615 0.000000 1.000000
0.244194 0.000000 1.000000
0.527485 0.000577 1.000000
0.811356 0.004229 1.000000
1.000000 0.008019 0.990585
0.027365 0.220458 1.000000
0.251219 0.224105 1.000000
0.535581 0.227891 0.990951
0.820404 0.231787 0.979917
1.000000 0.235771 0.968799
0.035428 0.507763 0.991316
0.260236 0.511656 0.980286
0.545474 0.515637 0.969170
0.831120 0.519688 0.958024
1.000000 0.523790 0.946903
0.045292 0.795503 0.969542
0.270925 0.799552 0.958396
0.556956 0.803653 0.947273
0.843381 0.807789 0.936232
1.000000 0.811939 0.925348
0.056748 1.000000 0.947642
0.283160 1.000000 0.936598
0.569974 1.000000 0.925707
0.857218 1.000000 0.915081
1.000000 1.000000 0.905000
