assets/luts/tokyo-neon-night.cube
# Tokyo Neon Night — Aperture X
#
# Nachtstadt mit Leuchtreklame: tiefes, ins Blaugruene gezogenes
# Schwarz, Magenta-Cyan-Teilung (Schatten nach Cyan, Lichter nach
# Magenta) und gesaettigte Spitzlichter, damit Neon leuchtet statt
# auszubleichen.
#
# Original erstellt fuer Aperture X (Phase 28, siehe DECISIONS.md
# ADR-0058) — kein fremdes Werk enthalten, frei verwendbar. Erzeugt
# aus derselben Formel wie der eingebaute Filter gleichen Namens;
# `builtin_lut_matches_shipped_cube_files` in builtin_luts.rs prueft
# beide real gegeneinander.
TITLE "Tokyo Neon Night"
LUT_3D_SIZE 9
DOMAIN_MIN 0.0 0.0 0.0
DOMAIN_MAX 1.0 1.0 1.0
0.000000 0.000000 0.060000
0.088188 0.000000 0.053365
0.229948 0.000000 0.043082
0.380166 0.000000 0.029063
0.538798 0.000000 0.011273
0.705819 0.000000 0.000000
0.881210 0.000000 0.000000
1.000000 0.000000 0.000000
1.000000 0.000000 0.000000
0.000000 0.090683 0.049459
0.094602 0.091474 0.043760
0.231357 0.092003 0.035332
0.377542 0.089158 0.021031
0.532100 0.081907 0.002921
0.695016 0.070257 0.000000
0.866282 0.054213 0.000000
1.000000 0.033781 0.000000
1.000000 0.008966 0.000000
0.000000 0.233587 0.036475
0.101349 0.228667 0.032578
0.239239 0.229757 0.022790
0.381321 0.228531 0.011267
0.527587 0.224994 0.000000
0.686361 0.218112 0.000000
0.853472 0.206845 0.000000
1.000000 0.191200 0.000000
1.000000 0.171180 0.000000
0.000000 0.383856 0.020784
0.105127 0.374304 0.016541
0.245142 0.370775 0.009510
0.388291 0.370150 0.000000
0.535610 0.367224 0.000000
0.687094 0.362003 0.000000
0.842739 0.354490 0.000000
1.000000 0.343647 0.000000
1.000000 0.328438 0.000000
0.000000 0.541556 0.002274
0.104804 0.527397 0.000000
0.248998 0.515103 0.000000
0.393191 0.515097 0.000000
0.541544 0.512799 0.000000
0.694056 0.508213 0.000000
0.850724 0.501344 0.000000
1.000000 0.492194 0.000000
1.000000 0.480767 0.000000
0.000000 0.706732 0.000000
0.100329 0.687983 0.000000
0.249724 0.671108 0.000000
0.395987 0.663404 0.000000
0.545363 0.661749 0.000000
0.698893 0.657814 0.000000
0.856577 0.651603 0.000000
1.000000 0.643118 0.000000
1.000000 0.632365 0.000000
0.000000 0.879417 0.000000
0.091667 0.856095 0.000000
0.246252 0.834655 0.000000
0.396658 0.815101 0.000000
0.547050 0.814104 0.000000
0.701594 0.810835 0.000000
0.860289 0.805296 0.000000
1.000000 0.797492 0.000000
1.000000 0.787428 0.000000
0.000000 1.000000 0.000000
0.078797 1.000000 0.000000
0.238565 1.000000 0.000000
0.394151 0.981676 0.000000
0.546597 0.969893 0.000000
0.702153 0.967304 0.000000
0.861861 0.962453 0.000000
1.000000 0.955347 0.000000
1.000000 0.945988 0.000000
0.000000 1.000000 0.000000
0.061708 1.000000 0.000000
0.226655 1.000000 0.000000
0.387419 1.000000 0.000000
0.544003 1.000000 0.000000
0.700574 1.000000 0.000000
0.861299 1.000000 0.000000
1.000000 1.000000 0.000000
1.000000 1.000000 0.000000
0.000000 0.000000 0.143774
0.087648 0.000000 0.140918
0.224253 0.000000 0.138368
0.370337 0.000000 0.132944
0.524825 0.000000 0.123579
0.687695 0.000000 0.110254
0.858931 0.000000 0.092958
1.000000 0.000000 0.071679
1.000000 0.000000 0.046410
0.000000 0.089685 0.140462
0.094147 0.090378 0.138156
0.227800 0.090815 0.136075
0.369835 0.086839 0.130036
0.520236 0.078460 0.120024
0.678993 0.065685 0.106031
0.846096 0.048517 0.088048
1.000000 0.026964 0.066068
1.000000 0.001029 0.040085
0.000000 0.227193 0.138155
0.100933 0.224267 0.136275
0.234667 0.224230 0.134591
0.371548 0.223961 0.129967
0.517818 0.220343 0.119269
0.672427 0.212339 0.104576
0.835371 0.199953 0.085879
1.000000 0.183189 0.063176
1.000000 0.162052 0.036460
0.000000 0.373123 0.133533
0.103686 0.365571 0.130986
0.241622 0.359877 0.130700
0.379565 0.360213 0.124334
0.521676 0.358251 0.116049
0.667950 0.353994 0.105840
0.826717 0.346406 0.086411
0.993808 0.334448 0.062966
1.000000 0.318124 0.035500
0.000000 0.526494 0.125463
0.102328 0.514338 0.122217
0.245480 0.504049 0.121218
0.385504 0.499799 0.117254
0.528647 0.498468 0.107195
0.675947 0.494849 0.095203
0.827402 0.488949 0.081275
0.983010 0.480769 0.065406
1.000000 0.469273 0.037178
0.000000 0.687347 0.113888
0.096809 0.670604 0.109918
0.245160 0.655737 0.108187
0.389336 0.642751 0.108691
0.533499 0.642065 0.096841
0.681816 0.639101 0.083051
0.834286 0.633861 0.067318
0.990907 0.626350 0.049638
1.000000 0.616571 0.030009
0.000000 0.855716 0.098764
0.087099 0.834402 0.094053
0.240639 0.814973 0.091574
0.389998 0.797432 0.091321
0.536218 0.789073 0.084958
0.685548 0.786777 0.069357
0.839030 0.782212 0.051807
0.996663 0.775385 0.032305
1.000000 0.766298 0.010846
0.000000 1.000000 0.080057
0.073179 1.000000 0.074591
0.231900 0.981785 0.071349
0.386439 0.959703 0.070327
0.536796 0.939520 0.071522
0.687138 0.937907 0.054098
0.841633 0.934034 0.034719
1.000000 0.927907 0.013382
1.000000 0.919530 0.000000
0.000000 1.000000 0.057739
0.055037 1.000000 0.051504
0.218937 1.000000 0.047487
0.378655 1.000000 0.045684
0.534192 1.000000 0.046093
0.686591 1.000000 0.037251
0.842104 1.000000 0.016032
1.000000 1.000000 0.000000
1.000000 1.000000 0.000000
0.000000 0.000000 0.280949
0.087131 0.000000 0.273007
0.224821 0.000000 0.271595
0.366768 0.000000 0.268340
0.512942 0.000000 0.263219
0.671659 0.000000 0.255175
0.838737 0.000000 0.243155
1.000000 0.000000 0.227150
1.000000 0.000000 0.207152
0.000000 0.088650 0.272645
0.093702 0.089248 0.267299
0.227375 0.089593 0.265296
0.364215 0.086572 0.263496
0.510459 0.077066 0.258761
0.665055 0.063166 0.250042
0.827994 0.044876 0.237330
0.999271 0.022202 0.220619
1.000000 0.000000 0.199904
0.000000 0.227016 0.271540
0.100521 0.222961 0.265566
0.234264 0.222838 0.263951
0.368026 0.222487 0.262517
0.510132 0.217746 0.257091
0.660576 0.208621 0.247667
0.819352 0.195115 0.234238
0.986457 0.177234 0.216800
1.000000 0.154980 0.195348
0.000000 0.368610 0.269141
0.104331 0.358891 0.264576
0.241229 0.355199 0.263311
0.375006 0.354414 0.262214
0.511907 0.353416 0.258155
0.658179 0.349083 0.248004
0.812777 0.340378 0.233839
0.975697 0.327305 0.215656
1.000000 0.309867 0.193452
0.000000 0.513486 0.265364
0.101935 0.503333 0.261137
0.244045 0.495050 0.259156
0.381984 0.488640 0.259416
0.519915 0.488275 0.253579
0.662003 0.485626 0.245808
0.808245 0.480694 0.236100
0.966973 0.472444 0.217158
1.000000 0.459837 0.194188
0.000000 0.670017 0.259115
0.095372 0.655281 0.254162
0.242679 0.642423 0.251445
0.385808 0.631446 0.250961
0.525801 0.626522 0.247497
0.668904 0.624528 0.237926
0.816160 0.620260 0.226410
0.967567 0.613723 0.212946
1.000000 0.604919 0.197532
0.000000 0.834070 0.249311
0.084614 0.814767 0.243613
0.237107 0.797349 0.240145
0.385419 0.781820 0.238902
0.529550 0.768183 0.239882
0.673667 0.766860 0.228497
0.821934 0.763271 0.215162
0.974354 0.757420 0.199873
1.000000 0.749312 0.182628
0.000000 1.000000 0.235918
0.069642 0.981819 0.229462
0.227316 0.959856 0.225229
0.380807 0.939789 0.223215
0.530117 0.921623 0.223417
0.676288 0.912653 0.217499
0.825569 0.909758 0.202333
0.979006 0.904611 0.185207
1.000000 0.897216 0.166120
0.000000 1.000000 0.218910
0.050448 1.000000 0.211683
0.213300 1.000000 0.206672
0.371971 1.000000 0.203875
0.526462 1.000000 0.203288
0.676773 1.000000 0.204908
0.827075 1.000000 0.187900
0.981536 1.000000 0.168926
1.000000 1.000000 0.147984
0.000000 0.000000 0.426507
0.083507 0.000000 0.414508
0.223318 0.000000 0.409020
0.366331 0.000000 0.406889
0.513565 0.000000 0.402885
0.665001 0.000000 0.396996
0.820629 0.000000 0.389210
0.991896 0.000000 0.378478
1.000000 0.000000 0.363751
0.000000 0.084455 0.414234
0.089098 0.083917 0.404804
0.226955 0.085215 0.397668
0.364849 0.080023 0.396981
0.506934 0.072516 0.394398
0.653201 0.062700 0.389910
0.811976 0.043288 0.382468
0.979087 0.019494 0.371026
1.000000 0.000000 0.355577
0.000000 0.224724 0.409118
0.096988 0.221624 0.398008
0.233864 0.221416 0.393335
0.367631 0.220983 0.391966
0.504531 0.217203 0.390769
0.650808 0.206957 0.386613
0.805417 0.192333 0.378451
0.968353 0.173334 0.366278
1.000000 0.149964 0.350090
0.000000 0.367191 0.407898
0.098727 0.358431 0.398190
0.240835 0.353617 0.392820
0.374613 0.352753 0.391784
0.508388 0.351678 0.390908
0.650491 0.346227 0.386021
0.800918 0.336406 0.377120
0.959668 0.322218 0.364199
1.000000 0.303667 0.347256
0.000000 0.512948 0.405288
0.098417 0.498550 0.396955
0.244693 0.488106 0.392949
0.381588 0.483704 0.392224
0.515349 0.482223 0.391650
0.652223 0.480542 0.388100
0.798460 0.475539 0.378444
0.953017 0.466177 0.364761
1.000000 0.452459 0.347050
0.000000 0.662034 0.401239
0.096018 0.642014 0.394259
0.242279 0.631164 0.390556
0.384362 0.622198 0.389084
0.522267 0.615118 0.389839
0.660157 0.614096 0.384486
0.802199 0.610801 0.377187
0.948392 0.605238 0.367939
1.000000 0.596369 0.349448
0.000000 0.814481 0.395712
0.084210 0.797188 0.389026
0.235656 0.781781 0.384569
0.382922 0.768265 0.382336
0.526006 0.756643 0.382324
0.665950 0.751086 0.379322
0.809004 0.748473 0.370201
0.956210 0.743599 0.359126
1.000000 0.736470 0.346093
0.000000 0.981777 0.387632
0.068187 0.959934 0.380186
0.224813 0.939985 0.374961
0.377257 0.921934 0.371954
0.525520 0.905785 0.371163
0.669602 0.891542 0.372583
0.813671 0.889627 0.361630
0.961895 0.885460 0.348716
1.000000 0.879048 0.333838
0.000000 1.000000 0.375932
0.047940 1.000000 0.367712
0.209745 1.000000 0.361708
0.367369 1.000000 0.357916
0.520813 1.000000 0.356333
0.670079 1.000000 0.356957
0.816211 1.000000 0.351450
0.965463 1.000000 0.336686
1.000000 1.000000 0.319951
0.000000 0.000000 0.580442
0.075732 0.000000 0.564377
0.219742 0.000000 0.550644
0.363819 0.000000 0.549633
0.512109 0.000000 0.546745
0.664597 0.000000 0.541967
0.821273 0.000000 0.535290
0.982127 0.000000 0.526705
1.000000 0.000000 0.516205
0.000000 0.076058 0.564188
0.080335 0.074386 0.550671
0.223415 0.074554 0.539443
0.363403 0.071360 0.534658
0.506536 0.061686 0.533183
0.653849 0.049705 0.529801
0.805333 0.035422 0.524504
0.960985 0.018841 0.517288
1.000000 0.000000 0.507105
0.000000 0.220316 0.550890
0.087208 0.217130 0.539850
0.229299 0.215797 0.531077
0.367237 0.216323 0.524563
0.505180 0.210381 0.524470
0.647290 0.202140 0.522456
0.793563 0.191605 0.518518
0.952330 0.171490 0.511609
1.000000 0.147005 0.500684
0.000000 0.363658 0.550845
0.091041 0.355858 0.535993
0.237318 0.352006 0.525477
0.374220 0.351064 0.521375
0.507993 0.349911 0.520557
0.644885 0.345427 0.519893
0.791142 0.334491 0.516254
0.945720 0.319189 0.508595
1.000000 0.299525 0.496912
0.000000 0.510297 0.549401
0.088649 0.496863 0.535919
0.239090 0.487384 0.526762
0.381190 0.481865 0.521926
0.514947 0.480310 0.521408
0.648692 0.478556 0.521036
0.790758 0.472441 0.516640
0.941142 0.461967 0.508217
1.000000 0.447140 0.495763
0.000000 0.660272 0.546509
0.084162 0.641219 0.534377
0.238753 0.626129 0.526562
0.384998 0.615007 0.523060
0.521856 0.609939 0.522826
0.655574 0.607806 0.522731
0.792402 0.605484 0.519649
0.938590 0.599854 0.510449
1.000000 0.589878 0.497214
0.000000 0.813614 0.542132
0.077554 0.788957 0.531334
0.236287 0.768271 0.524845
0.382506 0.756769 0.521621
0.524543 0.747162 0.520617
0.662398 0.739454 0.521830
0.800238 0.737817 0.516924
0.942231 0.733921 0.510062
1.000000 0.727772 0.501241
0.000000 0.970353 0.536240
0.068812 0.940106 0.526761
0.224392 0.922172 0.520544
0.375789 0.906138 0.516545
0.523005 0.892007 0.514759
0.666040 0.879783 0.515184
0.805938 0.873639 0.512609
0.948950 0.870454 0.503906
1.000000 0.865025 0.493239
0.000000 1.000000 0.528805
0.047513 1.000000 0.519593
0.208271 1.000000 0.512594
0.364849 1.000000 0.507807
0.517247 1.000000 0.505228
0.665468 1.000000 0.504854
0.809514 1.000000 0.506683
0.953556 1.000000 0.496127
1.000000 1.000000 0.483599
0.000000 0.000000 0.742750
0.063804 0.000000 0.722613
0.213050 0.000000 0.704797
0.359229 0.000000 0.696572
0.508574 0.000000 0.694798
0.662112 0.000000 0.691130
0.819835 0.000000 0.685559
0.981734 0.000000 0.678079
1.000000 0.000000 0.668681
0.000000 0.063460 0.722505
0.067411 0.060656 0.704899
0.215713 0.059694 0.689576
0.359876 0.060582 0.676527
0.504057 0.048743 0.676159
0.652413 0.034597 0.673881
0.804941 0.018152 0.669686
0.961633 0.000000 0.663571
1.000000 0.000000 0.655528
0.000000 0.212751 0.705188
0.073265 0.208438 0.690049
0.220570 0.205981 0.677175
0.363718 0.205385 0.666558
0.503745 0.201446 0.662358
0.646897 0.191045 0.661445
0.794209 0.178351 0.658606
0.945680 0.163369 0.653836
1.000000 0.146102 0.647132
0.000000 0.358011 0.697983
0.081273 0.351172 0.677986
0.227550 0.347241 0.667530
0.369660 0.345179 0.659321
0.507598 0.344992 0.653351
0.645527 0.338350 0.653785
0.787613 0.329424 0.652283
0.933854 0.318217 0.648844
1.000000 0.297441 0.642421
0.000000 0.505535 0.697703
0.076798 0.493064 0.679071
0.231403 0.484551 0.664763
0.377666 0.479999 0.654775
0.514544 0.478370 0.651185
0.648285 0.476545 0.650866
0.785136 0.471400 0.650688
0.931349 0.459816 0.647524
1.000000 0.443879 0.640328
0.000000 0.656400 0.695967
0.070221 0.638313 0.678682
0.228975 0.624192 0.665712
0.379382 0.614039 0.657055
0.521443 0.607860 0.652706
0.655156 0.605656 0.652662
0.788853 0.603267 0.652753
0.930869 0.596529 0.648811
1.000000 0.585446 0.640831
0.000000 0.810638 0.692739
0.061522 0.786950 0.676785
0.224416 0.767235 0.665140
0.378963 0.751497 0.657800
0.525161 0.739739 0.654762
0.661969 0.734048 0.654982
0.795637 0.731305 0.655331
0.932417 0.728387 0.652681
1.000000 0.722176 0.643905
0.000000 0.968277 0.687991
0.050686 0.939004 0.673355
0.217718 0.913710 0.663021
0.376402 0.892401 0.656986
0.522571 0.880288 0.654206
0.664559 0.870085 0.653636
0.802370 0.861796 0.655272
0.940170 0.859593 0.650780
1.000000 0.855149 0.644322
0.000000 1.000000 0.681696
0.037710 1.000000 0.668366
0.208879 1.000000 0.659331
0.364410 1.000000 0.653548
0.515762 1.000000 0.649973
0.662938 1.000000 0.648601
0.805941 1.000000 0.649431
0.945816 0.994355 0.647250
1.000000 0.990665 0.638929
0.000000 0.000000 0.913427
0.047720 0.000000 0.889214
0.202198 0.000000 0.867313
0.352561 0.000000 0.847704
0.502959 0.000000 0.847043
0.657547 0.000000 0.844484
0.816315 0.000000 0.840019
0.979258 0.000000 0.833642
1.000000 0.000000 0.825346
0.000000 0.046662 0.889185
0.050326 0.042727 0.867487
0.203848 0.040637 0.848069
0.353227 0.040399 0.830920
0.499495 0.033686 0.823325
0.648896 0.017377 0.822150
0.802465 0.000000 0.819057
0.960197 0.000000 0.814041
1.000000 0.000000 0.807097
0.000000 0.200988 0.867845
0.055157 0.195550 0.848607
0.207675 0.191969 0.831631
0.356034 0.190250 0.816909
0.500228 0.190400 0.804436
0.644419 0.177838 0.804623
0.792771 0.162985 0.802881
0.945280 0.145845 0.799208
1.000000 0.126423 0.793599
0.000000 0.350251 0.849312
0.062130 0.343332 0.832501
0.213616 0.338280 0.817939
0.360932 0.335100 0.805621
0.504076 0.333796 0.795541
0.644085 0.329163 0.791863
0.787209 0.318080 0.791457
0.934485 0.304718 0.789111
1.000000 0.289081 0.784823
0.000000 0.498660 0.850193
0.062862 0.487154 0.826411
0.221631 0.479607 0.806951
0.367891 0.474980 0.797018
0.509973 0.472238 0.789315
0.647875 0.471382 0.783840
0.785763 0.464084 0.784755
0.927803 0.454515 0.783724
1.000000 0.442677 0.780744
0.000000 0.650417 0.849611
0.054196 0.633298 0.827173
0.217112 0.620145 0.809049
0.371681 0.610962 0.795235
0.517903 0.605754 0.785729
0.654735 0.603482 0.782610
0.788427 0.601026 0.782751
0.925229 0.595264 0.783022
1.000000 0.583075 0.780297
0.000000 0.805552 0.847533
0.043404 0.782834 0.826423
0.210460 0.764091 0.809620
0.369168 0.749325 0.797122
0.519527 0.738541 0.788924
0.661538 0.731743 0.785025
0.795201 0.728936 0.785421
0.928851 0.725956 0.785942
1.000000 0.718642 0.782419
0.000000 0.964093 0.843928
0.030475 0.935792 0.824133
0.201668 0.911473 0.808640
0.364512 0.891139 0.797445
0.519010 0.874796 0.790545
0.665160 0.862447 0.787937
0.801925 0.856180 0.788577
0.935556 0.852877 0.789336
1.000000 0.849419 0.787087
0.000000 1.000000 0.838772
0.015404 1.000000 0.820281
0.190735 1.000000 0.806085
0.357720 1.000000 0.796181
0.516360 1.000000 0.790567
0.662491 1.000000 0.788198
0.804450 0.991133 0.788028
0.942243 0.982324 0.790054
1.000000 0.979626 0.785939
0.000000 0.000000 1.000000
0.027480 0.000000 1.000000
0.187188 0.000000 1.000000
0.342773 0.000000 1.000000
0.495264 0.000000 1.000000
0.650899 0.000000 1.000000
0.810713 0.000000 0.998668
0.974698 0.000000 0.993394
1.000000 0.000000 0.986199
0.000000 0.025664 1.000000
0.029079 0.020599 1.000000
0.187819 0.017382 1.000000
0.342413 0.016019 0.993670
0.492851 0.016516 0.974680
0.643295 0.000000 0.974608
0.797905 0.000000 0.972617
0.956677 0.000000 0.968699
1.000000 0.000000 0.962852
0.000000 0.185028 1.000000
0.032884 0.178464 1.000000
0.190614 0.173760 0.994442
0.344182 0.170920 0.975615
0.493584 0.169950 0.959035
0.639857 0.162520 0.951987
0.789247 0.145509 0.951344
0.942794 0.126212 0.948766
1.000000 0.104634 0.944251
0.000000 0.339337 1.000000
0.038820 0.331296 0.995372
0.195514 0.325125 0.976703
0.348037 0.320826 0.960275
0.496386 0.318405 0.946085
0.640558 0.317865 0.934128
0.784719 0.304627 0.934816
0.933032 0.289111 0.933564
1.000000 0.271320 0.930368
0.000000 0.489674 1.000000
0.046842 0.479133 0.977938
0.202483 0.471510 0.961660
0.353947 0.465769 0.947614
0.501233 0.461912 0.935798
0.644338 0.459944 0.926208
0.784305 0.454660 0.923007
0.927381 0.442938 0.923067
1.000000 0.428951 0.921177
0.000000 0.642323 1.000000
0.036086 0.626171 0.979851
0.203164 0.613988 0.956571
0.361895 0.605776 0.937602
0.508111 0.600498 0.928146
0.650146 0.597117 0.920910
0.787999 0.595635 0.915891
0.925838 0.587724 0.917252
1.000000 0.577556 0.916656
0.000000 0.798356 1.000000
0.023201 0.776609 0.980246
0.194418 0.758837 0.958286
0.357287 0.745045 0.940628
0.511807 0.735236 0.927271
0.657980 0.729415 0.918211
0.794763 0.726543 0.915528
0.928409 0.723502 0.916095
1.000000 0.717170 0.916783
0.000000 0.957801 1.000000
0.008178 0.930473 0.979097
0.183532 0.907128 0.958444
0.350538 0.887771 0.942087
0.509197 0.872406 0.930025
0.659510 0.861036 0.922255
0.801480 0.853668 0.918772
0.935108 0.850307 0.919574
1.000000 0.846793 0.920492
0.000000 1.000000 1.000000
0.000000 1.000000 0.976381
0.170506 1.000000 0.957023
0.341653 1.000000 0.941956
0.504456 1.000000 0.931178
0.658918 0.996186 0.924685
0.805044 0.983302 0.922473
0.941797 0.976523 0.923498
1.000000 0.972737 0.924630
0.000000 0.000000 1.000000
0.003082 0.000000 1.000000
0.168016 0.000000 1.000000
0.328822 0.000000 1.000000
0.485488 0.000000 1.000000
0.642170 0.000000 1.000000
0.803028 0.000000 1.000000
0.968055 0.000000 1.000000
1.000000 0.000000 1.000000
0.000000 0.000466 1.000000
0.003670 0.000000 1.000000
0.167627 0.000000 1.000000
0.327434 0.000000 1.000000
0.483083 0.000000 1.000000
0.635610 0.000000 1.000000
0.791261 0.000000 1.000000
0.951073 0.000000 1.000000
1.000000 0.000000 1.000000
0.000000 0.164869 1.000000
0.006447 0.157181 1.000000
0.169387 0.151355 1.000000
0.328165 0.147395 1.000000
0.482774 0.145305 1.000000
0.633211 0.145091 1.000000
0.783640 0.125922 1.000000
0.938224 0.104469 1.000000
1.000000 0.080735 1.000000
0.000000 0.324226 1.000000
0.011344 0.315065 1.000000
0.173245 0.307774 1.000000
0.330974 0.302358 1.000000
0.484528 0.298821 1.000000
0.633905 0.297166 1.000000
0.780143 0.289064 1.000000
0.929493 0.271394 1.000000
1.000000 0.251452 1.000000
0.000000 0.478576 1.000000
0.018321 0.467959 1.000000
0.179167 0.459220 1.000000
0.335835 0.452363 1.000000
0.488325 0.447393 1.000000
0.636633 0.444313 1.000000
0.780761 0.443126 1.000000
0.924873 0.429254 1.000000
1.000000 0.413117 1.000000
0.000000 0.632119 1.000000
0.015891 0.616935 1.000000
0.187131 0.605722 1.000000
0.342732 0.597439 1.000000
0.494151 0.591051 1.000000
0.641389 0.586560 1.000000
0.784445 0.583970 1.000000
0.924361 0.578078 1.000000
1.000000 0.565763 1.000000
0.000000 0.789050 1.000000
0.000913 0.768274 1.000000
0.176291 0.751475 1.000000
0.343321 0.738657 1.000000
0.502003 0.729824 1.000000
0.648170 0.723937 1.000000
0.790157 0.719961 1.000000
0.927966 0.717900 1.000000
1.000000 0.709426 1.000000
0.000000 0.949399 1.000000
0.000000 0.923046 1.000000
0.163311 0.900676 1.000000
0.334478 0.882296 1.000000
0.497299 0.867909 1.000000
0.651775 0.857520 1.000000
0.797908 0.851135 1.000000
0.934660 0.847717 1.000000
1.000000 0.844149 1.000000
0.000000 1.000000 1.000000
0.000000 1.000000 1.000000
0.148192 1.000000 1.000000
0.323501 1.000000 1.000000
0.490468 1.000000 1.000000
0.649095 0.993597 1.000000
0.799387 0.981701 1.000000
0.941351 0.973830 1.000000
1.000000 0.970000 1.000000
