assets/luts/tokyo-neon-night.cube
# Tokyo Neon Night — Aperture X
#
# Nachtstadt mit Leuchtreklame: tiefes, ins Blaugruene gezogenes
# Schwarz, Magenta-Cyan-Teilung (Schatten nach Cyan, Lichter nach
# Magenta) und gesaettigte Spitzlichter, damit Neon leuchtet statt
# auszubleichen.
#
# Original erstellt fuer Aperture X (Phase 28, siehe DECISIONS.md
# ADR-0058) — kein fremdes Werk enthalten, frei verwendbar. Erzeugt
# aus derselben Formel wie der eingebaute Filter gleichen Namens;
# `builtin_lut_matches_shipped_cube_files` in builtin_luts.rs prueft
# beide real gegeneinander.
TITLE "Tokyo Neon Night"
LUT_3D_SIZE 5
DOMAIN_MIN 0.0 0.0 0.0
DOMAIN_MAX 1.0 1.0 1.0
0.000000 0.000000 0.060000
0.229948 0.000000 0.043082
0.538798 0.000000 0.011273
0.881210 0.000000 0.000000
1.000000 0.000000 0.000000
0.000000 0.233587 0.036475
0.239239 0.229757 0.022790
0.527587 0.224994 0.000000
0.853472 0.206845 0.000000
1.000000 0.171180 0.000000
0.000000 0.541556 0.002274
0.248998 0.515103 0.000000
0.541544 0.512799 0.000000
0.850724 0.501344 0.000000
1.000000 0.480767 0.000000
0.000000 0.879417 0.000000
0.246252 0.834655 0.000000
0.547050 0.814104 0.000000
0.860289 0.805296 0.000000
1.000000 0.787428 0.000000
0.000000 1.000000 0.000000
0.226655 1.000000 0.000000
0.544003 1.000000 0.000000
0.861299 1.000000 0.000000
1.000000 1.000000 0.000000
0.000000 0.000000 0.280949
0.224821 0.000000 0.271595
0.512942 0.000000 0.263219
0.838737 0.000000 0.243155
1.000000 0.000000 0.207152
0.000000 0.227016 0.271540
0.234264 0.222838 0.263951
0.510132 0.217746 0.257091
0.819352 0.195115 0.234238
1.000000 0.154980 0.195348
0.000000 0.513486 0.265364
0.244045 0.495050 0.259156
0.519915 0.488275 0.253579
0.808245 0.480694 0.236100
1.000000 0.459837 0.194188
0.000000 0.834070 0.249311
0.237107 0.797349 0.240145
0.529550 0.768183 0.239882
0.821934 0.763271 0.215162
1.000000 0.749312 0.182628
0.000000 1.000000 0.218910
0.213300 1.000000 0.206672
0.526462 1.000000 0.203288
0.827075 1.000000 0.187900
1.000000 1.000000 0.147984
0.000000 0.000000 0.580442
0.219742 0.000000 0.550644
0.512109 0.000000 0.546745
0.821273 0.000000 0.535290
1.000000 0.000000 0.516205
0.000000 0.220316 0.550890
0.229299 0.215797 0.531077
0.505180 0.210381 0.524470
0.793563 0.191605 0.518518
1.000000 0.147005 0.500684
0.000000 0.510297 0.549401
0.239090 0.487384 0.526762
0.514947 0.480310 0.521408
0.790758 0.472441 0.516640
1.000000 0.447140 0.495763
0.000000 0.813614 0.542132
0.236287 0.768271 0.524845
0.524543 0.747162 0.520617
0.800238 0.737817 0.516924
1.000000 0.727772 0.501241
0.000000 1.000000 0.528805
0.208271 1.000000 0.512594
0.517247 1.000000 0.505228
0.809514 1.000000 0.506683
1.000000 1.000000 0.483599
0.000000 0.000000 0.913427
0.202198 0.000000 0.867313
0.502959 0.000000 0.847043
0.816315 0.000000 0.840019
1.000000 0.000000 0.825346
0.000000 0.200988 0.867845
0.207675 0.191969 0.831631
0.500228 0.190400 0.804436
0.792771 0.162985 0.802881
1.000000 0.126423 0.793599
0.000000 0.498660 0.850193
0.221631 0.479607 0.806951
0.509973 0.472238 0.789315
0.785763 0.464084 0.784755
1.000000 0.442677 0.780744
0.000000 0.805552 0.847533
0.210460 0.764091 0.809620
0.519527 0.738541 0.788924
0.795201 0.728936 0.785421
1.000000 0.718642 0.782419
0.000000 1.000000 0.838772
0.190735 1.000000 0.806085
0.516360 1.000000 0.790567
0.804450 0.991133 0.788028
1.000000 0.979626 0.785939
0.000000 0.000000 1.000000
0.168016 0.000000 1.000000
0.485488 0.000000 1.000000
0.803028 0.000000 1.000000
1.000000 0.000000 1.000000
0.000000 0.164869 1.000000
0.169387 0.151355 1.000000
0.482774 0.145305 1.000000
0.783640 0.125922 1.000000
1.000000 0.080735 1.000000
0.000000 0.478576 1.000000
0.179167 0.459220 1.000000
0.488325 0.447393 1.000000
0.780761 0.443126 1.000000
1.000000 0.413117 1.000000
0.000000 0.789050 1.000000
0.176291 0.751475 1.000000
0.502003 0.729824 1.000000
0.790157 0.719961 1.000000
1.000000 0.709426 1.000000
0.000000 1.000000 1.000000
0.148192 1.000000 1.000000
0.490468 1.000000 1.000000
0.799387 0.981701 1.000000
1.000000 0.970000 1.000000
