assets/luts/tokyo-neon-night.cube
# Tokyo Neon Night — Aperture X
#
# Nachtstadt mit Leuchtreklame: tiefes, ins Blaugruene gezogenes
# Schwarz, Magenta-Cyan-Teilung (Schatten nach Cyan, Lichter nach
# Magenta) und gesaettigte Spitzlichter, damit Neon leuchtet statt
# auszubleichen.
#
# Original erstellt fuer Aperture X (Phase 28, siehe DECISIONS.md
# ADR-0058) — kein fremdes Werk enthalten, frei verwendbar. Erzeugt
# aus derselben Formel wie der eingebaute Filter gleichen Namens;
# `builtin_lut_matches_shipped_cube_files` in builtin_luts.rs prueft
# beide real gegeneinander.
TITLE "Tokyo Neon Night"
LUT_3D_SIZE 33
DOMAIN_MIN 0.0 0.0 0.0
DOMAIN_MAX 1.0 1.0 1.0
0.000000 0.000000 0.060000
0.000303 0.000000 0.058671
0.020506 0.000000 0.057127
0.054079 0.000000 0.055360
0.088188 0.000000 0.053365
0.122831 0.000000 0.051142
0.158007 0.000000 0.048687
0.193713 0.000000 0.046001
0.229948 0.000000 0.043082
0.266712 0.000000 0.039929
0.304003 0.000000 0.036542
0.341822 0.000000 0.032920
0.380166 0.000000 0.029063
0.419036 0.000000 0.024970
0.458432 0.000000 0.020641
0.498353 0.000000 0.016075
0.538798 0.000000 0.011273
0.579768 0.000000 0.006234
0.621261 0.000000 0.000958
0.663278 0.000000 0.000000
0.705819 0.000000 0.000000
0.748882 0.000000 0.000000
0.792469 0.000000 0.000000
0.836578 0.000000 0.000000
0.881210 0.000000 0.000000
0.926365 0.000000 0.000000
0.972042 0.000000 0.000000
1.000000 0.000000 0.000000
1.000000 0.000000 0.000000
1.000000 0.000000 0.000000
1.000000 0.000000 0.000000
1.000000 0.000000 0.000000
1.000000 0.000000 0.000000
0.000000 0.000210 0.057555
0.000373 0.000033 0.056308
0.022073 0.000000 0.054898
0.055413 0.000000 0.053129
0.089286 0.000000 0.051130
0.123690 0.000000 0.048898
0.158623 0.000000 0.046434
0.194084 0.000000 0.043736
0.230073 0.000000 0.040804
0.266589 0.000000 0.037637
0.303632 0.000000 0.034234
0.341200 0.000000 0.030596
0.379293 0.000000 0.026722
0.417912 0.000000 0.022612
0.457055 0.000000 0.018265
0.496722 0.000000 0.013680
0.536914 0.000000 0.008859
0.577628 0.000000 0.003800
0.618867 0.000000 0.000000
0.660628 0.000000 0.000000
0.702913 0.000000 0.000000
0.745720 0.000000 0.000000
0.789050 0.000000 0.000000
0.832902 0.000000 0.000000
0.877277 0.000000 0.000000
0.922173 0.000000 0.000000
0.967592 0.000000 0.000000
1.000000 0.000000 0.000000
1.000000 0.000000 0.000000
1.000000 0.000000 0.000000
1.000000 0.000000 0.000000
1.000000 0.000000 0.000000
1.000000 0.000000 0.000000
0.000000 0.021959 0.054999
0.000549 0.022319 0.053880
0.024082 0.023050 0.052400
0.057183 0.023632 0.050819
0.090553 0.024067 0.049135
0.124712 0.024289 0.046892
0.159399 0.024233 0.044414
0.194613 0.023900 0.041702
0.230353 0.023290 0.038755
0.266619 0.022404 0.035572
0.303410 0.021241 0.032153
0.340726 0.019801 0.028497
0.378567 0.018086 0.024605
0.416932 0.016095 0.020476
0.455821 0.013827 0.016109
0.495234 0.011285 0.011505
0.535170 0.008466 0.006663
0.575629 0.005373 0.001583
0.616612 0.002004 0.000000
0.658117 0.000000 0.000000
0.700145 0.000000 0.000000
0.742695 0.000000 0.000000
0.785767 0.000000 0.000000
0.829362 0.000000 0.000000
0.873478 0.000000 0.000000
0.918116 0.000000 0.000000
0.963276 0.000000 0.000000
1.000000 0.000000 0.000000
1.000000 0.000000 0.000000
1.000000 0.000000 0.000000
1.000000 0.000000 0.000000
1.000000 0.000000 0.000000
1.000000 0.000000 0.000000
0.000000 0.056096 0.052304
0.000613 0.056159 0.051177
0.025999 0.056594 0.049883
0.059181 0.057207 0.048225
0.092631 0.057673 0.046463
0.126347 0.057991 0.044596
0.160329 0.058163 0.042624
0.195292 0.058124 0.039896
0.230782 0.057807 0.036932
0.266796 0.057215 0.033731
0.303334 0.056347 0.030294
0.340397 0.055202 0.026620
0.377984 0.053782 0.022708
0.416095 0.052086 0.018559
0.454729 0.050114 0.014172
0.493886 0.047867 0.009548
0.533566 0.045345 0.004685
0.573769 0.042548 0.000000
0.614495 0.039476 0.000000
0.655743 0.036129 0.000000
0.697513 0.032506 0.000000
0.739805 0.028610 0.000000
0.782620 0.024438 0.000000
0.825956 0.019992 0.000000
0.869814 0.015271 0.000000
0.914193 0.010276 0.000000
0.959094 0.005007 0.000000
1.000000 0.000000 0.000000
1.000000 0.000000 0.000000
1.000000 0.000000 0.000000
1.000000 0.000000 0.000000
1.000000 0.000000 0.000000
1.000000 0.000000 0.000000
0.000000 0.090683 0.049459
0.000490 0.090451 0.048321
0.027815 0.090331 0.047339
0.061076 0.090976 0.045602
0.094602 0.091474 0.043760
0.128393 0.091825 0.041812
0.162450 0.092031 0.039758
0.196771 0.092090 0.037599
0.231357 0.092003 0.035332
0.267117 0.091705 0.032113
0.303402 0.091132 0.028656
0.340210 0.090283 0.024962
0.377542 0.089158 0.021031
0.415397 0.087758 0.016861
0.453775 0.086083 0.012453
0.492676 0.084132 0.007806
0.532100 0.081907 0.002921
0.572046 0.079407 0.000000
0.612514 0.076631 0.000000
0.653504 0.073581 0.000000
0.695016 0.070257 0.000000
0.737050 0.066657 0.000000
0.779606 0.062783 0.000000
0.822683 0.058635 0.000000
0.866282 0.054213 0.000000
0.910402 0.049516 0.000000
0.955044 0.044545 0.000000
1.000000 0.039300 0.000000
1.000000 0.033781 0.000000
1.000000 0.027988 0.000000
1.000000 0.021921 0.000000
1.000000 0.015581 0.000000
1.000000 0.008966 0.000000
0.000000 0.125724 0.046458
0.000173 0.125197 0.045306
0.029461 0.124784 0.044309
0.062862 0.124941 0.042946
0.096462 0.125472 0.041022
0.130328 0.125857 0.038992
0.164457 0.126097 0.036855
0.198851 0.126190 0.034612
0.233508 0.126138 0.032261
0.268428 0.125941 0.029803
0.303611 0.125598 0.027238
0.340164 0.125045 0.023523
0.377240 0.124216 0.019570
0.414839 0.123113 0.015378
0.452960 0.121734 0.010948
0.491604 0.120080 0.006280
0.530770 0.118152 0.001372
0.570458 0.115949 0.000000
0.610668 0.113471 0.000000
0.651400 0.110718 0.000000
0.692654 0.107691 0.000000
0.734429 0.104390 0.000000
0.776726 0.100814 0.000000
0.819544 0.096965 0.000000
0.862883 0.092840 0.000000
0.906744 0.088442 0.000000
0.951125 0.083770 0.000000
0.996028 0.078824 0.000000
1.000000 0.073604 0.000000
1.000000 0.068110 0.000000
1.000000 0.062342 0.000000
1.000000 0.056301 0.000000
1.000000 0.049986 0.000000
0.000000 0.161220 0.043296
0.000000 0.160400 0.042128
0.030865 0.159695 0.041114
0.064535 0.159104 0.040255
0.098209 0.159670 0.038248
0.132146 0.160089 0.036133
0.166348 0.160363 0.033912
0.200812 0.160492 0.031584
0.235540 0.160475 0.029148
0.270530 0.160313 0.026604
0.305783 0.160006 0.023952
0.341298 0.159554 0.021193
0.377076 0.158957 0.018325
0.414417 0.158150 0.014111
0.452281 0.157068 0.009658
0.490667 0.155712 0.004967
0.529575 0.154081 0.000036
0.569005 0.152175 0.000000
0.608956 0.149995 0.000000
0.649430 0.147541 0.000000
0.690424 0.144812 0.000000
0.731940 0.141809 0.000000
0.773977 0.138531 0.000000
0.816536 0.134980 0.000000
0.859615 0.131155 0.000000
0.903216 0.127055 0.000000
0.947337 0.122682 0.000000
0.991980 0.118035 0.000000
1.000000 0.113114 0.000000
1.000000 0.107920 0.000000
1.000000 0.102452 0.000000
1.000000 0.096710 0.000000
1.000000 0.090695 0.000000
0.000000 0.197173 0.039969
0.000000 0.196062 0.038784
0.032026 0.195066 0.037752
0.066028 0.194184 0.036874
0.099839 0.194067 0.035433
0.133847 0.194522 0.033234
0.168119 0.194831 0.030928
0.202653 0.194995 0.028514
0.237451 0.195014 0.025991
0.272510 0.194888 0.023361
0.307832 0.194617 0.020622
0.343416 0.194202 0.017775
0.379261 0.193641 0.014819
0.415368 0.192936 0.011755
0.451737 0.192087 0.008581
0.489865 0.191028 0.003866
0.528514 0.189695 0.000000
0.567685 0.188087 0.000000
0.607378 0.186205 0.000000
0.647592 0.184049 0.000000
0.688327 0.181618 0.000000
0.729583 0.178914 0.000000
0.771361 0.175935 0.000000
0.813659 0.172683 0.000000
0.856479 0.169156 0.000000
0.899819 0.165356 0.000000
0.943680 0.161282 0.000000
0.988062 0.156934 0.000000
1.000000 0.152313 0.000000
1.000000 0.147418 0.000000
1.000000 0.142250 0.000000
1.000000 0.136808 0.000000
1.000000 0.131093 0.000000
0.000000 0.233587 0.036475
0.000000 0.232184 0.035271
0.032939 0.230897 0.034220
0.067273 0.229724 0.033323
0.101349 0.228667 0.032578
0.135428 0.229157 0.030293
0.169769 0.229502 0.027900
0.204373 0.229702 0.025399
0.239239 0.229757 0.022790
0.274367 0.229667 0.020073
0.309757 0.229433 0.017246
0.345408 0.229054 0.014311
0.381321 0.228531 0.011267
0.417496 0.227863 0.008113
0.453932 0.227051 0.004851
0.490629 0.226095 0.001479
0.527587 0.224994 0.000000
0.566499 0.223685 0.000000
0.605932 0.222101 0.000000
0.645886 0.220243 0.000000
0.686361 0.218112 0.000000
0.727358 0.215706 0.000000
0.768875 0.213026 0.000000
0.810913 0.210073 0.000000
0.853472 0.206845 0.000000
0.896552 0.203344 0.000000
0.940152 0.199570 0.000000
0.984273 0.195522 0.000000
1.000000 0.191200 0.000000
1.000000 0.186605 0.000000
1.000000 0.181737 0.000000
1.000000 0.176595 0.000000
1.000000 0.171180 0.000000
0.000000 0.270460 0.032812
0.000000 0.268767 0.031588
0.033603 0.267190 0.030517
0.068268 0.265727 0.029598
0.102674 0.264380 0.028833
0.136887 0.263994 0.027307
0.171297 0.264375 0.024828
0.205969 0.264612 0.022240
0.240904 0.264703 0.019543
0.276099 0.264650 0.016737
0.311557 0.264453 0.013822
0.347275 0.264111 0.010798
0.383256 0.263625 0.007665
0.419497 0.262995 0.004423
0.455999 0.262221 0.001071
0.492762 0.261302 0.000000
0.529787 0.260240 0.000000
0.567072 0.259034 0.000000
0.604617 0.257684 0.000000
0.644312 0.256125 0.000000
0.684527 0.254292 0.000000
0.725263 0.252185 0.000000
0.766520 0.249805 0.000000
0.808297 0.247151 0.000000
0.850595 0.244223 0.000000
0.893414 0.241022 0.000000
0.936754 0.237547 0.000000
0.980613 0.233799 0.000000
1.000000 0.229777 0.000000
1.000000 0.225482 0.000000
1.000000 0.220914 0.000000
1.000000 0.216073 0.000000
1.000000 0.210958 0.000000
0.000000 0.307796 0.028977
0.000000 0.305813 0.027732
0.034016 0.303945 0.026640
0.069011 0.302193 0.025700
0.103746 0.300556 0.024912
0.138223 0.299035 0.024276
0.172701 0.299453 0.021709
0.207441 0.299726 0.019033
0.242443 0.299855 0.016248
0.277706 0.299839 0.013353
0.313230 0.299679 0.010350
0.349016 0.299375 0.007237
0.385062 0.298927 0.004014
0.421370 0.298334 0.000682
0.457938 0.297598 0.000000
0.494768 0.296717 0.000000
0.531858 0.295693 0.000000
0.569208 0.294525 0.000000
0.606819 0.293214 0.000000
0.644691 0.291759 0.000000
0.682822 0.290160 0.000000
0.723298 0.288353 0.000000
0.764294 0.286272 0.000000
0.805811 0.283917 0.000000
0.847848 0.281289 0.000000
0.890406 0.278388 0.000000
0.933484 0.275213 0.000000
0.977082 0.271765 0.000000
1.000000 0.268043 0.000000
1.000000 0.264049 0.000000
1.000000 0.259781 0.000000
1.000000 0.255240 0.000000
1.000000 0.250427 0.000000
0.000000 0.345594 0.024968
0.000000 0.343322 0.023702
0.034177 0.341165 0.022588
0.069500 0.339123 0.021626
0.104564 0.337198 0.020816
0.139369 0.335388 0.020157
0.173980 0.334736 0.018543
0.208787 0.335046 0.015778
0.243856 0.335212 0.012904
0.279186 0.335234 0.009920
0.314777 0.335111 0.006827
0.350628 0.334845 0.003625
0.386741 0.334435 0.000312
0.423115 0.333880 0.000000
0.459749 0.333182 0.000000
0.496644 0.332340 0.000000
0.533799 0.331355 0.000000
0.571215 0.330225 0.000000
0.608891 0.328953 0.000000
0.646827 0.327536 0.000000
0.685024 0.325977 0.000000
0.723481 0.324274 0.000000
0.762198 0.322427 0.000000
0.803453 0.320373 0.000000
0.845229 0.318045 0.000000
0.887526 0.315443 0.000000
0.930343 0.312569 0.000000
0.973680 0.309421 0.000000
1.000000 0.306000 0.000000
1.000000 0.302306 0.000000
1.000000 0.298339 0.000000
1.000000 0.294099 0.000000
1.000000 0.289586 0.000000
0.000000 0.383856 0.020784
0.000000 0.381294 0.019496
0.034083 0.378848 0.018360
0.069735 0.376518 0.017375
0.105127 0.374304 0.016541
0.140260 0.372206 0.015859
0.175133 0.370224 0.015328
0.210007 0.370572 0.012474
0.245142 0.370775 0.009510
0.280538 0.370835 0.006437
0.316195 0.370751 0.003254
0.352113 0.370522 0.000000
0.388291 0.370150 0.000000
0.424730 0.369634 0.000000
0.461430 0.368974 0.000000
0.498390 0.368171 0.000000
0.535610 0.367224 0.000000
0.573091 0.366134 0.000000
0.610832 0.364900 0.000000
0.648833 0.363523 0.000000
0.687094 0.362003 0.000000
0.725615 0.360339 0.000000
0.764397 0.358533 0.000000
0.803438 0.356583 0.000000
0.842739 0.354490 0.000000
0.884774 0.352189 0.000000
0.927330 0.349615 0.000000
0.970405 0.346767 0.000000
1.000000 0.343647 0.000000
1.000000 0.340254 0.000000
1.000000 0.336588 0.000000
1.000000 0.332649 0.000000
1.000000 0.328438 0.000000
0.000000 0.422583 0.016424
0.000000 0.419732 0.015113
0.033734 0.416998 0.013954
0.069713 0.414379 0.012945
0.105433 0.411877 0.012088
0.140893 0.409491 0.011382
0.176093 0.407221 0.010826
0.211099 0.406304 0.009120
0.246300 0.406546 0.006066
0.281762 0.406643 0.002903
0.317484 0.406597 0.000000
0.353468 0.406407 0.000000
0.389712 0.406073 0.000000
0.426216 0.405596 0.000000
0.462981 0.404975 0.000000
0.500006 0.404211 0.000000
0.537291 0.403303 0.000000
0.574836 0.402252 0.000000
0.612642 0.401058 0.000000
0.650707 0.399720 0.000000
0.689033 0.398239 0.000000
0.727618 0.396615 0.000000
0.766464 0.394848 0.000000
0.805569 0.392938 0.000000
0.844935 0.390886 0.000000
0.884560 0.388690 0.000000
0.924444 0.386351 0.000000
0.967258 0.383805 0.000000
1.000000 0.380986 0.000000
1.000000 0.377894 0.000000
1.000000 0.374529 0.000000
1.000000 0.370891 0.000000
1.000000 0.366981 0.000000
0.000000 0.461774 0.011887
0.000000 0.458635 0.010552
0.033129 0.455613 0.009369
0.069435 0.452706 0.008336
0.105482 0.449916 0.007455
0.141268 0.447242 0.006724
0.176795 0.444685 0.006144
0.212062 0.442244 0.005714
0.247329 0.442523 0.002570
0.282856 0.442659 0.000000
0.318645 0.442652 0.000000
0.354693 0.442500 0.000000
0.391002 0.442205 0.000000
0.427571 0.441767 0.000000
0.464401 0.441185 0.000000
0.501490 0.440460 0.000000
0.538840 0.439592 0.000000
0.576450 0.438580 0.000000
0.614320 0.437425 0.000000
0.652450 0.436127 0.000000
0.690840 0.434686 0.000000
0.729489 0.433102 0.000000
0.768399 0.431375 0.000000
0.807568 0.429505 0.000000
0.846997 0.427493 0.000000
0.886686 0.425338 0.000000
0.926635 0.423040 0.000000
0.966843 0.420599 0.000000
1.000000 0.418016 0.000000
1.000000 0.415225 0.000000
1.000000 0.412161 0.000000
1.000000 0.408825 0.000000
1.000000 0.405217 0.000000
0.000000 0.501432 0.007171
0.000000 0.498005 0.005812
0.032266 0.494695 0.004604
0.068899 0.491500 0.003547
0.105272 0.488422 0.002641
0.141385 0.485461 0.001885
0.177238 0.482616 0.001279
0.212831 0.479888 0.000824
0.248229 0.478709 0.000000
0.283821 0.478884 0.000000
0.319675 0.478915 0.000000
0.355788 0.478802 0.000000
0.392162 0.478546 0.000000
0.428796 0.478147 0.000000
0.465690 0.477605 0.000000
0.502844 0.476919 0.000000
0.540258 0.476090 0.000000
0.577932 0.475118 0.000000
0.615866 0.474003 0.000000
0.654060 0.472745 0.000000
0.692514 0.471344 0.000000
0.731228 0.469800 0.000000
0.770201 0.468114 0.000000
0.809434 0.466284 0.000000
0.848927 0.464312 0.000000
0.888680 0.462197 0.000000
0.928692 0.459940 0.000000
0.968964 0.457540 0.000000
1.000000 0.454998 0.000000
1.000000 0.452313 0.000000
1.000000 0.449486 0.000000
1.000000 0.446452 0.000000
1.000000 0.443145 0.000000
0.000000 0.541556 0.002274
0.000000 0.537842 0.000891
0.031146 0.534244 0.000000
0.068105 0.530762 0.000000
0.104804 0.527397 0.000000
0.141243 0.524148 0.000000
0.177422 0.521016 0.000000
0.213340 0.518001 0.000000
0.248998 0.515103 0.000000
0.284656 0.515317 0.000000
0.320574 0.515387 0.000000
0.356752 0.515314 0.000000
0.393191 0.515097 0.000000
0.429889 0.514737 0.000000
0.466847 0.514234 0.000000
0.504066 0.513588 0.000000
0.541544 0.512799 0.000000
0.579283 0.511867 0.000000
0.617281 0.510792 0.000000
0.655539 0.509574 0.000000
0.694056 0.508213 0.000000
0.732834 0.506710 0.000000
0.771871 0.505064 0.000000
0.811168 0.503275 0.000000
0.850724 0.501344 0.000000
0.890540 0.499270 0.000000
0.930616 0.497053 0.000000
0.970951 0.494695 0.000000
1.000000 0.492194 0.000000
1.000000 0.489550 0.000000
1.000000 0.486765 0.000000
1.000000 0.483837 0.000000
1.000000 0.480767 0.000000
0.000000 0.582148 0.000000
0.000000 0.578146 0.000000
0.029766 0.574260 0.000000
0.067051 0.570491 0.000000
0.104076 0.566839 0.000000
0.140841 0.563304 0.000000
0.177345 0.559885 0.000000
0.213589 0.556584 0.000000
0.249572 0.553399 0.000000
0.285360 0.551959 0.000000
0.321342 0.552068 0.000000
0.357585 0.552035 0.000000
0.394088 0.551858 0.000000
0.430850 0.551537 0.000000
0.467873 0.551074 0.000000
0.505156 0.550468 0.000000
0.542698 0.549719 0.000000
0.580500 0.548827 0.000000
0.618562 0.547792 0.000000
0.656884 0.546615 0.000000
0.695465 0.545295 0.000000
0.734306 0.543832 0.000000
0.773407 0.542226 0.000000
0.812767 0.540478 0.000000
0.852387 0.538588 0.000000
0.892267 0.536555 0.000000
0.932406 0.534380 0.000000
0.972805 0.532063 0.000000
1.000000 0.529603 0.000000
1.000000 0.527001 0.000000
1.000000 0.524257 0.000000
1.000000 0.521372 0.000000
1.000000 0.518344 0.000000
0.000000 0.623207 0.000000
0.000000 0.618918 0.000000
0.028126 0.614745 0.000000
0.065737 0.610690 0.000000
0.103088 0.606751 0.000000
0.140178 0.602929 0.000000
0.177008 0.599224 0.000000
0.213576 0.595636 0.000000
0.249885 0.592165 0.000000
0.285932 0.588811 0.000000
0.321979 0.588960 0.000000
0.358286 0.588966 0.000000
0.394853 0.588829 0.000000
0.431680 0.588548 0.000000
0.468767 0.588125 0.000000
0.506113 0.587559 0.000000
0.543719 0.586850 0.000000
0.581585 0.585999 0.000000
0.619711 0.585005 0.000000
0.658096 0.583868 0.000000
0.696741 0.582588 0.000000
0.735646 0.581166 0.000000
0.774810 0.579602 0.000000
0.814234 0.577895 0.000000
0.853917 0.576046 0.000000
0.893860 0.574054 0.000000
0.934063 0.571921 0.000000
0.974525 0.569645 0.000000
1.000000 0.567227 0.000000
1.000000 0.564667 0.000000
1.000000 0.561965 0.000000
1.000000 0.559121 0.000000
1.000000 0.556135 0.000000
0.000000 0.664735 0.000000
0.000000 0.660159 0.000000
0.026227 0.655700 0.000000
0.064163 0.651357 0.000000
0.101839 0.647132 0.000000
0.139254 0.643023 0.000000
0.176409 0.639032 0.000000
0.213303 0.635158 0.000000
0.249936 0.631401 0.000000
0.286308 0.627761 0.000000
0.322484 0.626062 0.000000
0.358855 0.626108 0.000000
0.395486 0.626011 0.000000
0.432377 0.625771 0.000000
0.469527 0.625388 0.000000
0.506938 0.624862 0.000000
0.544608 0.624194 0.000000
0.582537 0.623383 0.000000
0.620727 0.622429 0.000000
0.659176 0.621333 0.000000
0.697884 0.620095 0.000000
0.736852 0.618714 0.000000
0.776080 0.617190 0.000000
0.815567 0.615525 0.000000
0.855314 0.613717 0.000000
0.895320 0.611767 0.000000
0.935586 0.609675 0.000000
0.976111 0.607441 0.000000
1.000000 0.605065 0.000000
1.000000 0.602547 0.000000
1.000000 0.599887 0.000000
1.000000 0.597085 0.000000
1.000000 0.594142 0.000000
0.000000 0.706732 0.000000
0.000000 0.701869 0.000000
0.024066 0.697123 0.000000
0.062328 0.692494 0.000000
0.100329 0.687983 0.000000
0.138069 0.683588 0.000000
0.175548 0.679311 0.000000
0.212767 0.675151 0.000000
0.249724 0.671108 0.000000
0.286421 0.667183 0.000000
0.322857 0.663375 0.000000
0.359292 0.663461 0.000000
0.395987 0.663404 0.000000
0.432941 0.663204 0.000000
0.470155 0.662862 0.000000
0.507629 0.662377 0.000000
0.545363 0.661749 0.000000
0.583356 0.660979 0.000000
0.621609 0.660067 0.000000
0.660121 0.659012 0.000000
0.698893 0.657814 0.000000
0.737925 0.656475 0.000000
0.777216 0.654993 0.000000
0.816767 0.653369 0.000000
0.856577 0.651603 0.000000
0.896646 0.649695 0.000000
0.936975 0.647644 0.000000
0.977564 0.645452 0.000000
1.000000 0.643118 0.000000
1.000000 0.640643 0.000000
1.000000 0.638025 0.000000
1.000000 0.635266 0.000000
1.000000 0.632365 0.000000
0.000000 0.749198 0.000000
0.000000 0.744048 0.000000
0.021644 0.739016 0.000000
0.060231 0.734101 0.000000
0.098557 0.729304 0.000000
0.136622 0.724623 0.000000
0.174426 0.720060 0.000000
0.211969 0.715615 0.000000
0.249251 0.711287 0.000000
0.286272 0.707076 0.000000
0.323032 0.702983 0.000000
0.359596 0.701026 0.000000
0.396354 0.701010 0.000000
0.433372 0.700850 0.000000
0.470650 0.700549 0.000000
0.508188 0.700105 0.000000
0.545985 0.699518 0.000000
0.584042 0.698789 0.000000
0.622358 0.697917 0.000000
0.660934 0.696904 0.000000
0.699769 0.695748 0.000000
0.738864 0.694450 0.000000
0.778218 0.693009 0.000000
0.817832 0.691427 0.000000
0.857706 0.689703 0.000000
0.897838 0.687837 0.000000
0.938231 0.685829 0.000000
0.978882 0.683679 0.000000
1.000000 0.681387 0.000000
1.000000 0.678954 0.000000
1.000000 0.676379 0.000000
1.000000 0.673663 0.000000
1.000000 0.670805 0.000000
0.000000 0.792134 0.000000
0.000000 0.786698 0.000000
0.018961 0.781380 0.000000
0.057872 0.776179 0.000000
0.096523 0.771096 0.000000
0.134912 0.766130 0.000000
0.173040 0.761281 0.000000
0.210908 0.756550 0.000000
0.248514 0.751937 0.000000
0.285859 0.747441 0.000000
0.322944 0.743063 0.000000
0.359767 0.738803 0.000000
0.396589 0.738827 0.000000
0.433671 0.738709 0.000000
0.471012 0.738448 0.000000
0.508613 0.738045 0.000000
0.546474 0.737500 0.000000
0.584594 0.736812 0.000000
0.622973 0.735982 0.000000
0.661613 0.735010 0.000000
0.700511 0.733895 0.000000
0.739669 0.732639 0.000000
0.779087 0.731241 0.000000
0.818764 0.729700 0.000000
0.858701 0.728018 0.000000
0.898897 0.726194 0.000000
0.939352 0.724229 0.000000
0.980067 0.722121 0.000000
1.000000 0.719872 0.000000
1.000000 0.717482 0.000000
1.000000 0.714950 0.000000
1.000000 0.712276 0.000000
1.000000 0.709461 0.000000
0.000000 0.835540 0.000000
0.000000 0.829819 0.000000
0.016016 0.824215 0.000000
0.055251 0.818728 0.000000
0.094226 0.813359 0.000000
0.132940 0.808108 0.000000
0.171393 0.802974 0.000000
0.209584 0.797958 0.000000
0.247515 0.793060 0.000000
0.285184 0.788279 0.000000
0.322592 0.783616 0.000000
0.359739 0.779071 0.000000
0.396690 0.776858 0.000000
0.433835 0.776780 0.000000
0.471240 0.776561 0.000000
0.508905 0.776199 0.000000
0.546829 0.775695 0.000000
0.585012 0.775049 0.000000
0.623455 0.774260 0.000000
0.662158 0.773330 0.000000
0.701119 0.772257 0.000000
0.740341 0.771043 0.000000
0.779822 0.769687 0.000000
0.819562 0.768189 0.000000
0.859562 0.766549 0.000000
0.899821 0.764768 0.000000
0.940340 0.762844 0.000000
0.981118 0.760780 0.000000
1.000000 0.758574 0.000000
1.000000 0.756226 0.000000
1.000000 0.753737 0.000000
1.000000 0.751107 0.000000
1.000000 0.748335 0.000000
0.000000 0.879417 0.000000
0.000000 0.873410 0.000000
0.012808 0.867521 0.000000
0.052368 0.861749 0.000000
0.091667 0.856095 0.000000
0.130705 0.850558 0.000000
0.169482 0.845139 0.000000
0.207997 0.839838 0.000000
0.246252 0.834655 0.000000
0.284245 0.829590 0.000000
0.321977 0.824642 0.000000
0.359448 0.819813 0.000000
0.396658 0.815101 0.000000
0.433867 0.815065 0.000000
0.471335 0.814887 0.000000
0.509063 0.814567 0.000000
0.547050 0.814104 0.000000
0.585297 0.813500 0.000000
0.623803 0.812753 0.000000
0.662569 0.811865 0.000000
0.701594 0.810835 0.000000
0.740879 0.809663 0.000000
0.780423 0.808349 0.000000
0.820226 0.806893 0.000000
0.860289 0.805296 0.000000
0.900612 0.803557 0.000000
0.941194 0.801677 0.000000
0.982036 0.799655 0.000000
1.000000 0.797492 0.000000
1.000000 0.795188 0.000000
1.000000 0.792742 0.000000
1.000000 0.790155 0.000000
1.000000 0.787428 0.000000
0.000000 0.923766 0.000000
0.000000 0.917473 0.000000
0.009337 0.911299 0.000000
0.049221 0.905242 0.000000
0.088845 0.899302 0.000000
0.128207 0.893481 0.000000
0.167308 0.887777 0.000000
0.206147 0.882191 0.000000
0.244726 0.876724 0.000000
0.283043 0.871374 0.000000
0.321099 0.866142 0.000000
0.358894 0.861028 0.000000
0.396427 0.856033 0.000000
0.433764 0.853564 0.000000
0.471296 0.853428 0.000000
0.509087 0.853149 0.000000
0.547137 0.852729 0.000000
0.585448 0.852166 0.000000
0.624017 0.851462 0.000000
0.662846 0.850615 0.000000
0.701934 0.849627 0.000000
0.741282 0.848498 0.000000
0.780890 0.847227 0.000000
0.820757 0.845814 0.000000
0.860883 0.844259 0.000000
0.901269 0.842563 0.000000
0.941914 0.840726 0.000000
0.982819 0.838748 0.000000
1.000000 0.836628 0.000000
1.000000 0.834367 0.000000
1.000000 0.831965 0.000000
1.000000 0.829422 0.000000
1.000000 0.826738 0.000000
0.000000 0.968586 0.000000
0.000000 0.962008 0.000000
0.005603 0.955549 0.000000
0.045812 0.949207 0.000000
0.085759 0.942983 0.000000
0.125445 0.936876 0.000000
0.164870 0.930888 0.000000
